{
  "version": "1.10",
  "tiledversion": "1.10.2",
  "type": "map",
  "orientation": "orthogonal",
  "renderorder": "right-down",
  "infinite": false,
  "width": 12,
  "height": 10,
  "tilewidth": 16,
  "tileheight": 16,
  "nextlayerid": 5,
  "nextobjectid": 5,
  "tilesets": [
    {
      "firstgid": 384,
      "name": "outdoor",
      "image": "assets/tilesets/Outdoor.png",
      "imagewidth": 256,
      "imageheight": 22080,
      "tilewidth": 16,
      "tileheight": 16,
      "columns": 16,
      "tilecount": 22080
    }
  ],
  "layers": [
    {
      "id": 1,
      "name": "Ground",
      "type": "tilelayer",
      "width": 12,
      "height": 10,
      "visible": true,
      "data": [
        441,442,442,443,443,442,442,443,443,442,442,444,
        505,410,411,410,411,410,411,410,411,410,411,508,
        505,411,409,412,409,412,409,412,409,412,410,508,
        505,410,412,411,412,411,412,411,412,411,409,508,
        505,411,409,410,411,410,411,410,411,410,412,508,
        505,410,412,411,409,412,409,412,409,412,411,508,
        505,411,410,412,411,410,411,410,411,410,412,508,
        505,409,411,410,409,412,409,412,409,412,410,508,
        505,412,410,411,412,411,412,411,412,411,409,508,
        505,411,410,412,0,411,410,412,411,410,412,508
      ]
    },
    {
      "id": 2,
      "name": "Decoration",
      "type": "tilelayer",
      "width": 12,
      "height": 10,
      "visible": true,
      "data": [
        0,0,0,0,0,0,0,0,0,0,0,0,
        0,0,514,0,514,0,514,0,514,0,0,0,
        0,0,0,0,0,0,0,0,0,0,0,0,
        0,513,0,0,513,0,513,0,0,515,0,0,
        0,0,0,0,0,0,0,0,0,0,0,0,
        0,514,0,514,0,514,0,514,0,514,0,0,
        0,0,0,0,0,0,0,0,0,0,0,0,
        0,0,515,0,515,0,515,0,515,0,0,0,
        0,0,0,0,0,0,0,0,0,0,0,0,
        0,0,0,0,0,0,0,0,0,0,0,0
      ]
    },
    {
      "id": 3,
      "name": "Overhead",
      "type": "tilelayer",
      "width": 12,
      "height": 10,
      "visible": true,
      "data": [
        0,0,0,0,0,0,0,0,0,0,0,0,
        0,0,0,0,0,0,0,0,0,0,0,0,
        0,0,0,0,0,0,0,0,0,0,0,0,
        0,0,0,0,0,0,0,0,0,0,0,0,
        0,0,0,0,0,0,0,0,0,0,0,0,
        0,0,0,0,0,0,0,0,0,0,0,0,
        0,0,0,0,0,0,0,0,0,0,0,0,
        0,0,0,0,0,0,0,0,0,0,0,0,
        0,0,0,0,0,0,0,0,0,0,0,0,
        0,0,0,0,0,0,0,0,0,0,0,0
      ]
    },
    {
      "id": 4,
      "name": "Objects",
      "type": "objectgroup",
      "objects": [
        {
          "id": 1,
          "name": "DoorOut",
          "type": "warp",
          "x": 5,
          "y": 9,
          "width": 1,
          "height": 1,
          "visible": true,
          "toMap": "pallet-town",
          "toX": 3,
          "toY": 5
        },
        {
          "id": 2,
          "name": "ProfessorOak",
          "type": "npc_spawn",
          "x": 6,
          "y": 3,
          "width": 1,
          "height": 1,
          "visible": true,
          "npcId": "professor_oak",
          "name": "Prof. Oak",
          "sprite": "professor",
          "trainer": false,
          "dialog": ["Welcome to my lab, young trainer!", "Choose your first Pokémon wisely."],
          "team": []
        },
        {
          "id": 3,
          "name": "LabSign",
          "type": "sign",
          "x": 1,
          "y": 1,
          "width": 1,
          "height": 1,
          "visible": true,
          "text": "PROF. OAK'S RESEARCH LAB"
        },
        {
          "id": 4,
          "name": "StarterBall1",
          "type": "item_ball",
          "x": 8,
          "y": 2,
          "width": 1,
          "height": 1,
          "visible": true,
          "itemId": "pokeball",
          "quantity": 1,
          "consumed": true
        }
      ]
    }
  ],
  "properties": [
    { "name": "mapId", "type": "string", "value": "interior-lab" },
    { "name": "name", "type": "string", "value": "Oak's Laboratory" },
    { "name": "mapType", "type": "string", "value": "interior" },
    { "name": "description", "type": "string", "value": "Professor Oak's research laboratory. Choose your first partner here." },
    { "name": "music", "type": "string", "value": "pallet-town" },
    { "name": "weather", "type": "string", "value": "sunny" },
    { "name": "requiredBadges", "type": "string", "value": "" }
  ],
  "encounters": []
}