{
  "version": "1.10",
  "tiledversion": "1.10.2",
  "type": "map",
  "orientation": "orthogonal",
  "renderorder": "right-down",
  "infinite": false,
  "width": 46,
  "height": 40,
  "tilewidth": 16,
  "tileheight": 16,
  "layers": [
    {
      "id": 1,
      "name": "Ground",
      "type": "tilelayer",
      "width": 46,
      "height": 40,
      "visible": true,
      "data": [
        5520,
        0,
        384,
        385,
        386,
        387,
        384,
        385,
        386,
        387,
        384,
        385,
        386,
        387,
        384,
        385,
        386,
        387,
        384,
        385,
        386,
        387,
        384,
        385,
        386,
        387,
        384,
        385,
        386,
        387,
        384,
        385,
        386,
        387,
        384,
        385,
        384,
        385,
        384,
        385,
        384,
        385,
        384,
        385,
        384,
        385,
        384,
        385,
        392,
        393,
        394,
        395,
        392,
        393,
        394,
        395,
        392,
        393,
        394,
        395,
        392,
        393,
        394,
        395,
        392,
        393,
        394,
        395,
        392,
        393,
        394,
        395,
        392,
        393,
        394,
        395,
        392,
        393,
        394,
        395,
        392,
        393,
        392,
        393,
        392,
        393,
        392,
        393,
        392,
        393,
        392,
        393,
        392,
        393,
        400,
        401,
        402,
        403,
        400,
        401,
        402,
        403,
        400,
        401,
        402,
        403,
        400,
        401,
        402,
        403,
        400,
        401,
        402,
        403,
        400,
        401,
        402,
        403,
        400,
        401,
        402,
        403,
        400,
        401,
        402,
        403,
        400,
        401,
        384,
        385,
        384,
        385,
        384,
        385,
        384,
        385,
        384,
        385,
        384,
        385,
        408,
        409,
        410,
        411,
        408,
        409,
        410,
        411,
        408,
        409,
        410,
        411,
        408,
        409,
        410,
        411,
        408,
        409,
        410,
        411,
        408,
        409,
        410,
        411,
        408,
        409,
        410,
        411,
        408,
        409,
        410,
        411,
        408,
        409,
        392,
        393,
        392,
        393,
        392,
        393,
        392,
        393,
        392,
        393,
        392,
        393,
        384,
        385,
        386,
        387,
        384,
        385,
        386,
        387,
        384,
        385,
        386,
        387,
        384,
        385,
        386,
        387,
        384,
        385,
        386,
        387,
        384,
        385,
        386,
        387,
        384,
        385,
        386,
        387,
        384,
        385,
        386,
        387,
        384,
        385,
        384,
        385,
        384,
        385,
        384,
        385,
        384,
        385,
        384,
        385,
        384,
        385,
        392,
        393,
        394,
        395,
        392,
        393,
        394,
        395,
        392,
        393,
        394,
        395,
        392,
        393,
        394,
        395,
        392,
        393,
        394,
        395,
        392,
        393,
        394,
        395,
        392,
        393,
        394,
        395,
        392,
        393,
        394,
        395,
        392,
        393,
        392,
        393,
        392,
        393,
        392,
        393,
        392,
        393,
        392,
        393,
        392,
        393,
        400,
        401,
        402,
        403,
        400,
        401,
        402,
        403,
        400,
        401,
        402,
        403,
        400,
        401,
        402,
        403,
        400,
        401,
        402,
        403,
        400,
        401,
        402,
        403,
        400,
        401,
        402,
        403,
        400,
        401,
        402,
        403,
        400,
        401,
        384,
        385,
        384,
        385,
        384,
        385,
        384,
        385,
        384,
        385,
        384,
        385,
        408,
        409,
        410,
        411,
        408,
        409,
        410,
        411,
        408,
        409,
        410,
        411,
        408,
        409,
        410,
        411,
        408,
        409,
        410,
        411,
        408,
        409,
        410,
        411,
        408,
        409,
        410,
        411,
        408,
        409,
        410,
        411,
        408,
        409,
        392,
        393,
        392,
        393,
        392,
        393,
        392,
        393,
        392,
        393,
        392,
        393,
        384,
        385,
        386,
        387,
        384,
        385,
        386,
        387,
        384,
        385,
        386,
        387,
        384,
        385,
        386,
        387,
        384,
        385,
        386,
        387,
        384,
        385,
        386,
        387,
        384,
        385,
        386,
        387,
        384,
        385,
        386,
        387,
        384,
        385,
        384,
        385,
        384,
        385,
        384,
        385,
        384,
        385,
        384,
        385,
        384,
        385,
        392,
        393,
        394,
        395,
        392,
        393,
        394,
        395,
        392,
        393,
        394,
        395,
        392,
        393,
        394,
        395,
        392,
        393,
        394,
        395,
        392,
        393,
        394,
        395,
        392,
        393,
        394,
        395,
        392,
        393,
        394,
        395,
        392,
        393,
        392,
        393,
        392,
        393,
        392,
        393,
        392,
        393,
        392,
        393,
        392,
        393,
        400,
        401,
        402,
        403,
        400,
        401,
        402,
        403,
        400,
        401,
        402,
        403,
        400,
        401,
        402,
        403,
        400,
        401,
        402,
        403,
        400,
        401,
        402,
        403,
        400,
        401,
        402,
        403,
        400,
        401,
        402,
        403,
        400,
        401,
        384,
        385,
        384,
        385,
        384,
        385,
        384,
        385,
        384,
        385,
        384,
        385,
        408,
        409,
        410,
        411,
        408,
        409,
        410,
        411,
        408,
        409,
        410,
        411,
        408,
        409,
        410,
        411,
        408,
        409,
        410,
        411,
        408,
        409,
        410,
        411,
        408,
        409,
        410,
        411,
        408,
        409,
        410,
        411,
        408,
        409,
        392,
        393,
        392,
        393,
        392,
        393,
        392,
        393,
        392,
        393,
        392,
        393,
        384,
        385,
        386,
        387,
        384,
        385,
        386,
        387,
        384,
        385,
        386,
        387,
        384,
        385,
        386,
        387,
        384,
        385,
        386,
        387,
        384,
        385,
        386,
        387,
        384,
        385,
        386,
        387,
        384,
        385,
        386,
        387,
        384,
        385,
        384,
        385,
        384,
        385,
        384,
        385,
        384,
        385,
        384,
        385,
        384,
        385,
        392,
        393,
        394,
        395,
        392,
        393,
        394,
        395,
        392,
        393,
        394,
        395,
        392,
        393,
        394,
        395,
        392,
        393,
        394,
        395,
        392,
        393,
        394,
        395,
        392,
        393,
        394,
        395,
        392,
        393,
        394,
        395,
        392,
        393,
        392,
        393,
        392,
        393,
        392,
        393,
        392,
        393,
        392,
        393,
        392,
        393,
        400,
        401,
        402,
        403,
        400,
        401,
        402,
        403,
        400,
        401,
        402,
        403,
        400,
        401,
        402,
        403,
        400,
        401,
        402,
        403,
        400,
        401,
        402,
        403,
        400,
        401,
        402,
        403,
        400,
        401,
        402,
        403,
        400,
        401,
        384,
        385,
        384,
        385,
        384,
        385,
        384,
        385,
        384,
        385,
        384,
        385,
        408,
        409,
        410,
        411,
        408,
        409,
        410,
        411,
        408,
        409,
        410,
        411,
        408,
        409,
        410,
        411,
        408,
        409,
        410,
        411,
        408,
        409,
        410,
        411,
        408,
        409,
        410,
        411,
        408,
        409,
        410,
        411,
        408,
        409,
        392,
        393,
        392,
        393,
        392,
        393,
        392,
        393,
        392,
        393,
        392,
        393,
        384,
        385,
        386,
        387,
        384,
        385,
        386,
        387,
        384,
        385,
        386,
        387,
        384,
        385,
        386,
        387,
        384,
        385,
        386,
        387,
        384,
        385,
        386,
        387,
        384,
        385,
        386,
        387,
        384,
        385,
        386,
        387,
        384,
        385,
        384,
        385,
        384,
        385,
        384,
        385,
        384,
        385,
        384,
        385,
        384,
        385,
        392,
        393,
        394,
        395,
        392,
        393,
        394,
        395,
        392,
        393,
        394,
        395,
        392,
        393,
        394,
        395,
        392,
        393,
        394,
        395,
        392,
        393,
        394,
        395,
        392,
        393,
        394,
        395,
        392,
        393,
        394,
        395,
        392,
        393,
        392,
        393,
        392,
        393,
        392,
        393,
        392,
        393,
        392,
        393,
        392,
        393,
        400,
        401,
        402,
        403,
        400,
        401,
        402,
        403,
        400,
        401,
        402,
        403,
        400,
        401,
        402,
        403,
        400,
        401,
        402,
        403,
        400,
        401,
        402,
        403,
        400,
        401,
        402,
        403,
        400,
        401,
        402,
        403,
        400,
        401,
        384,
        385,
        384,
        385,
        384,
        385,
        384,
        385,
        384,
        385,
        384,
        385,
        408,
        409,
        410,
        411,
        408,
        409,
        410,
        411,
        408,
        409,
        410,
        411,
        408,
        409,
        410,
        411,
        408,
        409,
        410,
        411,
        408,
        409,
        410,
        411,
        408,
        409,
        410,
        411,
        408,
        409,
        410,
        411,
        408,
        409,
        392,
        393,
        392,
        393,
        392,
        393,
        392,
        393,
        392,
        393,
        392,
        393,
        384,
        385,
        386,
        387,
        384,
        385,
        386,
        387,
        384,
        385,
        386,
        387,
        384,
        385,
        386,
        387,
        384,
        385,
        386,
        387,
        384,
        385,
        386,
        387,
        384,
        385,
        386,
        387,
        384,
        385,
        386,
        387,
        384,
        385,
        384,
        385,
        384,
        385,
        384,
        385,
        384,
        385,
        384,
        385,
        384,
        385,
        392,
        393,
        394,
        395,
        392,
        393,
        394,
        395,
        392,
        393,
        394,
        395,
        392,
        393,
        394,
        395,
        392,
        393,
        394,
        395,
        392,
        393,
        394,
        395,
        392,
        393,
        394,
        395,
        392,
        393,
        394,
        395,
        392,
        393,
        392,
        393,
        392,
        393,
        392,
        393,
        392,
        393,
        392,
        393,
        392,
        393,
        400,
        401,
        402,
        403,
        400,
        401,
        402,
        403,
        400,
        401,
        402,
        403,
        400,
        401,
        402,
        403,
        400,
        401,
        402,
        403,
        400,
        401,
        402,
        403,
        400,
        401,
        402,
        403,
        400,
        401,
        402,
        403,
        400,
        401,
        384,
        385,
        384,
        385,
        384,
        385,
        384,
        385,
        384,
        385,
        384,
        385,
        408,
        409,
        410,
        411,
        408,
        409,
        410,
        411,
        408,
        409,
        410,
        411,
        408,
        409,
        410,
        411,
        408,
        409,
        410,
        411,
        408,
        409,
        410,
        411,
        408,
        409,
        410,
        411,
        408,
        409,
        410,
        411,
        408,
        409,
        392,
        393,
        392,
        393,
        392,
        393,
        392,
        393,
        392,
        393,
        392,
        393,
        384,
        385,
        386,
        387,
        384,
        385,
        386,
        387,
        384,
        385,
        386,
        387,
        384,
        385,
        386,
        387,
        384,
        385,
        386,
        387,
        384,
        385,
        386,
        387,
        384,
        385,
        386,
        387,
        384,
        385,
        386,
        387,
        384,
        385,
        384,
        385,
        384,
        385,
        384,
        385,
        384,
        385,
        384,
        385,
        384,
        385,
        392,
        393,
        394,
        395,
        392,
        393,
        394,
        395,
        392,
        393,
        394,
        395,
        392,
        393,
        394,
        395,
        392,
        393,
        394,
        395,
        392,
        393,
        394,
        395,
        392,
        393,
        394,
        395,
        392,
        393,
        394,
        395,
        392,
        393,
        392,
        393,
        392,
        393,
        392,
        393,
        392,
        393,
        392,
        393,
        392,
        393,
        400,
        401,
        402,
        403,
        400,
        401,
        402,
        403,
        400,
        401,
        402,
        403,
        400,
        401,
        402,
        403,
        400,
        401,
        402,
        403,
        400,
        401,
        402,
        403,
        400,
        401,
        402,
        403,
        400,
        401,
        402,
        403,
        400,
        401,
        384,
        385,
        384,
        385,
        384,
        385,
        384,
        385,
        384,
        385,
        384,
        385,
        408,
        409,
        410,
        411,
        408,
        409,
        410,
        411,
        408,
        409,
        410,
        411,
        408,
        409,
        410,
        411,
        408,
        409,
        410,
        411,
        408,
        409,
        410,
        411,
        408,
        409,
        410,
        411,
        408,
        409,
        410,
        411,
        408,
        409,
        392,
        393,
        392,
        393,
        392,
        393,
        392,
        393,
        392,
        393,
        392,
        393,
        384,
        385,
        386,
        387,
        384,
        385,
        386,
        387,
        384,
        385,
        386,
        387,
        384,
        385,
        386,
        387,
        384,
        385,
        386,
        387,
        384,
        385,
        386,
        387,
        384,
        385,
        386,
        387,
        384,
        385,
        386,
        387,
        384,
        385,
        384,
        385,
        384,
        385,
        384,
        385,
        384,
        385,
        384,
        385,
        384,
        385,
        392,
        393,
        394,
        395,
        392,
        393,
        394,
        395,
        392,
        393,
        394,
        395,
        392,
        393,
        394,
        395,
        392,
        393,
        394,
        395,
        392,
        393,
        394,
        395,
        392,
        393,
        394,
        395,
        392,
        393,
        394,
        395,
        392,
        393,
        392,
        393,
        392,
        393,
        392,
        393,
        392,
        393,
        392,
        393,
        392,
        393,
        400,
        401,
        402,
        403,
        400,
        401,
        402,
        403,
        400,
        401,
        402,
        403,
        400,
        401,
        402,
        403,
        400,
        401,
        402,
        403,
        400,
        401,
        402,
        403,
        400,
        401,
        402,
        403,
        400,
        401,
        402,
        403,
        400,
        401,
        384,
        385,
        384,
        385,
        384,
        385,
        384,
        385,
        384,
        385,
        384,
        385,
        408,
        409,
        410,
        411,
        408,
        409,
        410,
        411,
        408,
        409,
        410,
        411,
        408,
        409,
        410,
        411,
        408,
        409,
        410,
        411,
        408,
        409,
        410,
        411,
        408,
        409,
        410,
        411,
        408,
        409,
        410,
        411,
        408,
        409,
        392,
        393,
        392,
        393,
        392,
        393,
        392,
        393,
        392,
        393,
        392,
        393,
        384,
        385,
        386,
        387,
        384,
        385,
        386,
        387,
        384,
        385,
        386,
        387,
        384,
        385,
        386,
        387,
        384,
        385,
        386,
        387,
        384,
        385,
        386,
        387,
        384,
        385,
        386,
        387,
        384,
        385,
        386,
        387,
        384,
        385,
        384,
        385,
        384,
        385,
        384,
        385,
        384,
        385,
        384,
        385,
        384,
        385,
        392,
        393,
        394,
        395,
        392,
        393,
        394,
        395,
        392,
        393,
        394,
        395,
        392,
        393,
        394,
        395,
        392,
        393,
        394,
        395,
        392,
        393,
        394,
        395,
        392,
        393,
        394,
        395,
        392,
        393,
        394,
        395,
        392,
        393,
        392,
        393,
        392,
        393,
        392,
        393,
        392,
        393,
        392,
        393,
        392,
        393,
        400,
        401,
        402,
        403,
        400,
        401,
        402,
        403,
        400,
        401,
        402,
        403,
        400,
        401,
        402,
        403,
        400,
        401,
        402,
        403,
        400,
        401,
        402,
        403,
        400,
        401,
        402,
        403,
        400,
        401,
        402,
        403,
        400,
        401,
        384,
        385,
        384,
        385,
        384,
        385,
        384,
        385,
        384,
        385,
        384,
        385,
        408,
        409,
        410,
        411,
        408,
        409,
        410,
        411,
        408,
        409,
        410,
        411,
        408,
        409,
        410,
        411,
        408,
        409,
        410,
        411,
        408,
        409,
        410,
        411,
        408,
        409,
        410,
        411,
        408,
        409,
        410,
        411,
        408,
        409,
        392,
        393,
        392,
        393,
        392,
        393,
        392,
        393,
        392,
        393,
        392,
        393,
        384,
        385,
        386,
        387,
        384,
        385,
        386,
        387,
        384,
        385,
        386,
        387,
        384,
        385,
        386,
        387,
        384,
        385,
        386,
        387,
        384,
        385,
        386,
        387,
        384,
        385,
        386,
        387,
        384,
        385,
        386,
        387,
        384,
        385,
        384,
        385,
        384,
        385,
        384,
        385,
        384,
        385,
        384,
        385,
        384,
        385,
        392,
        393,
        394,
        395,
        392,
        393,
        394,
        395,
        392,
        393,
        394,
        395,
        392,
        393,
        394,
        395,
        392,
        393,
        394,
        395,
        392,
        393,
        394,
        395,
        392,
        393,
        394,
        395,
        392,
        393,
        394,
        395,
        392,
        393,
        392,
        393,
        392,
        393,
        392,
        393,
        392,
        393,
        392,
        393,
        392,
        393,
        400,
        401,
        402,
        403,
        400,
        401,
        402,
        403,
        400,
        401,
        402,
        403,
        400,
        401,
        402,
        403,
        400,
        401,
        402,
        403,
        400,
        401,
        402,
        403,
        400,
        401,
        402,
        403,
        400,
        401,
        402,
        403,
        400,
        401,
        384,
        385,
        384,
        385,
        384,
        385,
        384,
        385,
        384,
        385,
        384,
        385,
        408,
        409,
        410,
        411,
        408,
        409,
        410,
        411,
        408,
        409,
        410,
        411,
        408,
        409,
        410,
        411,
        408,
        409,
        410,
        411,
        408,
        409,
        410,
        411,
        408,
        409,
        410,
        411,
        408,
        409,
        410,
        411,
        408,
        409,
        392,
        393,
        392,
        393,
        392,
        393,
        392,
        393,
        392,
        393
      ]
    },
    {
      "id": 2,
      "name": "Decoration",
      "type": "tilelayer",
      "width": 46,
      "height": 40,
      "visible": true,
      "data": [
        392,
        393,
        654,
        653,
        654,
        653,
        654,
        653,
        654,
        653,
        654,
        653,
        654,
        653,
        654,
        653,
        654,
        653,
        654,
        653,
        654,
        653,
        654,
        653,
        654,
        653,
        654,
        653,
        654,
        653,
        654,
        653,
        654,
        653,
        654,
        653,
        654,
        653,
        654,
        653,
        654,
        653,
        654,
        653,
        654,
        653,
        654,
        653,
        646,
        645,
        646,
        645,
        646,
        645,
        646,
        645,
        646,
        645,
        646,
        645,
        646,
        645,
        646,
        645,
        646,
        645,
        646,
        645,
        646,
        645,
        646,
        645,
        646,
        645,
        646,
        645,
        646,
        645,
        646,
        645,
        646,
        645,
        646,
        645,
        646,
        645,
        646,
        645,
        646,
        645,
        646,
        645,
        646,
        645,
        654,
        653,
        654,
        653,
        654,
        653,
        654,
        653,
        654,
        653,
        654,
        653,
        654,
        653,
        654,
        653,
        654,
        653,
        654,
        653,
        654,
        653,
        654,
        653,
        654,
        653,
        654,
        653,
        654,
        653,
        654,
        653,
        654,
        653,
        654,
        653,
        654,
        653,
        654,
        653,
        654,
        653,
        654,
        653,
        654,
        653,
        646,
        645,
        646,
        645,
        646,
        645,
        646,
        645,
        646,
        645,
        646,
        645,
        646,
        645,
        646,
        645,
        646,
        645,
        646,
        645,
        646,
        645,
        646,
        645,
        646,
        645,
        646,
        645,
        646,
        645,
        646,
        645,
        646,
        645,
        646,
        645,
        646,
        645,
        646,
        645,
        646,
        645,
        646,
        645,
        646,
        645,
        654,
        653,
        654,
        653,
        654,
        653,
        654,
        653,
        654,
        653,
        654,
        653,
        654,
        653,
        654,
        653,
        654,
        653,
        654,
        653,
        654,
        653,
        654,
        653,
        654,
        653,
        654,
        653,
        654,
        653,
        654,
        653,
        654,
        653,
        654,
        653,
        654,
        653,
        654,
        653,
        654,
        653,
        654,
        653,
        654,
        653,
        646,
        645,
        646,
        645,
        646,
        645,
        646,
        645,
        646,
        645,
        646,
        645,
        646,
        645,
        646,
        645,
        646,
        645,
        646,
        645,
        646,
        645,
        646,
        645,
        646,
        645,
        646,
        645,
        646,
        645,
        646,
        645,
        646,
        645,
        646,
        645,
        646,
        645,
        646,
        645,
        646,
        645,
        646,
        645,
        646,
        645,
        654,
        653,
        654,
        653,
        654,
        653,
        654,
        653,
        654,
        653,
        654,
        653,
        654,
        653,
        654,
        653,
        654,
        653,
        654,
        653,
        654,
        653,
        654,
        653,
        654,
        653,
        654,
        653,
        654,
        653,
        654,
        653,
        654,
        653,
        654,
        653,
        654,
        653,
        654,
        653,
        654,
        653,
        654,
        653,
        654,
        653,
        646,
        645,
        646,
        645,
        646,
        645,
        646,
        645,
        646,
        645,
        646,
        645,
        646,
        645,
        646,
        645,
        646,
        645,
        646,
        645,
        646,
        645,
        646,
        645,
        646,
        645,
        646,
        645,
        646,
        645,
        646,
        645,
        646,
        645,
        646,
        645,
        646,
        645,
        646,
        645,
        646,
        645,
        646,
        645,
        646,
        645,
        654,
        653,
        654,
        653,
        654,
        653,
        654,
        653,
        654,
        653,
        654,
        653,
        654,
        653,
        654,
        653,
        654,
        653,
        654,
        653,
        654,
        653,
        654,
        653,
        654,
        653,
        654,
        653,
        654,
        653,
        654,
        653,
        654,
        653,
        654,
        653,
        654,
        653,
        654,
        653,
        654,
        653,
        654,
        653,
        654,
        653,
        646,
        645,
        646,
        645,
        646,
        645,
        646,
        645,
        646,
        645,
        646,
        647,
        453,
        454,
        453,
        454,
        662,
        661,
        662,
        661,
        662,
        661,
        662,
        661,
        662,
        661,
        662,
        661,
        662,
        661,
        662,
        661,
        662,
        661,
        662,
        661,
        662,
        661,
        646,
        645,
        646,
        645,
        646,
        645,
        646,
        645,
        654,
        653,
        654,
        653,
        654,
        653,
        654,
        653,
        654,
        653,
        654,
        655,
        461,
        462,
        461,
        462,
        668,
        669,
        670,
        671,
        668,
        669,
        670,
        671,
        668,
        669,
        670,
        671,
        668,
        669,
        670,
        671,
        668,
        669,
        670,
        671,
        668,
        669,
        654,
        653,
        654,
        653,
        654,
        653,
        654,
        653,
        646,
        645,
        646,
        645,
        646,
        645,
        646,
        645,
        646,
        645,
        646,
        647,
        0,
        0,
        0,
        0,
        676,
        677,
        678,
        679,
        676,
        677,
        678,
        679,
        676,
        677,
        678,
        679,
        676,
        677,
        678,
        679,
        676,
        677,
        678,
        679,
        676,
        677,
        660,
        661,
        646,
        645,
        646,
        645,
        646,
        645,
        654,
        653,
        654,
        653,
        654,
        653,
        654,
        653,
        654,
        653,
        654,
        655,
        0,
        0,
        0,
        0,
        476,
        477,
        477,
        477,
        477,
        477,
        477,
        477,
        477,
        477,
        477,
        477,
        477,
        477,
        477,
        477,
        477,
        477,
        477,
        477,
        477,
        477,
        668,
        671,
        652,
        653,
        654,
        653,
        654,
        653,
        646,
        645,
        646,
        645,
        646,
        645,
        646,
        645,
        646,
        645,
        662,
        663,
        0,
        0,
        0,
        0,
        476,
        0,
        0,
        0,
        477,
        477,
        477,
        477,
        477,
        477,
        477,
        477,
        477,
        477,
        477,
        477,
        477,
        477,
        477,
        477,
        477,
        478,
        678,
        679,
        660,
        661,
        662,
        661,
        662,
        661,
        654,
        653,
        654,
        653,
        654,
        653,
        654,
        653,
        654,
        653,
        670,
        671,
        82,
        68,
        84,
        0,
        448,
        473,
        473,
        473,
        473,
        473,
        473,
        473,
        473,
        473,
        473,
        473,
        473,
        473,
        473,
        473,
        473,
        473,
        473,
        473,
        473,
        473,
        473,
        474,
        668,
        669,
        670,
        669,
        670,
        669,
        646,
        645,
        646,
        645,
        646,
        645,
        646,
        645,
        646,
        647,
        678,
        679,
        64,
        48,
        50,
        68,
        68,
        68,
        68,
        68,
        68,
        68,
        68,
        68,
        68,
        68,
        68,
        68,
        68,
        68,
        68,
        68,
        68,
        68,
        68,
        68,
        68,
        68,
        68,
        84,
        676,
        677,
        676,
        677,
        678,
        677,
        654,
        653,
        654,
        653,
        654,
        653,
        654,
        653,
        654,
        655,
        0,
        0,
        64,
        48,
        48,
        48,
        48,
        48,
        48,
        48,
        48,
        48,
        48,
        48,
        48,
        48,
        48,
        48,
        48,
        48,
        48,
        48,
        48,
        48,
        48,
        48,
        48,
        48,
        48,
        50,
        68,
        68,
        68,
        68,
        68,
        68,
        646,
        645,
        646,
        645,
        646,
        645,
        646,
        645,
        646,
        647,
        0,
        0,
        64,
        48,
        48,
        48,
        48,
        48,
        48,
        48,
        48,
        48,
        48,
        48,
        48,
        48,
        48,
        48,
        48,
        48,
        48,
        48,
        48,
        48,
        48,
        48,
        48,
        48,
        48,
        48,
        48,
        48,
        48,
        48,
        48,
        48,
        654,
        653,
        654,
        653,
        654,
        653,
        654,
        653,
        654,
        655,
        0,
        0,
        64,
        48,
        48,
        48,
        48,
        48,
        48,
        48,
        48,
        52,
        76,
        76,
        76,
        76,
        76,
        76,
        56,
        48,
        52,
        76,
        76,
        76,
        76,
        76,
        76,
        76,
        76,
        76,
        76,
        76,
        76,
        76,
        76,
        76,
        646,
        645,
        646,
        645,
        646,
        645,
        646,
        645,
        646,
        647,
        0,
        0,
        64,
        48,
        48,
        48,
        48,
        48,
        48,
        48,
        48,
        72,
        644,
        645,
        646,
        645,
        646,
        647,
        64,
        48,
        72,
        0,
        0,
        0,
        0,
        0,
        0,
        0,
        0,
        583,
        644,
        645,
        646,
        645,
        646,
        645,
        654,
        653,
        654,
        653,
        654,
        653,
        654,
        653,
        654,
        655,
        0,
        0,
        64,
        48,
        48,
        48,
        48,
        48,
        48,
        48,
        48,
        72,
        652,
        653,
        654,
        653,
        654,
        655,
        64,
        48,
        72,
        416,
        0,
        0,
        0,
        0,
        0,
        0,
        0,
        591,
        652,
        653,
        654,
        653,
        654,
        653,
        646,
        645,
        646,
        645,
        646,
        645,
        646,
        645,
        646,
        647,
        0,
        0,
        88,
        76,
        76,
        76,
        76,
        56,
        48,
        48,
        48,
        72,
        660,
        661,
        646,
        645,
        646,
        647,
        64,
        48,
        72,
        0,
        0,
        0,
        0,
        0,
        0,
        0,
        0,
        599,
        644,
        645,
        646,
        645,
        646,
        645,
        654,
        653,
        654,
        653,
        654,
        653,
        654,
        653,
        654,
        655,
        0,
        416,
        0,
        0,
        0,
        0,
        0,
        64,
        48,
        48,
        48,
        72,
        668,
        669,
        654,
        653,
        654,
        655,
        64,
        48,
        72,
        0,
        0,
        0,
        0,
        0,
        0,
        0,
        0,
        607,
        652,
        653,
        654,
        653,
        654,
        653,
        646,
        645,
        646,
        645,
        646,
        645,
        646,
        645,
        646,
        647,
        0,
        0,
        0,
        0,
        0,
        0,
        0,
        88,
        76,
        56,
        48,
        72,
        459,
        460,
        459,
        460,
        646,
        647,
        64,
        48,
        72,
        0,
        0,
        0,
        0,
        0,
        0,
        0,
        0,
        615,
        644,
        645,
        646,
        645,
        646,
        645,
        654,
        653,
        654,
        653,
        654,
        653,
        654,
        653,
        654,
        655,
        0,
        0,
        0,
        0,
        0,
        0,
        0,
        0,
        0,
        64,
        48,
        72,
        0,
        0,
        0,
        0,
        654,
        655,
        64,
        48,
        50,
        68,
        68,
        68,
        68,
        68,
        68,
        84,
        0,
        0,
        652,
        653,
        654,
        653,
        654,
        653,
        646,
        645,
        646,
        645,
        646,
        645,
        646,
        645,
        646,
        647,
        0,
        0,
        0,
        0,
        0,
        416,
        0,
        0,
        0,
        64,
        48,
        72,
        0,
        0,
        0,
        442,
        662,
        663,
        64,
        48,
        48,
        48,
        48,
        48,
        48,
        48,
        48,
        72,
        0,
        0,
        644,
        645,
        646,
        645,
        646,
        645,
        654,
        653,
        654,
        653,
        654,
        653,
        654,
        653,
        654,
        655,
        0,
        0,
        0,
        0,
        0,
        0,
        0,
        0,
        0,
        64,
        48,
        72,
        0,
        0,
        0,
        524,
        668,
        671,
        64,
        48,
        52,
        76,
        76,
        76,
        76,
        76,
        76,
        86,
        636,
        637,
        654,
        653,
        654,
        653,
        654,
        653,
        646,
        645,
        646,
        645,
        646,
        645,
        646,
        645,
        646,
        647,
        0,
        0,
        0,
        416,
        0,
        0,
        0,
        0,
        0,
        64,
        48,
        72,
        0,
        0,
        0,
        0,
        676,
        677,
        64,
        48,
        72,
        0,
        644,
        645,
        646,
        645,
        646,
        645,
        646,
        645,
        646,
        645,
        646,
        645,
        646,
        645,
        654,
        653,
        654,
        653,
        654,
        653,
        654,
        653,
        654,
        655,
        0,
        0,
        0,
        0,
        0,
        0,
        0,
        0,
        0,
        64,
        48,
        50,
        68,
        68,
        68,
        68,
        68,
        68,
        49,
        48,
        72,
        0,
        652,
        653,
        654,
        653,
        654,
        653,
        654,
        653,
        654,
        653,
        654,
        653,
        654,
        653,
        646,
        645,
        646,
        645,
        646,
        645,
        646,
        645,
        646,
        647,
        455,
        0,
        0,
        0,
        0,
        0,
        0,
        0,
        0,
        64,
        48,
        48,
        48,
        48,
        48,
        48,
        48,
        48,
        48,
        48,
        72,
        0,
        644,
        645,
        646,
        645,
        646,
        645,
        646,
        645,
        646,
        645,
        646,
        645,
        646,
        645,
        654,
        653,
        654,
        653,
        654,
        653,
        654,
        653,
        654,
        655,
        0,
        0,
        447,
        0,
        0,
        0,
        0,
        416,
        0,
        88,
        76,
        76,
        76,
        76,
        76,
        76,
        76,
        76,
        76,
        76,
        86,
        0,
        652,
        653,
        654,
        653,
        654,
        653,
        654,
        653,
        654,
        653,
        654,
        653,
        654,
        653,
        646,
        645,
        646,
        645,
        646,
        645,
        646,
        645,
        646,
        645,
        646,
        645,
        646,
        645,
        646,
        645,
        646,
        645,
        646,
        645,
        646,
        645,
        646,
        645,
        646,
        645,
        646,
        645,
        646,
        645,
        646,
        645,
        646,
        645,
        646,
        645,
        646,
        645,
        646,
        645,
        646,
        645,
        646,
        645,
        646,
        645,
        654,
        653,
        654,
        653,
        654,
        653,
        654,
        653,
        654,
        653,
        654,
        653,
        654,
        653,
        654,
        653,
        654,
        653,
        654,
        653,
        654,
        653,
        654,
        653,
        654,
        653,
        654,
        653,
        654,
        653,
        654,
        653,
        654,
        653,
        654,
        653,
        654,
        653,
        654,
        653,
        654,
        653,
        654,
        653,
        654,
        653,
        646,
        645,
        646,
        645,
        646,
        645,
        646,
        645,
        646,
        645,
        646,
        645,
        646,
        645,
        646,
        645,
        646,
        645,
        646,
        645,
        646,
        645,
        646,
        645,
        646,
        645,
        646,
        645,
        646,
        645,
        646,
        645,
        646,
        645,
        646,
        645,
        646,
        645,
        646,
        645,
        646,
        645,
        646,
        645,
        646,
        645,
        654,
        653,
        654,
        653,
        654,
        653,
        654,
        653,
        654,
        653,
        654,
        653,
        654,
        653,
        654,
        653,
        654,
        653,
        654,
        653,
        654,
        653,
        654,
        653,
        654,
        653,
        654,
        653,
        654,
        653,
        654,
        653,
        654,
        653,
        654,
        653,
        654,
        653,
        654,
        653,
        654,
        653,
        654,
        653,
        654,
        653,
        646,
        645,
        646,
        645,
        646,
        645,
        646,
        645,
        646,
        645,
        646,
        645,
        646,
        645,
        646,
        645,
        646,
        645,
        646,
        645,
        646,
        645,
        646,
        645,
        646,
        645,
        646,
        645,
        646,
        645,
        646,
        645,
        646,
        645,
        646,
        645,
        646,
        645,
        646,
        645,
        646,
        645,
        646,
        645,
        646,
        645,
        654,
        653,
        654,
        653,
        654,
        653,
        654,
        653,
        654,
        653,
        654,
        653,
        654,
        653,
        654,
        653,
        654,
        653,
        654,
        653,
        654,
        653,
        654,
        653,
        654,
        653,
        654,
        653,
        654,
        653,
        654,
        653,
        654,
        653,
        654,
        653,
        654,
        653,
        654,
        653,
        654,
        653,
        654,
        653,
        654,
        653,
        646,
        645,
        646,
        645,
        646,
        645,
        646,
        645,
        646,
        645,
        646,
        645,
        646,
        645,
        646,
        645,
        646,
        645,
        646,
        645,
        646,
        645,
        646,
        645,
        646,
        645,
        646,
        645,
        646,
        645,
        646,
        645,
        646,
        645,
        646,
        645,
        646,
        645,
        646,
        645,
        646,
        645,
        646,
        645,
        646,
        645,
        654,
        653,
        654,
        653,
        654,
        653,
        654,
        653,
        654,
        653,
        654,
        653,
        654,
        653,
        654,
        653,
        654,
        653,
        654,
        653,
        654,
        653,
        654,
        653,
        654,
        653,
        654,
        653,
        654,
        653,
        654,
        653,
        654,
        653,
        654,
        653,
        654,
        653,
        654,
        653,
        654,
        653,
        654,
        653,
        654,
        653,
        646,
        645,
        646,
        645,
        646,
        645,
        646,
        645,
        646,
        645,
        646,
        645,
        646,
        645,
        646,
        645,
        646,
        645,
        646,
        645,
        646,
        645,
        646,
        645,
        646,
        645,
        646,
        645,
        646,
        645,
        646,
        645,
        646,
        645,
        646,
        645,
        646,
        645,
        646,
        645,
        646,
        645,
        646,
        645
      ]
    },
    {
      "id": 3,
      "name": "Overhead",
      "type": "tilelayer",
      "width": 46,
      "height": 40,
      "visible": true,
      "data": [
        646,
        645,
        0,
        0,
        0,
        0,
        0,
        0,
        0,
        0,
        0,
        0,
        0,
        0,
        0,
        0,
        0,
        0,
        0,
        0,
        0,
        0,
        0,
        0,
        0,
        0,
        0,
        0,
        0,
        0,
        0,
        0,
        0,
        0,
        0,
        0,
        0,
        0,
        0,
        0,
        0,
        0,
        0,
        0,
        0,
        0,
        0,
        0,
        0,
        0,
        0,
        0,
        0,
        0,
        0,
        0,
        0,
        0,
        0,
        0,
        0,
        0,
        0,
        0,
        0,
        0,
        0,
        0,
        0,
        0,
        0,
        0,
        0,
        0,
        0,
        0,
        0,
        0,
        0,
        0,
        0,
        0,
        0,
        0,
        0,
        0,
        0,
        0,
        0,
        0,
        0,
        0,
        0,
        0,
        0,
        0,
        0,
        0,
        0,
        0,
        0,
        0,
        0,
        0,
        0,
        0,
        431,
        0,
        431,
        0,
        431,
        0,
        431,
        0,
        431,
        0,
        431,
        0,
        431,
        0,
        431,
        0,
        431,
        0,
        431,
        0,
        431,
        0,
        431,
        0,
        431,
        0,
        431,
        0,
        431,
        0,
        431,
        0,
        431,
        0,
        0,
        0,
        0,
        0,
        0,
        0,
        0,
        0,
        0,
        0,
        0,
        0,
        439,
        0,
        439,
        0,
        439,
        0,
        439,
        0,
        439,
        0,
        0,
        0,
        0,
        0,
        0,
        0,
        0,
        0,
        0,
        0,
        0,
        0,
        0,
        0,
        0,
        0,
        0,
        0,
        0,
        0,
        0,
        0,
        0,
        0,
        0,
        0,
        0,
        0,
        0,
        0,
        0,
        0,
        0,
        0,
        0,
        0,
        447,
        0,
        447,
        0,
        447,
        0,
        447,
        0,
        447,
        0,
        0,
        0,
        0,
        0,
        0,
        0,
        0,
        0,
        0,
        0,
        0,
        0,
        0,
        0,
        0,
        0,
        0,
        0,
        0,
        0,
        0,
        0,
        0,
        0,
        0,
        0,
        0,
        0,
        0,
        0,
        0,
        0,
        0,
        0,
        0,
        0,
        455,
        0,
        455,
        0,
        455,
        0,
        455,
        0,
        455,
        0,
        0,
        0,
        0,
        0,
        0,
        0,
        0,
        0,
        0,
        0,
        0,
        0,
        0,
        0,
        0,
        0,
        0,
        0,
        0,
        0,
        0,
        0,
        0,
        0,
        0,
        0,
        0,
        0,
        0,
        0,
        0,
        0,
        0,
        0,
        0,
        0,
        431,
        0,
        431,
        0,
        431,
        0,
        431,
        0,
        431,
        0,
        0,
        0,
        0,
        0,
        0,
        0,
        0,
        0,
        0,
        0,
        0,
        0,
        0,
        0,
        0,
        0,
        0,
        0,
        0,
        0,
        0,
        0,
        0,
        0,
        0,
        0,
        0,
        0,
        0,
        0,
        0,
        0,
        0,
        0,
        0,
        0,
        481,
        482,
        483,
        484,
        0,
        0,
        439,
        0,
        439,
        0,
        0,
        0,
        0,
        0,
        0,
        0,
        0,
        0,
        0,
        0,
        0,
        0,
        0,
        0,
        0,
        0,
        0,
        0,
        0,
        0,
        0,
        0,
        0,
        0,
        0,
        0,
        0,
        0,
        0,
        0,
        0,
        0,
        0,
        0,
        0,
        488,
        489,
        490,
        491,
        492,
        493,
        0,
        447,
        0,
        447,
        0,
        0,
        0,
        0,
        0,
        0,
        0,
        0,
        0,
        0,
        0,
        0,
        0,
        0,
        0,
        0,
        0,
        0,
        0,
        0,
        0,
        0,
        0,
        0,
        0,
        0,
        0,
        0,
        0,
        0,
        0,
        0,
        0,
        0,
        0,
        0,
        496,
        497,
        498,
        499,
        500,
        501,
        0,
        455,
        0,
        455,
        0,
        0,
        0,
        0,
        0,
        0,
        0,
        0,
        0,
        0,
        0,
        0,
        0,
        0,
        0,
        0,
        0,
        0,
        0,
        0,
        0,
        0,
        0,
        0,
        0,
        0,
        0,
        0,
        0,
        0,
        0,
        0,
        0,
        0,
        0,
        0,
        504,
        505,
        506,
        507,
        508,
        509,
        0,
        0,
        0,
        447,
        0,
        0,
        0,
        0,
        0,
        0,
        0,
        0,
        0,
        0,
        0,
        0,
        0,
        0,
        0,
        0,
        0,
        0,
        0,
        0,
        0,
        0,
        0,
        0,
        0,
        0,
        0,
        0,
        0,
        0,
        0,
        0,
        0,
        0,
        0,
        0,
        512,
        513,
        514,
        515,
        516,
        468,
        469,
        469,
        469,
        469,
        469,
        469,
        469,
        469,
        469,
        469,
        469,
        469,
        469,
        469,
        469,
        469,
        469,
        469,
        469,
        469,
        470,
        0,
        0,
        0,
        0,
        0,
        0,
        0,
        0,
        0,
        0,
        0,
        0,
        0,
        0,
        0,
        0,
        0,
        0,
        0,
        0,
        521,
        522,
        523,
        524,
        468,
        469,
        469,
        469,
        469,
        469,
        469,
        469,
        469,
        469,
        469,
        469,
        469,
        469,
        469,
        469,
        469,
        469,
        469,
        469,
        469,
        470,
        0,
        0,
        0,
        0,
        0,
        0,
        0,
        0,
        0,
        0,
        0,
        0,
        0,
        0,
        0,
        0,
        0,
        0,
        0,
        0,
        529,
        530,
        531,
        532,
        464,
        477,
        477,
        477,
        0,
        0,
        0,
        0,
        0,
        0,
        0,
        0,
        0,
        0,
        0,
        0,
        0,
        0,
        0,
        0,
        0,
        0,
        0,
        0,
        0,
        0,
        0,
        0,
        0,
        452,
        0,
        0,
        0,
        0,
        0,
        0,
        0,
        0,
        0,
        0,
        0,
        0,
        537,
        538,
        539,
        540,
        472,
        0,
        0,
        0,
        0,
        0,
        0,
        0,
        0,
        0,
        0,
        0,
        0,
        0,
        0,
        0,
        0,
        0,
        0,
        0,
        0,
        0,
        0,
        0,
        0,
        0,
        0,
        0,
        0,
        460,
        0,
        0,
        0,
        0,
        0,
        0,
        0,
        0,
        0,
        0,
        0,
        0,
        0,
        0,
        0,
        0,
        0,
        0,
        0,
        0,
        0,
        0,
        0,
        0,
        0,
        0,
        0,
        0,
        0,
        0,
        0,
        0,
        0,
        545,
        0,
        0,
        0,
        0,
        0,
        0,
        0,
        0,
        0,
        0,
        0,
        0,
        0,
        0,
        0,
        0,
        0,
        0,
        0,
        0,
        0,
        0,
        0,
        0,
        0,
        0,
        0,
        0,
        0,
        0,
        0,
        0,
        0,
        0,
        0,
        0,
        0,
        0,
        0,
        0,
        0,
        0,
        0,
        0,
        552,
        553,
        0,
        0,
        0,
        0,
        0,
        0,
        0,
        0,
        0,
        0,
        0,
        0,
        0,
        0,
        0,
        0,
        0,
        0,
        0,
        0,
        0,
        0,
        0,
        0,
        0,
        0,
        0,
        0,
        0,
        0,
        0,
        0,
        0,
        442,
        630,
        631,
        630,
        631,
        630,
        631,
        431,
        0,
        0,
        0,
        560,
        561,
        562,
        563,
        564,
        565,
        566,
        0,
        628,
        629,
        628,
        629,
        628,
        629,
        0,
        0,
        0,
        0,
        0,
        0,
        0,
        0,
        0,
        0,
        0,
        0,
        0,
        0,
        0,
        0,
        0,
        0,
        0,
        0,
        0,
        450,
        638,
        637,
        636,
        637,
        636,
        639,
        439,
        0,
        0,
        0,
        568,
        569,
        570,
        571,
        572,
        573,
        574,
        575,
        636,
        637,
        636,
        637,
        636,
        637,
        0,
        0,
        0,
        0,
        0,
        0,
        0,
        0,
        0,
        0,
        0,
        0,
        0,
        0,
        0,
        0,
        0,
        0,
        0,
        0,
        0,
        0,
        0,
        0,
        0,
        0,
        0,
        0,
        431,
        0,
        0,
        0,
        576,
        577,
        578,
        579,
        580,
        581,
        582,
        0,
        0,
        0,
        439,
        0,
        439,
        0,
        0,
        0,
        447,
        0,
        0,
        0,
        0,
        0,
        0,
        0,
        0,
        0,
        0,
        0,
        0,
        0,
        0,
        0,
        0,
        0,
        0,
        0,
        0,
        0,
        0,
        0,
        0,
        0,
        439,
        0,
        0,
        0,
        584,
        585,
        586,
        587,
        588,
        589,
        590,
        0,
        0,
        0,
        447,
        0,
        447,
        0,
        0,
        0,
        455,
        0,
        0,
        0,
        0,
        0,
        0,
        0,
        0,
        0,
        0,
        0,
        0,
        0,
        0,
        0,
        0,
        0,
        0,
        442,
        481,
        482,
        483,
        484,
        0,
        0,
        431,
        0,
        0,
        0,
        592,
        593,
        594,
        595,
        596,
        597,
        598,
        0,
        0,
        0,
        455,
        0,
        455,
        0,
        0,
        0,
        431,
        0,
        0,
        0,
        0,
        0,
        0,
        0,
        0,
        0,
        0,
        0,
        0,
        0,
        0,
        0,
        0,
        0,
        0,
        488,
        489,
        490,
        491,
        492,
        493,
        0,
        439,
        0,
        0,
        0,
        600,
        601,
        602,
        603,
        604,
        605,
        606,
        0,
        0,
        0,
        431,
        0,
        431,
        0,
        0,
        0,
        439,
        0,
        0,
        0,
        0,
        0,
        0,
        0,
        0,
        388,
        389,
        390,
        0,
        0,
        0,
        0,
        0,
        0,
        0,
        496,
        497,
        498,
        499,
        500,
        501,
        0,
        447,
        0,
        0,
        0,
        608,
        609,
        610,
        611,
        612,
        613,
        614,
        0,
        0,
        0,
        439,
        0,
        439,
        0,
        0,
        0,
        447,
        0,
        0,
        0,
        0,
        0,
        0,
        0,
        0,
        396,
        397,
        398,
        0,
        0,
        0,
        0,
        0,
        0,
        0,
        504,
        505,
        506,
        507,
        508,
        509,
        0,
        455,
        0,
        0,
        0,
        0,
        616,
        617,
        618,
        619,
        620,
        621,
        623,
        0,
        0,
        447,
        0,
        447,
        0,
        0,
        0,
        455,
        0,
        0,
        0,
        0,
        0,
        0,
        0,
        0,
        0,
        0,
        0,
        0,
        0,
        0,
        0,
        0,
        0,
        0,
        512,
        513,
        514,
        515,
        516,
        517,
        0,
        447,
        0,
        0,
        0,
        628,
        629,
        628,
        629,
        628,
        629,
        628,
        629,
        0,
        0,
        455,
        0,
        455,
        0,
        0,
        0,
        431,
        0,
        0,
        0,
        0,
        0,
        0,
        0,
        0,
        0,
        0,
        0,
        0,
        0,
        0,
        0,
        0,
        0,
        0,
        520,
        521,
        522,
        523,
        450,
        525,
        0,
        455,
        0,
        0,
        0,
        636,
        637,
        636,
        637,
        636,
        637,
        0,
        442,
        0,
        0,
        431,
        0,
        431,
        0,
        0,
        0,
        439,
        0,
        0,
        0,
        0,
        0,
        0,
        0,
        0,
        0,
        0,
        0,
        0,
        0,
        0,
        0,
        0,
        0,
        0,
        528,
        529,
        530,
        531,
        532,
        533,
        0,
        0,
        0,
        0,
        0,
        0,
        0,
        0,
        0,
        0,
        0,
        0,
        450,
        0,
        0,
        439,
        0,
        439,
        0,
        0,
        0,
        447,
        0,
        0,
        0,
        0,
        0,
        0,
        0,
        0,
        0,
        0,
        0,
        0,
        0,
        0,
        0,
        0,
        0,
        0,
        536,
        537,
        538,
        539,
        540,
        541,
        0,
        0,
        0,
        0,
        0,
        0,
        0,
        0,
        0,
        0,
        0,
        0,
        442,
        0,
        0,
        447,
        0,
        447,
        0,
        0,
        0,
        455,
        0,
        0,
        0,
        0,
        0,
        0,
        0,
        628,
        629,
        628,
        629,
        628,
        629,
        628,
        629,
        628,
        629,
        628,
        629,
        628,
        629,
        628,
        629,
        628,
        629,
        628,
        629,
        628,
        629,
        0,
        0,
        0,
        0,
        0,
        0,
        0,
        0,
        0,
        0,
        455,
        0,
        455,
        0,
        0,
        0,
        431,
        0,
        431,
        0,
        431,
        0,
        431,
        653,
        636,
        637,
        636,
        637,
        636,
        637,
        636,
        637,
        636,
        637,
        636,
        637,
        636,
        637,
        636,
        637,
        636,
        637,
        636,
        637,
        636,
        637,
        654,
        0,
        0,
        0,
        0,
        0,
        0,
        0,
        0,
        0,
        431,
        0,
        431,
        0,
        0,
        0,
        439,
        0,
        439,
        0,
        439,
        0,
        439,
        0,
        0,
        0,
        0,
        0,
        0,
        0,
        0,
        0,
        0,
        0,
        0,
        0,
        0,
        0,
        0,
        0,
        0,
        0,
        0,
        0,
        0,
        0,
        0,
        0,
        0,
        0,
        0,
        0,
        0,
        0,
        0,
        0,
        0,
        0,
        0,
        0,
        0,
        0,
        447,
        0,
        447,
        0,
        447,
        0,
        447,
        0,
        0,
        0,
        0,
        0,
        0,
        0,
        0,
        0,
        0,
        0,
        0,
        0,
        0,
        0,
        0,
        0,
        0,
        0,
        0,
        0,
        0,
        0,
        0,
        0,
        0,
        0,
        0,
        0,
        0,
        0,
        0,
        0,
        0,
        0,
        0,
        0,
        0,
        0,
        455,
        0,
        455,
        0,
        455,
        0,
        455,
        0,
        0,
        0,
        0,
        0,
        0,
        0,
        0,
        0,
        0,
        0,
        0,
        0,
        0,
        0,
        0,
        0,
        0,
        0,
        0,
        0,
        0,
        0,
        0,
        0,
        0,
        0,
        0,
        0,
        0,
        0,
        0,
        0,
        0,
        0,
        0,
        0,
        0,
        0,
        431,
        0,
        431,
        0,
        431,
        0,
        431,
        0,
        0,
        0,
        0,
        0,
        0,
        0,
        0,
        0,
        0,
        0,
        0,
        0,
        0,
        0,
        0,
        0,
        0,
        0,
        0,
        0,
        0,
        0,
        0,
        0,
        0,
        0,
        0,
        0,
        0,
        0,
        0,
        0,
        0,
        0,
        0,
        0,
        0,
        0,
        439,
        0,
        439,
        0,
        439,
        0,
        439,
        0,
        0,
        0,
        0,
        0,
        0,
        0,
        0,
        0,
        0,
        0,
        0,
        0,
        0,
        0,
        0,
        0,
        0,
        0,
        0,
        0,
        0,
        0,
        0,
        0,
        0,
        0,
        0,
        0,
        0,
        0,
        0,
        0,
        0,
        0,
        0,
        0,
        0,
        0,
        447,
        0,
        447,
        0,
        447,
        0,
        447,
        0,
        0,
        0,
        0,
        0,
        0,
        0,
        0,
        0,
        0,
        0,
        0,
        0,
        0,
        0,
        0,
        0,
        0,
        0,
        0,
        0,
        0,
        0,
        0,
        0,
        0,
        0,
        0,
        0,
        0,
        0,
        0,
        0,
        0,
        0,
        0,
        0,
        0,
        0,
        455,
        0,
        455,
        0,
        455,
        0,
        455,
        0,
        0,
        0,
        0,
        0,
        0,
        0,
        0,
        0,
        0,
        0,
        0,
        0,
        0,
        0,
        0,
        0,
        0,
        0,
        0,
        0,
        0,
        0,
        0,
        0,
        0,
        0,
        0,
        0,
        0,
        0,
        0,
        0,
        0,
        0,
        0,
        0,
        0,
        0,
        431,
        0,
        431,
        0,
        431,
        0,
        431,
        0,
        0,
        0,
        0,
        0,
        0,
        0,
        0,
        0,
        0,
        0,
        0,
        0,
        0,
        0,
        0,
        0,
        0,
        0,
        0,
        0,
        0,
        0,
        0,
        0,
        0,
        0,
        0,
        0,
        0,
        0,
        0,
        0,
        0,
        0,
        0,
        0,
        0,
        0,
        439,
        0,
        439,
        0,
        439,
        0,
        439,
        0,
        0,
        0,
        0,
        0,
        0,
        0,
        0,
        0,
        0,
        0,
        0,
        0,
        0,
        0,
        0,
        0,
        0,
        0,
        0,
        0,
        0,
        0,
        0,
        0,
        0,
        0,
        0,
        0,
        0,
        0,
        0,
        0,
        0,
        0
      ]
    },
    {
      "id": 4,
      "name": "Objects",
      "type": "objectgroup",
      "objects": []
    }
  ],
  "tilesets": [
    {
      "firstgid": 384,
      "name": "outdoor",
      "image": "assets/tilesets/Outdoor.png",
      "imagewidth": 256,
      "imageheight": 22080,
      "tilewidth": 16,
      "tileheight": 16,
      "columns": 16,
      "tilecount": 22080
    }
  ],
  "properties": [
    {
      "name": "mapId",
      "type": "string",
      "value": "map-33"
    },
    {
      "name": "name",
      "type": "string",
      "value": "First Town"
    },
    {
      "name": "mapType",
      "type": "string",
      "value": "route"
    }
  ]
}