{
  "version": "1.10",
  "tiledversion": "1.10.2",
  "type": "map",
  "orientation": "orthogonal",
  "renderorder": "right-down",
  "infinite": false,
  "width": 20,
  "height": 15,
  "tilewidth": 16,
  "tileheight": 16,
  "layers": [
    {
      "id": 1,
      "name": "Ground",
      "type": "tilelayer",
      "width": 20,
      "height": 15,
      "visible": true,
      "data": [
        900,
        0,
        423,
        423,
        423,
        423,
        423,
        423,
        423,
        423,
        423,
        423,
        423,
        423,
        423,
        423,
        423,
        423,
        423,
        423,
        423,
        423,
        423,
        423,
        423,
        423,
        423,
        423,
        423,
        423,
        423,
        423,
        423,
        423,
        423,
        423,
        423,
        423,
        423,
        423,
        423,
        423,
        423,
        423,
        423,
        423,
        423,
        423,
        423,
        423,
        423,
        423,
        423,
        423,
        423,
        423,
        423,
        423,
        423,
        423,
        423,
        423,
        423,
        423,
        423,
        423,
        423,
        423,
        423,
        423,
        423,
        423,
        423,
        423,
        423,
        423,
        423,
        423,
        423,
        423,
        423,
        423,
        423,
        423,
        423,
        423,
        423,
        423,
        423,
        423,
        423,
        423,
        423,
        423,
        423,
        423,
        423,
        423,
        423,
        423,
        423,
        423,
        423,
        423,
        423,
        485,
        485,
        485,
        485,
        423,
        423,
        423,
        423,
        423,
        423,
        423,
        423,
        540,
        423,
        423,
        423,
        423,
        423,
        423,
        423,
        423,
        423,
        423,
        423,
        423,
        423,
        423,
        423,
        423,
        423,
        423,
        423,
        423,
        423,
        423,
        423,
        423,
        423,
        423,
        423,
        493,
        423,
        423,
        423,
        423,
        423,
        423,
        423,
        423,
        423,
        423,
        423,
        423,
        423,
        423,
        423,
        423,
        423,
        423,
        423,
        485,
        423,
        423,
        423,
        423,
        423,
        423,
        423,
        423,
        423,
        423,
        423,
        423,
        423,
        423,
        423,
        423,
        423,
        423,
        423,
        493,
        423,
        423,
        423,
        423,
        423,
        423,
        423,
        423,
        423,
        423,
        423,
        423,
        423,
        423,
        423,
        423,
        423,
        423,
        423,
        485,
        423,
        423,
        423,
        423,
        423,
        423,
        423,
        548,
        548,
        548,
        423,
        423,
        423,
        423,
        423,
        423,
        423,
        423,
        423,
        423,
        423,
        423,
        423,
        423,
        423,
        423,
        423,
        484,
        423,
        423,
        423,
        423,
        423,
        423,
        423,
        423,
        423,
        423,
        423,
        423,
        423,
        423,
        423,
        423,
        423,
        423,
        423,
        484,
        423,
        423,
        423,
        423,
        423,
        423,
        423,
        423,
        423,
        423,
        423,
        423,
        423,
        423,
        423,
        423,
        423,
        423,
        423,
        423,
        423,
        423,
        423,
        423,
        423,
        423,
        423,
        423,
        423,
        423,
        423,
        423,
        423,
        423,
        423,
        423,
        423,
        423,
        423,
        423,
        423,
        423,
        423,
        423,
        423,
        423
      ]
    },
    {
      "id": 2,
      "name": "Decoration",
      "type": "tilelayer",
      "width": 20,
      "height": 15,
      "visible": true,
      "data": [
        423,
        423,
        0,
        0,
        0,
        0,
        0,
        0,
        0,
        0,
        0,
        0,
        0,
        0,
        0,
        0,
        0,
        0,
        0,
        0,
        0,
        0,
        0,
        0,
        0,
        0,
        0,
        0,
        0,
        0,
        0,
        0,
        0,
        0,
        0,
        0,
        0,
        0,
        0,
        0,
        0,
        0,
        0,
        0,
        0,
        0,
        0,
        0,
        0,
        0,
        0,
        0,
        0,
        0,
        0,
        0,
        0,
        0,
        0,
        0,
        0,
        0,
        0,
        0,
        0,
        0,
        0,
        0,
        0,
        628,
        628,
        628,
        0,
        628,
        628,
        628,
        628,
        628,
        0,
        0,
        0,
        0,
        0,
        0,
        0,
        636,
        636,
        636,
        387,
        636,
        636,
        636,
        0,
        636,
        636,
        636,
        636,
        636,
        0,
        0,
        0,
        0,
        0,
        0,
        0,
        774,
        485,
        485,
        485,
        485,
        485,
        485,
        0,
        540,
        540,
        540,
        540,
        730,
        0,
        0,
        0,
        0,
        0,
        0,
        0,
        782,
        492,
        492,
        492,
        492,
        492,
        492,
        0,
        540,
        540,
        540,
        540,
        540,
        0,
        0,
        0,
        0,
        0,
        0,
        0,
        800,
        484,
        484,
        484,
        484,
        484,
        484,
        0,
        540,
        540,
        540,
        540,
        540,
        0,
        0,
        0,
        0,
        0,
        0,
        0,
        808,
        492,
        492,
        492,
        492,
        492,
        492,
        628,
        540,
        540,
        540,
        540,
        540,
        0,
        0,
        0,
        0,
        0,
        0,
        0,
        485,
        484,
        484,
        484,
        484,
        484,
        484,
        636,
        0,
        0,
        0,
        0,
        0,
        0,
        0,
        0,
        0,
        0,
        0,
        0,
        485,
        492,
        492,
        492,
        492,
        492,
        492,
        387,
        548,
        548,
        548,
        548,
        548,
        0,
        0,
        0,
        0,
        0,
        0,
        0,
        493,
        484,
        484,
        484,
        484,
        484,
        484,
        387,
        0,
        0,
        0,
        0,
        0,
        0,
        0,
        0,
        0,
        0,
        0,
        0,
        485,
        492,
        492,
        492,
        492,
        0,
        0,
        0,
        0,
        0,
        0,
        0,
        0,
        0,
        0,
        0,
        0,
        0,
        0,
        0,
        0,
        0,
        0,
        0,
        0,
        0,
        0,
        0,
        0,
        0,
        0,
        0,
        0,
        0,
        0,
        0,
        0,
        0,
        0,
        0,
        0,
        0,
        0,
        0,
        0,
        0,
        0,
        0,
        0,
        0,
        0,
        0,
        0,
        0,
        0
      ]
    },
    {
      "id": 3,
      "name": "Overhead",
      "type": "tilelayer",
      "width": 20,
      "height": 15,
      "visible": true,
      "data": [
        0,
        0,
        0,
        0,
        0,
        0,
        0,
        0,
        0,
        0,
        0,
        0,
        0,
        0,
        0,
        0,
        0,
        0,
        0,
        0,
        0,
        0,
        0,
        0,
        0,
        0,
        0,
        0,
        0,
        0,
        0,
        0,
        0,
        0,
        0,
        0,
        0,
        0,
        0,
        0,
        0,
        0,
        0,
        0,
        0,
        0,
        0,
        0,
        0,
        0,
        0,
        0,
        0,
        0,
        0,
        0,
        0,
        0,
        0,
        0,
        0,
        0,
        0,
        0,
        0,
        628,
        628,
        628,
        628,
        628,
        628,
        781,
        0,
        628,
        628,
        628,
        628,
        628,
        0,
        0,
        0,
        0,
        0,
        0,
        0,
        766,
        767,
        722,
        804,
        805,
        636,
        789,
        0,
        755,
        756,
        757,
        727,
        722,
        0,
        0,
        0,
        0,
        0,
        0,
        0,
        774,
        775,
        730,
        812,
        813,
        731,
        732,
        0,
        763,
        764,
        765,
        735,
        799,
        0,
        0,
        0,
        0,
        0,
        0,
        0,
        792,
        90,
        492,
        492,
        492,
        492,
        492,
        0,
        771,
        772,
        773,
        540,
        807,
        0,
        0,
        0,
        0,
        0,
        0,
        0,
        800,
        92,
        484,
        484,
        484,
        704,
        705,
        0,
        539,
        540,
        540,
        540,
        815,
        0,
        0,
        0,
        0,
        0,
        0,
        0,
        754,
        492,
        492,
        492,
        492,
        712,
        713,
        628,
        539,
        540,
        540,
        540,
        745,
        0,
        0,
        0,
        0,
        0,
        0,
        0,
        762,
        484,
        484,
        484,
        484,
        721,
        721,
        722,
        539,
        540,
        540,
        540,
        540,
        0,
        0,
        0,
        0,
        0,
        0,
        0,
        493,
        492,
        492,
        492,
        492,
        492,
        484,
        730,
        547,
        548,
        548,
        548,
        548,
        0,
        0,
        0,
        0,
        0,
        0,
        0,
        722,
        484,
        484,
        484,
        484,
        484,
        484,
        484,
        484,
        484,
        484,
        484,
        484,
        0,
        0,
        0,
        0,
        0,
        0,
        0,
        730,
        492,
        954,
        955,
        956,
        492,
        492,
        492,
        431,
        0,
        0,
        0,
        0,
        0,
        0,
        0,
        0,
        0,
        0,
        0,
        0,
        0,
        0,
        0,
        0,
        0,
        0,
        0,
        0,
        0,
        0,
        0,
        0,
        0,
        0,
        0,
        0,
        0,
        0,
        0,
        0,
        0,
        0,
        0,
        0,
        0,
        0,
        0,
        0,
        0,
        0,
        0,
        0,
        0,
        0
      ]
    },
    {
      "id": 4,
      "name": "Objects",
      "type": "objectgroup",
      "objects": []
    }
  ],
  "tilesets": [
    {
      "firstgid": 384,
      "name": "outdoor",
      "image": "assets/tilesets/Outdoor.png",
      "imagewidth": 256,
      "imageheight": 22080,
      "tilewidth": 16,
      "tileheight": 16,
      "columns": 16,
      "tilecount": 22080
    }
  ],
  "properties": [
    {
      "name": "mapId",
      "type": "string",
      "value": "map-10"
    },
    {
      "name": "name",
      "type": "string",
      "value": "First Town"
    },
    {
      "name": "mapType",
      "type": "string",
      "value": "route"
    }
  ]
}