{
  "version": "1.10",
  "tiledversion": "1.10.2",
  "type": "map",
  "orientation": "orthogonal",
  "renderorder": "right-down",
  "infinite": false,
  "width": 30,
  "height": 30,
  "tilewidth": 16,
  "tileheight": 16,
  "layers": [
    {
      "id": 1,
      "name": "Ground",
      "type": "tilelayer",
      "width": 30,
      "height": 30,
      "visible": true,
      "data": [
        2700,
        0,
        393,
        394,
        393,
        394,
        393,
        394,
        393,
        394,
        393,
        394,
        393,
        394,
        393,
        394,
        393,
        394,
        393,
        394,
        393,
        394,
        393,
        394,
        393,
        394,
        393,
        394,
        393,
        394,
        393,
        394,
        393,
        394,
        393,
        394,
        393,
        394,
        393,
        394,
        393,
        394,
        393,
        394,
        393,
        394,
        393,
        394,
        393,
        394,
        393,
        394,
        393,
        394,
        393,
        394,
        393,
        394,
        393,
        394,
        393,
        394,
        393,
        394,
        393,
        394,
        393,
        394,
        393,
        394,
        393,
        394,
        393,
        394,
        393,
        394,
        393,
        394,
        393,
        394,
        393,
        394,
        393,
        394,
        393,
        394,
        393,
        394,
        393,
        394,
        393,
        394,
        393,
        394,
        393,
        394,
        393,
        394,
        393,
        394,
        393,
        394,
        393,
        394,
        393,
        394,
        393,
        394,
        393,
        394,
        393,
        394,
        393,
        394,
        393,
        394,
        393,
        394,
        393,
        394,
        393,
        394,
        393,
        394,
        393,
        394,
        393,
        394,
        393,
        394,
        393,
        394,
        393,
        394,
        393,
        394,
        393,
        394,
        393,
        394,
        393,
        394,
        393,
        394,
        393,
        394,
        393,
        394,
        393,
        394,
        393,
        394,
        393,
        394,
        393,
        394,
        393,
        394,
        393,
        394,
        393,
        394,
        393,
        394,
        393,
        394,
        393,
        394,
        393,
        394,
        393,
        394,
        393,
        394,
        393,
        394,
        393,
        394,
        393,
        394,
        393,
        394,
        393,
        394,
        393,
        394,
        393,
        394,
        393,
        394,
        393,
        394,
        393,
        394,
        393,
        394,
        393,
        394,
        393,
        394,
        393,
        394,
        393,
        394,
        393,
        394,
        393,
        394,
        393,
        394,
        393,
        394,
        393,
        394,
        393,
        394,
        393,
        394,
        393,
        394,
        393,
        394,
        393,
        394,
        393,
        394,
        393,
        394,
        393,
        394,
        393,
        394,
        393,
        394,
        393,
        394,
        393,
        394,
        393,
        394,
        393,
        394,
        393,
        394,
        393,
        394,
        393,
        394,
        393,
        394,
        393,
        394,
        393,
        394,
        393,
        394,
        393,
        394,
        393,
        394,
        393,
        394,
        393,
        394,
        393,
        394,
        393,
        394,
        393,
        394,
        393,
        394,
        393,
        394,
        393,
        394,
        393,
        394,
        393,
        394,
        393,
        394,
        393,
        394,
        393,
        394,
        393,
        394,
        393,
        394,
        393,
        394,
        393,
        394,
        393,
        394,
        393,
        394,
        393,
        394,
        393,
        394,
        393,
        394,
        393,
        394,
        393,
        394,
        393,
        394,
        393,
        394,
        393,
        394,
        393,
        394,
        393,
        394,
        393,
        394,
        393,
        394,
        393,
        394,
        393,
        394,
        393,
        394,
        393,
        394,
        393,
        394,
        393,
        394,
        393,
        394,
        393,
        394,
        393,
        394,
        393,
        394,
        393,
        394,
        393,
        394,
        393,
        394,
        393,
        394,
        393,
        394,
        393,
        394,
        393,
        394,
        393,
        394,
        393,
        394,
        393,
        394,
        393,
        394,
        393,
        394,
        393,
        394,
        393,
        394,
        393,
        394,
        393,
        394,
        393,
        394,
        393,
        394,
        393,
        394,
        393,
        394,
        393,
        394,
        393,
        394,
        393,
        394,
        393,
        394,
        393,
        394,
        393,
        394,
        393,
        394,
        393,
        394,
        393,
        394,
        393,
        394,
        393,
        394,
        393,
        394,
        393,
        394,
        393,
        394,
        393,
        394,
        393,
        394,
        393,
        394,
        393,
        394,
        393,
        394,
        393,
        394,
        393,
        394,
        393,
        394,
        393,
        394,
        393,
        394,
        393,
        394,
        393,
        394,
        393,
        394,
        393,
        394,
        393,
        394,
        393,
        394,
        393,
        394,
        393,
        394,
        393,
        394,
        393,
        394,
        393,
        394,
        393,
        394,
        393,
        394,
        393,
        394,
        393,
        394,
        393,
        394,
        393,
        394,
        393,
        394,
        393,
        394,
        393,
        394,
        393,
        394,
        393,
        394,
        393,
        394,
        393,
        394,
        393,
        394,
        393,
        394,
        393,
        394,
        393,
        394,
        393,
        394,
        393,
        394,
        393,
        394,
        393,
        394,
        393,
        394,
        393,
        394,
        393,
        394,
        393,
        394,
        393,
        394,
        393,
        394,
        393,
        394,
        393,
        394,
        393,
        394,
        393,
        394,
        393,
        394,
        393,
        394,
        393,
        394,
        393,
        394,
        393,
        394,
        393,
        394,
        393,
        394,
        393,
        394,
        393,
        394,
        393,
        394,
        393,
        394,
        393,
        394,
        393,
        394,
        393,
        394,
        393,
        394,
        393,
        394,
        393,
        394,
        393,
        394,
        393,
        394,
        393,
        394,
        393,
        394,
        393,
        394,
        393,
        394,
        393,
        394,
        393,
        394,
        393,
        394,
        393,
        394,
        393,
        394,
        393,
        394,
        393,
        394,
        393,
        394,
        393,
        394,
        393,
        394,
        393,
        394,
        393,
        394,
        393,
        394,
        393,
        394,
        393,
        394,
        393,
        394,
        393,
        394,
        393,
        394,
        393,
        394,
        393,
        394,
        393,
        394,
        393,
        394,
        393,
        394,
        393,
        394,
        393,
        394,
        393,
        394,
        393,
        394,
        393,
        394,
        393,
        394,
        393,
        394,
        393,
        394,
        393,
        394,
        393,
        394,
        393,
        394,
        393,
        394,
        393,
        394,
        393,
        394,
        393,
        394,
        393,
        394,
        393,
        394,
        393,
        394,
        393,
        394,
        393,
        394,
        393,
        394,
        393,
        394,
        393,
        394,
        393,
        394,
        393,
        394,
        393,
        394,
        393,
        394,
        393,
        394,
        393,
        394,
        393,
        394,
        393,
        394,
        393,
        394,
        393,
        394,
        393,
        394,
        393,
        394,
        393,
        394,
        393,
        394,
        393,
        394,
        393,
        394,
        393,
        394,
        393,
        394,
        393,
        394,
        393,
        394,
        393,
        394,
        393,
        394,
        393,
        394,
        393,
        394,
        393,
        394,
        393,
        394,
        393,
        394,
        393,
        394,
        393,
        394,
        393,
        394,
        393,
        394,
        393,
        394,
        393,
        394,
        393,
        394,
        393,
        394,
        393,
        394,
        393,
        394,
        393,
        394,
        393,
        394,
        393,
        394,
        393,
        394,
        393,
        394,
        393,
        394,
        393,
        394,
        393,
        394,
        393,
        394,
        393,
        394,
        393,
        394,
        393,
        394,
        393,
        394,
        393,
        394,
        393,
        394,
        393,
        394,
        393,
        394,
        393,
        394,
        393,
        394,
        393,
        394,
        393,
        394,
        393,
        394,
        393,
        394,
        393,
        394,
        393,
        394,
        393,
        394,
        393,
        394,
        393,
        394,
        393,
        394,
        393,
        394,
        393,
        394,
        393,
        394,
        393,
        394,
        393,
        394,
        393,
        394,
        393,
        394,
        393,
        394,
        393,
        394,
        393,
        394,
        393,
        394,
        393,
        394,
        393,
        394,
        393,
        394,
        393,
        394,
        393,
        394,
        393,
        394,
        393,
        394,
        393,
        394,
        393,
        394,
        393,
        394,
        393,
        394,
        393,
        394,
        393,
        394,
        393,
        394,
        393,
        394,
        393,
        394,
        393,
        394,
        393,
        394,
        393,
        394,
        393,
        394,
        393,
        394,
        393,
        394,
        393,
        394,
        393,
        394,
        393,
        394,
        393,
        394,
        393,
        394,
        393,
        394,
        393,
        394,
        393,
        394,
        393,
        394,
        393,
        394,
        393,
        394,
        393,
        394,
        393,
        394,
        393,
        394,
        393,
        394,
        393,
        394,
        393,
        394,
        393,
        394,
        393,
        394,
        393,
        394,
        393,
        394,
        393,
        394,
        393,
        394,
        393,
        394,
        393,
        394
      ]
    },
    {
      "id": 2,
      "name": "Decoration",
      "type": "tilelayer",
      "width": 30,
      "height": 30,
      "visible": true,
      "data": [
        393,
        394,
        0,
        0,
        0,
        0,
        0,
        0,
        0,
        0,
        0,
        0,
        0,
        0,
        0,
        0,
        0,
        0,
        0,
        0,
        0,
        0,
        0,
        0,
        0,
        0,
        0,
        0,
        0,
        0,
        0,
        0,
        0,
        0,
        0,
        0,
        0,
        0,
        0,
        0,
        0,
        0,
        0,
        0,
        0,
        0,
        0,
        0,
        0,
        0,
        0,
        0,
        0,
        0,
        0,
        0,
        0,
        0,
        0,
        0,
        0,
        0,
        0,
        0,
        0,
        0,
        0,
        0,
        0,
        0,
        0,
        0,
        0,
        0,
        0,
        0,
        0,
        0,
        0,
        0,
        0,
        0,
        0,
        0,
        0,
        0,
        0,
        0,
        0,
        0,
        0,
        0,
        0,
        0,
        0,
        0,
        0,
        0,
        0,
        0,
        0,
        0,
        0,
        0,
        0,
        0,
        0,
        0,
        0,
        0,
        0,
        0,
        0,
        0,
        0,
        0,
        0,
        0,
        0,
        0,
        0,
        0,
        410,
        0,
        0,
        0,
        401,
        402,
        401,
        402,
        401,
        402,
        401,
        402,
        401,
        402,
        401,
        402,
        401,
        402,
        401,
        402,
        401,
        402,
        401,
        402,
        401,
        0,
        0,
        0,
        411,
        0,
        0,
        410,
        0,
        0,
        401,
        402,
        401,
        402,
        401,
        402,
        401,
        402,
        401,
        402,
        401,
        402,
        401,
        402,
        401,
        402,
        401,
        402,
        401,
        402,
        401,
        0,
        0,
        411,
        0,
        0,
        0,
        0,
        410,
        0,
        401,
        402,
        401,
        402,
        401,
        402,
        401,
        402,
        401,
        402,
        401,
        402,
        401,
        402,
        401,
        402,
        401,
        402,
        401,
        402,
        401,
        0,
        411,
        0,
        0,
        0,
        0,
        0,
        0,
        0,
        0,
        0,
        0,
        0,
        0,
        0,
        0,
        0,
        0,
        0,
        0,
        0,
        0,
        0,
        0,
        0,
        0,
        0,
        0,
        0,
        0,
        0,
        0,
        0,
        0,
        0,
        0,
        0,
        0,
        0,
        0,
        0,
        0,
        0,
        0,
        0,
        0,
        0,
        0,
        0,
        0,
        0,
        0,
        0,
        0,
        0,
        0,
        0,
        0,
        0,
        0,
        392,
        0,
        0,
        0,
        0,
        0,
        0,
        0,
        395,
        395,
        0,
        0,
        0,
        0,
        0,
        0,
        0,
        0,
        0,
        0,
        0,
        0,
        0,
        0,
        0,
        0,
        0,
        0,
        0,
        392,
        392,
        0,
        0,
        0,
        0,
        0,
        0,
        0,
        395,
        395,
        0,
        0,
        407,
        407,
        407,
        407,
        407,
        407,
        407,
        407,
        407,
        407,
        407,
        407,
        407,
        407,
        407,
        0,
        0,
        392,
        392,
        0,
        0,
        0,
        0,
        0,
        0,
        0,
        395,
        395,
        0,
        461,
        407,
        407,
        407,
        407,
        407,
        407,
        407,
        407,
        407,
        407,
        407,
        407,
        407,
        407,
        407,
        0,
        0,
        392,
        392,
        0,
        0,
        0,
        0,
        0,
        0,
        0,
        395,
        395,
        0,
        461,
        407,
        407,
        407,
        407,
        407,
        407,
        407,
        407,
        407,
        407,
        407,
        407,
        407,
        407,
        407,
        0,
        0,
        392,
        392,
        0,
        0,
        0,
        0,
        0,
        0,
        0,
        395,
        395,
        0,
        407,
        407,
        407,
        407,
        407,
        0,
        0,
        0,
        0,
        0,
        0,
        0,
        0,
        0,
        0,
        0,
        0,
        0,
        392,
        392,
        0,
        0,
        0,
        0,
        0,
        0,
        0,
        395,
        395,
        0,
        407,
        407,
        407,
        407,
        407,
        0,
        384,
        385,
        386,
        385,
        386,
        385,
        386,
        385,
        386,
        385,
        386,
        385,
        419,
        392,
        0,
        0,
        0,
        0,
        0,
        0,
        0,
        395,
        395,
        0,
        407,
        407,
        407,
        407,
        407,
        0,
        392,
        0,
        0,
        0,
        0,
        0,
        0,
        0,
        0,
        0,
        0,
        0,
        0,
        392,
        0,
        0,
        0,
        0,
        0,
        0,
        0,
        395,
        395,
        0,
        407,
        407,
        407,
        407,
        407,
        0,
        392,
        392,
        0,
        0,
        0,
        0,
        0,
        0,
        0,
        0,
        0,
        0,
        0,
        392,
        0,
        0,
        0,
        0,
        0,
        0,
        0,
        395,
        395,
        0,
        407,
        407,
        407,
        407,
        407,
        0,
        392,
        392,
        0,
        0,
        0,
        0,
        0,
        0,
        0,
        0,
        0,
        0,
        0,
        392,
        0,
        0,
        0,
        0,
        0,
        0,
        0,
        395,
        395,
        0,
        407,
        407,
        407,
        407,
        407,
        0,
        392,
        392,
        0,
        0,
        0,
        0,
        0,
        0,
        0,
        0,
        0,
        0,
        0,
        392,
        0,
        0,
        0,
        0,
        0,
        0,
        0,
        395,
        395,
        0,
        407,
        407,
        407,
        407,
        407,
        0,
        392,
        400,
        401,
        402,
        401,
        402,
        401,
        402,
        401,
        402,
        401,
        402,
        403,
        392,
        0,
        0,
        0,
        0,
        0,
        0,
        0,
        395,
        395,
        0,
        407,
        407,
        407,
        407,
        407,
        0,
        400,
        402,
        401,
        402,
        401,
        402,
        401,
        402,
        401,
        402,
        401,
        402,
        411,
        392,
        0,
        0,
        0,
        0,
        0,
        0,
        0,
        395,
        395,
        0,
        407,
        407,
        407,
        407,
        407,
        0,
        0,
        0,
        0,
        0,
        0,
        0,
        0,
        0,
        0,
        0,
        0,
        0,
        392,
        392,
        0,
        0,
        0,
        0,
        0,
        0,
        0,
        395,
        395,
        0,
        407,
        407,
        407,
        407,
        407,
        0,
        0,
        0,
        0,
        0,
        0,
        0,
        0,
        0,
        0,
        0,
        0,
        0,
        392,
        392,
        0,
        0,
        0,
        0,
        0,
        0,
        0,
        395,
        395,
        0,
        0,
        0,
        437,
        438,
        439,
        0,
        0,
        0,
        0,
        0,
        0,
        0,
        0,
        0,
        0,
        0,
        0,
        0,
        392,
        392,
        0,
        0,
        0,
        0,
        0,
        0,
        0,
        395,
        418,
        385,
        386,
        385,
        445,
        446,
        447,
        385,
        386,
        385,
        386,
        385,
        386,
        385,
        386,
        385,
        386,
        385,
        386,
        385,
        419,
        392,
        0,
        0,
        0,
        0,
        0,
        0,
        0,
        418,
        385,
        385,
        386,
        385,
        386,
        385,
        386,
        385,
        386,
        385,
        386,
        385,
        386,
        385,
        386,
        385,
        386,
        385,
        386,
        385,
        385,
        419,
        0,
        0,
        0,
        0,
        0,
        0,
        0,
        0,
        0,
        0,
        0,
        0,
        0,
        0,
        0,
        0,
        0,
        0,
        0,
        0,
        0,
        0,
        0,
        0,
        0,
        0,
        0,
        0,
        0,
        0,
        0,
        0,
        0,
        0,
        0,
        0,
        0,
        0,
        0,
        0,
        0,
        0,
        0,
        0,
        0,
        0,
        0,
        0,
        0,
        0,
        0,
        0,
        0,
        0,
        0,
        0,
        0,
        0,
        0,
        0,
        0,
        0,
        0,
        0,
        0,
        0,
        0,
        0,
        0,
        0,
        0,
        0,
        0,
        0,
        0,
        0,
        0,
        0,
        0,
        0,
        0,
        0,
        0,
        0,
        0,
        0,
        0,
        0,
        0,
        0,
        0,
        0,
        0,
        0,
        0,
        0,
        0,
        0,
        0,
        0,
        0,
        0,
        0,
        0,
        0,
        0,
        0,
        0,
        0,
        0,
        0,
        0,
        0,
        0,
        0,
        0,
        0,
        0,
        0,
        0,
        0,
        0
      ]
    },
    {
      "id": 3,
      "name": "Overhead",
      "type": "tilelayer",
      "width": 30,
      "height": 30,
      "visible": true,
      "data": [
        0,
        0,
        0,
        0,
        0,
        0,
        0,
        0,
        0,
        0,
        0,
        0,
        0,
        0,
        0,
        0,
        0,
        0,
        0,
        0,
        0,
        0,
        0,
        0,
        0,
        0,
        0,
        0,
        0,
        0,
        0,
        0,
        0,
        0,
        0,
        0,
        0,
        0,
        0,
        0,
        0,
        0,
        0,
        0,
        0,
        0,
        0,
        0,
        0,
        0,
        0,
        0,
        0,
        0,
        0,
        0,
        0,
        0,
        0,
        0,
        0,
        0,
        0,
        0,
        0,
        0,
        0,
        0,
        0,
        0,
        0,
        0,
        0,
        0,
        0,
        0,
        0,
        0,
        0,
        0,
        0,
        0,
        0,
        0,
        0,
        0,
        0,
        0,
        0,
        0,
        0,
        0,
        0,
        0,
        0,
        0,
        0,
        0,
        0,
        0,
        0,
        0,
        0,
        0,
        0,
        0,
        0,
        0,
        0,
        0,
        0,
        0,
        0,
        0,
        0,
        0,
        0,
        0,
        0,
        0,
        0,
        0,
        0,
        401,
        402,
        401,
        402,
        0,
        0,
        0,
        0,
        0,
        0,
        0,
        0,
        0,
        0,
        0,
        0,
        0,
        0,
        0,
        0,
        0,
        0,
        0,
        401,
        402,
        401,
        402,
        0,
        0,
        395,
        0,
        401,
        402,
        0,
        0,
        0,
        0,
        0,
        0,
        0,
        0,
        0,
        0,
        0,
        0,
        0,
        0,
        0,
        0,
        0,
        0,
        0,
        0,
        401,
        402,
        401,
        0,
        392,
        0,
        395,
        395,
        0,
        401,
        0,
        0,
        0,
        0,
        0,
        0,
        0,
        0,
        0,
        0,
        0,
        0,
        0,
        0,
        0,
        0,
        0,
        0,
        0,
        0,
        401,
        402,
        0,
        392,
        392,
        0,
        395,
        395,
        395,
        410,
        401,
        402,
        401,
        402,
        401,
        402,
        401,
        402,
        401,
        402,
        401,
        402,
        401,
        402,
        401,
        402,
        401,
        402,
        401,
        401,
        402,
        411,
        392,
        392,
        392,
        0,
        395,
        395,
        395,
        395,
        410,
        401,
        402,
        401,
        402,
        401,
        402,
        401,
        402,
        401,
        402,
        401,
        402,
        401,
        402,
        401,
        402,
        401,
        402,
        401,
        411,
        0,
        392,
        392,
        392,
        0,
        395,
        395,
        395,
        0,
        0,
        0,
        0,
        0,
        407,
        407,
        407,
        407,
        407,
        407,
        407,
        407,
        407,
        407,
        407,
        407,
        407,
        407,
        407,
        0,
        0,
        0,
        392,
        392,
        392,
        0,
        395,
        395,
        395,
        0,
        0,
        0,
        453,
        454,
        454,
        454,
        454,
        454,
        454,
        454,
        454,
        454,
        454,
        454,
        454,
        454,
        454,
        455,
        407,
        0,
        0,
        0,
        392,
        392,
        392,
        0,
        395,
        395,
        395,
        0,
        0,
        408,
        409,
        462,
        462,
        462,
        462,
        462,
        462,
        462,
        462,
        462,
        462,
        462,
        462,
        462,
        462,
        463,
        407,
        0,
        0,
        0,
        392,
        392,
        392,
        0,
        395,
        395,
        395,
        0,
        0,
        416,
        417,
        462,
        462,
        462,
        435,
        470,
        470,
        470,
        470,
        470,
        470,
        470,
        470,
        470,
        470,
        471,
        407,
        0,
        0,
        0,
        392,
        392,
        392,
        0,
        395,
        395,
        395,
        0,
        0,
        407,
        461,
        462,
        462,
        462,
        463,
        0,
        407,
        407,
        407,
        407,
        407,
        407,
        407,
        0,
        0,
        0,
        407,
        0,
        0,
        0,
        392,
        392,
        392,
        0,
        395,
        395,
        395,
        0,
        0,
        407,
        461,
        462,
        462,
        462,
        463,
        0,
        0,
        384,
        384,
        496,
        497,
        498,
        0,
        0,
        0,
        0,
        0,
        387,
        387,
        0,
        392,
        392,
        392,
        0,
        395,
        395,
        395,
        0,
        0,
        407,
        461,
        462,
        462,
        462,
        463,
        0,
        0,
        392,
        392,
        504,
        505,
        506,
        0,
        0,
        0,
        0,
        0,
        395,
        395,
        0,
        392,
        392,
        392,
        0,
        395,
        395,
        395,
        0,
        0,
        407,
        461,
        462,
        462,
        462,
        463,
        0,
        0,
        0,
        392,
        499,
        500,
        501,
        0,
        0,
        0,
        0,
        0,
        395,
        395,
        0,
        392,
        392,
        392,
        0,
        395,
        395,
        395,
        0,
        0,
        407,
        461,
        462,
        462,
        462,
        463,
        0,
        0,
        0,
        392,
        507,
        508,
        509,
        0,
        0,
        0,
        0,
        0,
        395,
        395,
        0,
        392,
        392,
        392,
        0,
        395,
        395,
        395,
        0,
        0,
        407,
        461,
        462,
        462,
        462,
        463,
        0,
        0,
        0,
        400,
        401,
        402,
        401,
        402,
        401,
        402,
        401,
        402,
        403,
        395,
        0,
        392,
        392,
        392,
        0,
        395,
        395,
        395,
        0,
        0,
        407,
        461,
        462,
        462,
        462,
        463,
        0,
        0,
        0,
        0,
        0,
        0,
        0,
        0,
        0,
        0,
        0,
        0,
        0,
        0,
        0,
        392,
        392,
        392,
        0,
        395,
        395,
        395,
        0,
        0,
        407,
        461,
        462,
        462,
        462,
        463,
        0,
        0,
        0,
        0,
        408,
        409,
        0,
        0,
        0,
        496,
        497,
        498,
        0,
        0,
        0,
        392,
        392,
        392,
        0,
        395,
        395,
        395,
        0,
        0,
        407,
        461,
        462,
        462,
        462,
        463,
        407,
        407,
        407,
        0,
        416,
        417,
        0,
        0,
        0,
        504,
        505,
        506,
        0,
        0,
        0,
        392,
        392,
        392,
        0,
        395,
        395,
        395,
        0,
        0,
        407,
        469,
        470,
        470,
        470,
        471,
        407,
        407,
        407,
        0,
        0,
        0,
        0,
        0,
        0,
        499,
        500,
        501,
        0,
        0,
        0,
        392,
        392,
        392,
        0,
        395,
        395,
        395,
        0,
        0,
        407,
        407,
        407,
        407,
        0,
        0,
        407,
        407,
        407,
        0,
        0,
        0,
        0,
        0,
        0,
        507,
        508,
        509,
        0,
        0,
        0,
        392,
        392,
        392,
        0,
        395,
        395,
        395,
        0,
        0,
        0,
        0,
        0,
        0,
        0,
        0,
        0,
        0,
        0,
        0,
        0,
        0,
        0,
        0,
        0,
        0,
        0,
        0,
        0,
        0,
        0,
        392,
        392,
        392,
        0,
        395,
        395,
        395,
        0,
        0,
        0,
        0,
        0,
        0,
        0,
        0,
        0,
        0,
        0,
        0,
        0,
        0,
        0,
        0,
        0,
        0,
        0,
        0,
        0,
        0,
        0,
        392,
        392,
        392,
        0,
        395,
        395,
        418,
        386,
        386,
        386,
        386,
        386,
        386,
        386,
        386,
        386,
        386,
        386,
        386,
        386,
        386,
        386,
        386,
        386,
        386,
        386,
        386,
        386,
        386,
        386,
        419,
        392,
        392,
        0,
        395,
        418,
        386,
        386,
        386,
        386,
        386,
        386,
        386,
        386,
        386,
        386,
        386,
        386,
        386,
        386,
        386,
        386,
        386,
        386,
        386,
        386,
        386,
        386,
        386,
        386,
        386,
        419,
        392,
        0,
        418,
        386,
        386,
        386,
        386,
        386,
        386,
        386,
        386,
        386,
        386,
        386,
        386,
        386,
        386,
        386,
        386,
        386,
        386,
        386,
        386,
        386,
        386,
        386,
        386,
        386,
        386,
        386,
        419,
        0,
        0,
        0,
        0,
        0,
        0,
        0,
        0,
        0,
        0,
        82,
        84,
        0,
        0,
        0,
        0,
        0,
        0,
        0,
        0,
        0,
        0,
        0,
        0,
        0,
        0,
        0,
        0,
        0
      ]
    },
    {
      "id": 4,
      "name": "Objects",
      "type": "objectgroup",
      "objects": []
    }
  ],
  "tilesets": [
    {
      "firstgid": 384,
      "name": "outdoor",
      "image": "assets/tilesets/Outdoor.png",
      "imagewidth": 256,
      "imageheight": 22080,
      "tilewidth": 16,
      "tileheight": 16,
      "columns": 16,
      "tilecount": 22080
    }
  ],
  "properties": [
    {
      "name": "mapId",
      "type": "string",
      "value": "map-9"
    },
    {
      "name": "name",
      "type": "string",
      "value": "Cave"
    },
    {
      "name": "mapType",
      "type": "string",
      "value": "route"
    }
  ]
}