{
  "version": "1.10",
  "tiledversion": "1.10.2",
  "type": "map",
  "orientation": "orthogonal",
  "renderorder": "right-down",
  "infinite": false,
  "width": 44,
  "height": 39,
  "tilewidth": 16,
  "tileheight": 16,
  "layers": [
    {
      "id": 1,
      "name": "Ground",
      "type": "tilelayer",
      "width": 44,
      "height": 39,
      "visible": true,
      "data": [
        5148,
        0,
        384,
        385,
        386,
        384,
        385,
        386,
        387,
        384,
        385,
        386,
        387,
        384,
        385,
        386,
        387,
        384,
        385,
        386,
        387,
        384,
        385,
        386,
        387,
        1442,
        1442,
        1442,
        1442,
        1442,
        1442,
        1442,
        1442,
        1442,
        1442,
        1442,
        1442,
        1442,
        1442,
        1442,
        1442,
        0,
        0,
        0,
        0,
        0,
        392,
        393,
        394,
        392,
        393,
        394,
        395,
        392,
        393,
        394,
        395,
        392,
        393,
        394,
        395,
        392,
        393,
        394,
        395,
        392,
        393,
        394,
        395,
        1442,
        1442,
        1442,
        1442,
        1442,
        1442,
        1442,
        1442,
        1442,
        1442,
        1442,
        1442,
        1442,
        1442,
        1442,
        1442,
        0,
        0,
        0,
        0,
        0,
        400,
        401,
        402,
        400,
        401,
        402,
        403,
        400,
        401,
        402,
        403,
        400,
        401,
        402,
        403,
        400,
        401,
        402,
        403,
        400,
        401,
        402,
        403,
        1442,
        1442,
        1442,
        1442,
        1442,
        1442,
        1442,
        1442,
        1442,
        1442,
        1442,
        1442,
        1442,
        1442,
        1442,
        1442,
        0,
        0,
        0,
        0,
        0,
        408,
        409,
        410,
        408,
        409,
        410,
        411,
        408,
        409,
        410,
        411,
        408,
        409,
        410,
        411,
        408,
        409,
        410,
        411,
        408,
        409,
        410,
        411,
        1442,
        1442,
        1442,
        1442,
        1442,
        1442,
        1442,
        1442,
        1442,
        1442,
        1442,
        1442,
        1442,
        1442,
        1442,
        1442,
        0,
        0,
        0,
        0,
        0,
        384,
        385,
        386,
        384,
        385,
        386,
        387,
        384,
        385,
        386,
        387,
        384,
        385,
        386,
        387,
        384,
        385,
        386,
        387,
        384,
        385,
        386,
        387,
        1442,
        1442,
        1442,
        1442,
        1442,
        1442,
        1442,
        1442,
        1442,
        1442,
        1442,
        1442,
        1442,
        1442,
        1442,
        1442,
        0,
        0,
        0,
        0,
        0,
        392,
        393,
        394,
        392,
        393,
        394,
        395,
        392,
        393,
        394,
        395,
        392,
        393,
        394,
        395,
        392,
        393,
        394,
        395,
        392,
        393,
        394,
        395,
        1442,
        1442,
        1442,
        1442,
        1442,
        1442,
        1442,
        1442,
        1442,
        1442,
        1442,
        1442,
        1442,
        1442,
        1442,
        1442,
        0,
        0,
        0,
        0,
        0,
        400,
        401,
        402,
        400,
        401,
        402,
        403,
        400,
        401,
        402,
        403,
        400,
        401,
        402,
        403,
        400,
        401,
        402,
        403,
        400,
        401,
        402,
        403,
        1442,
        1442,
        1442,
        1442,
        1442,
        1442,
        1442,
        1442,
        1442,
        1442,
        1442,
        1442,
        1442,
        1442,
        1442,
        1442,
        1510,
        1510,
        1510,
        1510,
        1510,
        408,
        409,
        410,
        408,
        409,
        410,
        411,
        408,
        409,
        410,
        411,
        408,
        409,
        410,
        411,
        408,
        409,
        410,
        411,
        408,
        409,
        410,
        411,
        1442,
        1442,
        1442,
        1442,
        1442,
        1442,
        1442,
        1442,
        1442,
        1442,
        1442,
        1442,
        1442,
        1442,
        1442,
        1442,
        1510,
        1510,
        1510,
        1510,
        1510,
        384,
        385,
        386,
        384,
        385,
        386,
        387,
        384,
        385,
        386,
        387,
        384,
        385,
        386,
        387,
        384,
        385,
        386,
        387,
        384,
        385,
        386,
        387,
        1442,
        1442,
        1442,
        1442,
        1442,
        1442,
        1442,
        1442,
        1442,
        1442,
        1442,
        1442,
        1442,
        1442,
        1442,
        1442,
        1510,
        1510,
        1510,
        1510,
        1510,
        392,
        393,
        394,
        392,
        393,
        394,
        395,
        392,
        393,
        394,
        395,
        392,
        393,
        394,
        395,
        392,
        393,
        394,
        395,
        392,
        393,
        394,
        395,
        392,
        1930,
        1930,
        1930,
        1930,
        1930,
        1930,
        1930,
        1952,
        1930,
        1930,
        1930,
        1930,
        1930,
        1930,
        1930,
        1930,
        1930,
        1930,
        1930,
        1930,
        400,
        401,
        402,
        400,
        401,
        402,
        403,
        400,
        401,
        402,
        403,
        400,
        401,
        402,
        403,
        400,
        401,
        402,
        403,
        400,
        401,
        402,
        403,
        400,
        401,
        1993,
        1993,
        1993,
        1993,
        1993,
        1993,
        1960,
        1961,
        1946,
        1946,
        1946,
        1946,
        1946,
        1946,
        1946,
        1946,
        1946,
        1946,
        1946,
        408,
        409,
        410,
        408,
        409,
        410,
        411,
        408,
        409,
        410,
        411,
        408,
        409,
        410,
        411,
        408,
        409,
        410,
        411,
        408,
        409,
        410,
        411,
        408,
        409,
        1993,
        1993,
        1993,
        1993,
        1993,
        1993,
        408,
        409,
        1949,
        1950,
        1949,
        1950,
        1949,
        1950,
        1949,
        1950,
        1949,
        1950,
        1949,
        384,
        385,
        386,
        384,
        385,
        386,
        387,
        384,
        385,
        386,
        387,
        384,
        385,
        386,
        387,
        384,
        385,
        386,
        387,
        384,
        385,
        386,
        387,
        384,
        385,
        1993,
        1993,
        1993,
        1993,
        1993,
        1993,
        384,
        385,
        1957,
        1958,
        1957,
        1958,
        1957,
        1958,
        1957,
        1958,
        1957,
        1958,
        1957,
        385,
        386,
        387,
        384,
        393,
        394,
        395,
        392,
        393,
        394,
        395,
        392,
        393,
        394,
        395,
        392,
        393,
        394,
        395,
        392,
        393,
        394,
        395,
        392,
        393,
        1993,
        1993,
        1993,
        1993,
        1993,
        1993,
        392,
        393,
        1949,
        1950,
        1949,
        1950,
        1949,
        1950,
        1949,
        1950,
        1949,
        1950,
        1949,
        393,
        394,
        395,
        392,
        401,
        402,
        403,
        400,
        401,
        402,
        403,
        400,
        401,
        402,
        403,
        400,
        401,
        402,
        403,
        400,
        401,
        402,
        403,
        400,
        401,
        1993,
        1993,
        1993,
        1993,
        1993,
        1993,
        400,
        401,
        1957,
        1958,
        1957,
        1958,
        1957,
        1958,
        1957,
        1958,
        1957,
        1958,
        1957,
        401,
        402,
        403,
        400,
        409,
        410,
        411,
        408,
        409,
        410,
        411,
        408,
        409,
        410,
        411,
        408,
        409,
        410,
        411,
        408,
        409,
        410,
        411,
        408,
        409,
        1993,
        1993,
        1993,
        1993,
        1993,
        1993,
        408,
        409,
        1949,
        1950,
        1949,
        1950,
        1949,
        1950,
        1949,
        1950,
        1949,
        1950,
        1949,
        409,
        410,
        411,
        408,
        385,
        386,
        387,
        384,
        385,
        386,
        387,
        384,
        385,
        386,
        387,
        384,
        385,
        386,
        387,
        384,
        385,
        386,
        387,
        384,
        385,
        1993,
        1993,
        1993,
        1993,
        1993,
        1993,
        384,
        385,
        1957,
        1958,
        1957,
        1958,
        1957,
        1958,
        1957,
        1958,
        1957,
        1958,
        1957,
        385,
        386,
        387,
        384,
        393,
        394,
        395,
        392,
        393,
        394,
        395,
        392,
        393,
        394,
        395,
        392,
        393,
        394,
        395,
        392,
        393,
        394,
        395,
        392,
        393,
        1993,
        1993,
        1993,
        1993,
        1993,
        1993,
        392,
        393,
        1949,
        1950,
        1949,
        1950,
        1949,
        1950,
        1949,
        1950,
        1949,
        1950,
        1949,
        393,
        394,
        395,
        392,
        401,
        402,
        403,
        400,
        401,
        402,
        403,
        400,
        401,
        402,
        403,
        400,
        401,
        402,
        403,
        400,
        401,
        402,
        403,
        400,
        401,
        1993,
        1993,
        1993,
        1993,
        1993,
        1993,
        400,
        401,
        1957,
        1958,
        1957,
        1958,
        1957,
        1958,
        1957,
        1958,
        1957,
        1958,
        1957,
        392,
        393,
        394,
        408,
        409,
        410,
        411,
        408,
        409,
        410,
        411,
        408,
        409,
        410,
        411,
        408,
        409,
        410,
        411,
        408,
        409,
        410,
        411,
        408,
        409,
        1993,
        1993,
        1993,
        1993,
        1993,
        1993,
        408,
        409,
        1949,
        1950,
        1949,
        1950,
        1949,
        1950,
        1949,
        1950,
        1949,
        1950,
        1949,
        400,
        401,
        402,
        384,
        385,
        386,
        387,
        384,
        385,
        386,
        387,
        384,
        385,
        386,
        387,
        384,
        385,
        386,
        387,
        384,
        385,
        386,
        387,
        384,
        385,
        1993,
        1993,
        1993,
        1993,
        1993,
        1993,
        384,
        385,
        1957,
        1958,
        1957,
        1958,
        1957,
        1958,
        1957,
        1958,
        1957,
        1958,
        1957,
        408,
        409,
        410,
        392,
        393,
        394,
        395,
        392,
        393,
        394,
        395,
        392,
        384,
        385,
        386,
        387,
        384,
        385,
        386,
        387,
        384,
        385,
        386,
        387,
        384,
        385,
        386,
        387,
        384,
        385,
        386,
        387,
        384,
        385,
        386,
        387,
        384,
        385,
        386,
        387,
        384,
        385,
        386,
        387,
        384,
        385,
        386,
        400,
        401,
        402,
        403,
        400,
        401,
        402,
        403,
        400,
        392,
        393,
        394,
        395,
        392,
        393,
        394,
        395,
        392,
        393,
        394,
        395,
        392,
        393,
        394,
        395,
        392,
        393,
        394,
        395,
        392,
        393,
        394,
        395,
        392,
        393,
        394,
        395,
        392,
        393,
        394,
        395,
        392,
        393,
        394,
        408,
        409,
        410,
        411,
        408,
        409,
        410,
        411,
        408,
        400,
        401,
        402,
        403,
        400,
        401,
        402,
        403,
        400,
        401,
        402,
        403,
        400,
        401,
        402,
        403,
        400,
        401,
        402,
        403,
        400,
        401,
        402,
        403,
        400,
        401,
        402,
        403,
        400,
        401,
        402,
        403,
        400,
        401,
        402,
        384,
        385,
        386,
        387,
        384,
        385,
        386,
        387,
        384,
        408,
        409,
        410,
        411,
        408,
        409,
        410,
        411,
        408,
        409,
        410,
        411,
        408,
        409,
        410,
        411,
        408,
        409,
        410,
        411,
        408,
        409,
        410,
        411,
        408,
        409,
        410,
        411,
        408,
        409,
        410,
        411,
        408,
        409,
        410,
        392,
        393,
        394,
        395,
        392,
        393,
        394,
        395,
        392,
        384,
        385,
        386,
        387,
        384,
        385,
        386,
        387,
        384,
        385,
        386,
        387,
        384,
        385,
        386,
        387,
        384,
        385,
        386,
        387,
        384,
        385,
        386,
        387,
        384,
        385,
        386,
        387,
        384,
        385,
        386,
        387,
        384,
        385,
        386,
        400,
        401,
        402,
        403,
        400,
        401,
        402,
        403,
        400,
        392,
        393,
        394,
        395,
        392,
        393,
        394,
        395,
        392,
        393,
        394,
        395,
        392,
        393,
        394,
        395,
        392,
        393,
        394,
        395,
        392,
        393,
        394,
        395,
        392,
        393,
        394,
        395,
        392,
        393,
        394,
        395,
        392,
        393,
        394,
        408,
        409,
        410,
        411,
        408,
        409,
        410,
        411,
        408,
        400,
        401,
        402,
        403,
        400,
        401,
        402,
        403,
        400,
        401,
        402,
        403,
        400,
        401,
        402,
        403,
        400,
        401,
        402,
        403,
        400,
        401,
        402,
        403,
        400,
        401,
        402,
        403,
        400,
        401,
        402,
        403,
        400,
        401,
        402,
        384,
        385,
        386,
        387,
        384,
        385,
        386,
        387,
        384,
        408,
        409,
        410,
        411,
        408,
        409,
        410,
        411,
        408,
        409,
        410,
        411,
        408,
        409,
        410,
        411,
        408,
        409,
        410,
        411,
        408,
        409,
        410,
        411,
        408,
        409,
        410,
        411,
        408,
        409,
        410,
        411,
        408,
        409,
        410,
        392,
        393,
        394,
        395,
        392,
        393,
        394,
        395,
        392,
        384,
        385,
        386,
        387,
        384,
        385,
        386,
        387,
        384,
        385,
        386,
        387,
        384,
        385,
        386,
        387,
        384,
        385,
        386,
        387,
        384,
        385,
        386,
        387,
        384,
        385,
        386,
        387,
        384,
        385,
        386,
        387,
        384,
        385,
        386,
        400,
        401,
        402,
        403,
        400,
        401,
        402,
        403,
        400,
        392,
        393,
        394,
        395,
        392,
        393,
        394,
        395,
        392,
        393,
        394,
        395,
        392,
        393,
        394,
        395,
        392,
        393,
        394,
        395,
        392,
        393,
        394,
        395,
        392,
        393,
        394,
        395,
        392,
        393,
        394,
        395,
        392,
        393,
        394,
        408,
        409,
        410,
        411,
        408,
        409,
        410,
        411,
        408,
        400,
        401,
        402,
        403,
        400,
        401,
        402,
        403,
        400,
        401,
        402,
        403,
        400,
        401,
        402,
        403,
        400,
        401,
        402,
        403,
        400,
        401,
        402,
        403,
        400,
        401,
        402,
        403,
        400,
        401,
        402,
        403,
        400,
        401,
        402,
        384,
        385,
        386,
        387,
        384,
        385,
        386,
        387,
        384,
        408,
        409,
        410,
        411,
        408,
        409,
        410,
        411,
        408,
        409,
        410,
        411,
        408,
        409,
        410,
        411,
        408,
        409,
        410,
        411,
        408,
        409,
        410,
        411,
        408,
        409,
        410,
        411,
        408,
        409,
        410,
        411,
        408,
        409,
        410,
        392,
        393,
        394,
        395,
        392,
        393,
        394,
        395,
        392,
        384,
        385,
        386,
        387,
        384,
        385,
        386,
        387,
        384,
        385,
        386,
        387,
        384,
        385,
        386,
        387,
        384,
        385,
        386,
        387,
        384,
        385,
        386,
        387,
        384,
        385,
        386,
        387,
        384,
        385,
        386,
        387,
        384,
        385,
        386,
        400,
        401,
        402,
        403,
        400,
        401,
        402,
        403,
        400,
        392,
        393,
        394,
        395,
        392,
        393,
        394,
        395,
        392,
        393,
        394,
        395,
        392,
        393,
        394,
        395,
        392,
        393,
        394,
        395,
        392,
        393,
        394,
        395,
        392,
        393,
        394,
        395,
        392,
        393,
        394,
        395,
        392,
        393,
        394,
        408,
        409,
        410,
        411,
        408,
        409,
        410,
        411,
        408,
        400,
        401,
        402,
        403,
        400,
        401,
        402,
        403,
        400,
        401,
        402,
        403,
        400,
        401,
        402,
        403,
        400,
        401,
        402,
        403,
        400,
        401,
        402,
        403,
        400,
        401,
        402,
        403,
        400,
        401,
        402,
        403,
        400,
        401,
        402,
        384,
        385,
        386,
        387,
        384,
        385,
        386,
        387,
        384,
        408,
        409,
        410,
        411,
        408,
        409,
        410,
        411,
        408,
        409,
        410,
        411,
        408,
        409,
        410,
        411,
        408,
        409,
        410,
        411,
        408,
        409,
        410,
        411,
        408,
        409,
        410,
        411,
        408,
        409,
        410,
        411,
        408,
        409,
        410,
        392,
        393,
        394,
        395,
        392,
        393,
        394,
        395,
        392,
        384,
        385,
        386,
        387,
        384,
        385,
        386,
        387,
        384,
        385,
        386,
        387,
        384,
        385,
        386,
        387,
        384,
        385,
        386,
        387,
        384,
        385,
        386,
        387,
        384,
        385,
        386,
        387,
        384,
        385,
        386,
        387,
        384,
        385,
        386,
        400,
        401,
        402,
        403,
        400,
        401,
        402,
        403,
        400,
        392,
        393,
        394,
        395,
        392,
        393,
        394,
        395,
        392,
        393,
        394,
        395,
        392,
        393,
        394,
        395,
        392,
        393,
        394,
        395,
        392,
        393,
        394,
        395,
        392,
        393,
        394,
        395,
        392,
        393
      ]
    },
    {
      "id": 2,
      "name": "Decoration",
      "type": "tilelayer",
      "width": 44,
      "height": 39,
      "visible": true,
      "data": [
        394,
        395,
        654,
        653,
        654,
        0,
        0,
        0,
        0,
        0,
        0,
        0,
        0,
        0,
        0,
        0,
        0,
        0,
        0,
        0,
        0,
        0,
        0,
        0,
        0,
        0,
        0,
        0,
        0,
        0,
        0,
        0,
        0,
        0,
        0,
        0,
        0,
        0,
        0,
        0,
        1510,
        1510,
        1510,
        1510,
        1510,
        1510,
        646,
        645,
        646,
        0,
        0,
        0,
        0,
        0,
        0,
        0,
        0,
        0,
        0,
        0,
        0,
        0,
        0,
        0,
        0,
        0,
        0,
        0,
        0,
        0,
        0,
        0,
        0,
        0,
        0,
        0,
        0,
        0,
        0,
        0,
        0,
        0,
        0,
        0,
        1510,
        1510,
        1510,
        1510,
        1510,
        1510,
        654,
        653,
        654,
        0,
        0,
        0,
        0,
        0,
        0,
        0,
        0,
        0,
        0,
        0,
        0,
        0,
        0,
        0,
        0,
        0,
        0,
        0,
        0,
        0,
        0,
        0,
        0,
        0,
        0,
        0,
        0,
        0,
        0,
        0,
        0,
        0,
        0,
        0,
        1510,
        1510,
        1510,
        1510,
        1510,
        1510,
        646,
        645,
        646,
        0,
        0,
        0,
        0,
        0,
        0,
        0,
        0,
        0,
        0,
        0,
        0,
        0,
        0,
        0,
        0,
        0,
        0,
        0,
        0,
        0,
        0,
        0,
        0,
        0,
        0,
        0,
        0,
        0,
        0,
        0,
        0,
        0,
        0,
        0,
        1510,
        1510,
        1510,
        1510,
        1510,
        1510,
        654,
        653,
        654,
        0,
        0,
        0,
        0,
        0,
        0,
        0,
        0,
        0,
        0,
        0,
        0,
        0,
        0,
        0,
        0,
        0,
        0,
        0,
        0,
        0,
        0,
        0,
        0,
        0,
        0,
        0,
        0,
        0,
        0,
        0,
        0,
        0,
        0,
        0,
        1510,
        1510,
        1510,
        1510,
        1510,
        1510,
        646,
        645,
        646,
        0,
        0,
        0,
        0,
        0,
        0,
        0,
        0,
        0,
        0,
        0,
        0,
        0,
        0,
        0,
        0,
        0,
        0,
        0,
        0,
        0,
        0,
        0,
        1518,
        0,
        0,
        1518,
        1518,
        1518,
        1518,
        1518,
        1518,
        0,
        0,
        0,
        0,
        1518,
        1518,
        1518,
        1518,
        1518,
        654,
        653,
        654,
        0,
        0,
        0,
        0,
        0,
        0,
        0,
        0,
        0,
        0,
        0,
        0,
        0,
        0,
        0,
        0,
        0,
        0,
        0,
        0,
        0,
        0,
        1517,
        1518,
        1518,
        1518,
        1518,
        1518,
        1518,
        1518,
        1518,
        0,
        0,
        0,
        0,
        0,
        1526,
        1526,
        1526,
        1526,
        1526,
        646,
        645,
        646,
        645,
        0,
        0,
        0,
        0,
        0,
        0,
        0,
        0,
        0,
        0,
        0,
        0,
        0,
        0,
        0,
        0,
        0,
        0,
        0,
        0,
        1517,
        1518,
        1518,
        1518,
        1518,
        1518,
        1518,
        1518,
        1518,
        0,
        0,
        0,
        0,
        0,
        0,
        1526,
        1526,
        1526,
        1526,
        1526,
        654,
        653,
        654,
        655,
        0,
        0,
        0,
        0,
        0,
        0,
        0,
        0,
        0,
        0,
        0,
        0,
        0,
        0,
        0,
        0,
        0,
        0,
        0,
        1517,
        1518,
        1518,
        1458,
        1458,
        1458,
        1458,
        1458,
        1518,
        0,
        0,
        0,
        0,
        0,
        0,
        0,
        1526,
        1526,
        1526,
        1526,
        1526,
        646,
        645,
        646,
        647,
        0,
        0,
        0,
        0,
        0,
        0,
        0,
        0,
        0,
        0,
        0,
        0,
        0,
        0,
        0,
        0,
        0,
        0,
        0,
        0,
        1458,
        1458,
        1458,
        1458,
        1458,
        1458,
        1458,
        0,
        0,
        0,
        0,
        0,
        0,
        0,
        0,
        1526,
        1526,
        1526,
        1526,
        1526,
        654,
        653,
        654,
        655,
        0,
        0,
        0,
        0,
        0,
        0,
        0,
        0,
        0,
        0,
        0,
        0,
        0,
        0,
        0,
        0,
        0,
        0,
        0,
        0,
        1992,
        0,
        0,
        0,
        0,
        0,
        0,
        0,
        0,
        0,
        0,
        0,
        1981,
        1981,
        0,
        0,
        0,
        0,
        0,
        0,
        646,
        645,
        646,
        647,
        0,
        0,
        0,
        0,
        0,
        0,
        0,
        0,
        0,
        0,
        0,
        0,
        0,
        0,
        416,
        0,
        0,
        0,
        0,
        0,
        1992,
        0,
        0,
        0,
        0,
        0,
        0,
        0,
        1932,
        0,
        0,
        0,
        0,
        0,
        1981,
        0,
        0,
        0,
        0,
        0,
        654,
        653,
        654,
        655,
        0,
        0,
        0,
        0,
        0,
        0,
        0,
        0,
        0,
        0,
        0,
        0,
        0,
        0,
        0,
        0,
        0,
        0,
        0,
        0,
        1992,
        0,
        0,
        0,
        0,
        0,
        0,
        0,
        1932,
        0,
        0,
        0,
        0,
        0,
        1980,
        0,
        0,
        0,
        0,
        0,
        662,
        661,
        662,
        663,
        1301,
        1302,
        0,
        0,
        0,
        0,
        0,
        0,
        0,
        0,
        0,
        0,
        0,
        0,
        0,
        0,
        0,
        0,
        0,
        0,
        1992,
        0,
        0,
        0,
        0,
        0,
        0,
        0,
        1932,
        0,
        0,
        0,
        0,
        0,
        1980,
        0,
        0,
        0,
        0,
        0,
        670,
        669,
        670,
        671,
        0,
        0,
        416,
        0,
        0,
        0,
        0,
        0,
        0,
        0,
        0,
        0,
        0,
        0,
        0,
        0,
        0,
        0,
        0,
        0,
        1992,
        416,
        0,
        0,
        0,
        0,
        0,
        0,
        1932,
        0,
        0,
        0,
        0,
        1964,
        1965,
        0,
        0,
        0,
        0,
        0,
        678,
        677,
        678,
        679,
        0,
        0,
        0,
        0,
        0,
        0,
        0,
        0,
        0,
        0,
        0,
        0,
        0,
        0,
        0,
        0,
        0,
        0,
        0,
        0,
        1992,
        0,
        0,
        0,
        0,
        0,
        0,
        416,
        1932,
        0,
        0,
        0,
        0,
        1972,
        1973,
        0,
        0,
        0,
        0,
        0,
        68,
        68,
        68,
        68,
        68,
        68,
        68,
        68,
        68,
        68,
        68,
        68,
        68,
        68,
        68,
        68,
        68,
        68,
        68,
        68,
        68,
        68,
        68,
        84,
        1992,
        0,
        0,
        0,
        0,
        0,
        0,
        0,
        1932,
        0,
        0,
        0,
        0,
        0,
        1980,
        0,
        0,
        0,
        0,
        0,
        48,
        48,
        48,
        48,
        48,
        48,
        48,
        48,
        48,
        48,
        48,
        48,
        48,
        48,
        48,
        48,
        48,
        48,
        48,
        48,
        48,
        48,
        48,
        72,
        1992,
        0,
        0,
        0,
        0,
        0,
        0,
        0,
        1932,
        0,
        0,
        0,
        0,
        0,
        1981,
        0,
        0,
        0,
        0,
        0,
        76,
        76,
        76,
        76,
        76,
        76,
        76,
        76,
        76,
        76,
        76,
        76,
        76,
        76,
        76,
        76,
        76,
        76,
        76,
        76,
        76,
        76,
        76,
        86,
        1992,
        0,
        0,
        0,
        0,
        0,
        0,
        0,
        1932,
        0,
        0,
        0,
        0,
        0,
        1980,
        0,
        0,
        0,
        0,
        0,
        0,
        0,
        0,
        0,
        417,
        417,
        417,
        417,
        0,
        0,
        0,
        0,
        0,
        416,
        0,
        0,
        0,
        0,
        0,
        0,
        0,
        0,
        0,
        416,
        1992,
        0,
        0,
        0,
        0,
        0,
        0,
        1931,
        1932,
        0,
        0,
        0,
        0,
        1964,
        1965,
        0,
        0,
        0,
        0,
        0,
        0,
        0,
        0,
        655,
        417,
        417,
        417,
        417,
        417,
        417,
        417,
        417,
        417,
        417,
        417,
        417,
        0,
        0,
        0,
        0,
        0,
        0,
        0,
        0,
        1992,
        0,
        0,
        0,
        0,
        0,
        0,
        1931,
        1932,
        0,
        0,
        0,
        0,
        1972,
        1973,
        0,
        0,
        0,
        0,
        0,
        0,
        0,
        0,
        0,
        0,
        0,
        0,
        0,
        0,
        0,
        0,
        0,
        0,
        0,
        0,
        0,
        0,
        0,
        0,
        0,
        0,
        0,
        0,
        0,
        0,
        0,
        0,
        0,
        0,
        0,
        0,
        0,
        0,
        0,
        0,
        0,
        0,
        0,
        0,
        0,
        0,
        0,
        0,
        0,
        654,
        653,
        654,
        0,
        0,
        0,
        0,
        0,
        0,
        0,
        0,
        0,
        0,
        0,
        0,
        0,
        0,
        0,
        0,
        0,
        0,
        0,
        0,
        0,
        0,
        0,
        0,
        0,
        0,
        0,
        0,
        0,
        0,
        0,
        0,
        0,
        0,
        0,
        0,
        0,
        0,
        0,
        0,
        0,
        646,
        645,
        646,
        0,
        0,
        0,
        0,
        0,
        0,
        0,
        0,
        0,
        0,
        0,
        0,
        0,
        0,
        0,
        0,
        0,
        0,
        0,
        0,
        0,
        0,
        0,
        0,
        0,
        0,
        0,
        0,
        0,
        0,
        0,
        0,
        0,
        0,
        0,
        0,
        0,
        0,
        0,
        0,
        0,
        654,
        653,
        654,
        0,
        0,
        0,
        0,
        0,
        0,
        0,
        0,
        0,
        0,
        0,
        0,
        0,
        0,
        0,
        0,
        0,
        0,
        0,
        0,
        0,
        0,
        0,
        0,
        0,
        0,
        0,
        0,
        0,
        0,
        0,
        0,
        0,
        0,
        0,
        0,
        0,
        0,
        0,
        0,
        0,
        646,
        645,
        646,
        0,
        0,
        0,
        0,
        0,
        0,
        0,
        0,
        0,
        0,
        0,
        0,
        0,
        0,
        0,
        0,
        0,
        0,
        0,
        0,
        0,
        0,
        0,
        0,
        0,
        0,
        0,
        0,
        0,
        0,
        0,
        0,
        0,
        0,
        0,
        0,
        0,
        0,
        0,
        0,
        0,
        654,
        653,
        654,
        0,
        0,
        0,
        0,
        0,
        0,
        0,
        0,
        0,
        0,
        0,
        0,
        0,
        0,
        0,
        0,
        0,
        0,
        0,
        0,
        0,
        0,
        0,
        0,
        0,
        0,
        0,
        0,
        0,
        0,
        0,
        0,
        0,
        0,
        0,
        0,
        0,
        0,
        0,
        0,
        0,
        646,
        645,
        646,
        0,
        0,
        0,
        0,
        0,
        0,
        0,
        0,
        0,
        0,
        0,
        0,
        0,
        0,
        0,
        0,
        0,
        0,
        0,
        0,
        0,
        0,
        0,
        0,
        0,
        0,
        0,
        0,
        0,
        0,
        0,
        0,
        0,
        0,
        0,
        0,
        0,
        0,
        0,
        0,
        0,
        654,
        653,
        654,
        0,
        0,
        0,
        0,
        0,
        0,
        0,
        0,
        0,
        0,
        0,
        0,
        0,
        0,
        0,
        0,
        0,
        0,
        0,
        0,
        0,
        0,
        0,
        0,
        0,
        0,
        0,
        0,
        0,
        0,
        0,
        0,
        0,
        0,
        0,
        0,
        0,
        0,
        0,
        0,
        0,
        646,
        645,
        646,
        0,
        0,
        0,
        0,
        0,
        0,
        0,
        0,
        0,
        0,
        0,
        0,
        0,
        0,
        0,
        0,
        0,
        0,
        0,
        0,
        0,
        0,
        0,
        0,
        0,
        0,
        0,
        0,
        0,
        0,
        0,
        0,
        0,
        0,
        0,
        0,
        0,
        0,
        0,
        0,
        0,
        654,
        653,
        654,
        0,
        0,
        0,
        0,
        0,
        0,
        0,
        0,
        0,
        0,
        0,
        0,
        0,
        0,
        0,
        0,
        0,
        0,
        0,
        0,
        0,
        0,
        0,
        0,
        0,
        0,
        0,
        0,
        0,
        0,
        0,
        0,
        0,
        0,
        0,
        0,
        0,
        0,
        0,
        0,
        0,
        646,
        645,
        646,
        0,
        0,
        0,
        0,
        0,
        0,
        0,
        0,
        0,
        0,
        0,
        0,
        0,
        0,
        0,
        0,
        0,
        0,
        0,
        0,
        0,
        0,
        0,
        0,
        0,
        0,
        0,
        0,
        0,
        0,
        0,
        0,
        0,
        0,
        0,
        0,
        0,
        0,
        0,
        0,
        0,
        654,
        653,
        654,
        0,
        0,
        0,
        0,
        0,
        0,
        0,
        0,
        0,
        0,
        0,
        0,
        0,
        0,
        0,
        0,
        0,
        0,
        0,
        0,
        0,
        0,
        0,
        0,
        0,
        0,
        0,
        0,
        0,
        0,
        0,
        0,
        0,
        0,
        0,
        0,
        0,
        0,
        0,
        0,
        0,
        646,
        645,
        646,
        0,
        0,
        0,
        0,
        0,
        0,
        0,
        0,
        0,
        0,
        0,
        0,
        0,
        0,
        0,
        0,
        0,
        0,
        0,
        0,
        0,
        0,
        0,
        0,
        0,
        0,
        0,
        0,
        0,
        0,
        0,
        0,
        0,
        0,
        0,
        0,
        0,
        0,
        0,
        0,
        0,
        654,
        653,
        654,
        0,
        0,
        0,
        0,
        0,
        0,
        0,
        0,
        0,
        0,
        0,
        0,
        0,
        0,
        0,
        0,
        0,
        0,
        0,
        0,
        0,
        0,
        0,
        0,
        0,
        0,
        0,
        0,
        0,
        0,
        0,
        0,
        0,
        0,
        0,
        0,
        0,
        0,
        0,
        0,
        0,
        646,
        645,
        646,
        0,
        0,
        0,
        0,
        0,
        0,
        0,
        0,
        0,
        0,
        0,
        0,
        0,
        0,
        0,
        0,
        379,
        381,
        0,
        0,
        0,
        0,
        0,
        0,
        0,
        0,
        0,
        0,
        0,
        0,
        0,
        0,
        0,
        0,
        0,
        0,
        0,
        0,
        0,
        0,
        0,
        654,
        653,
        654,
        0,
        0,
        0,
        0,
        0,
        0,
        0,
        0,
        0,
        0,
        0,
        0,
        0,
        0,
        0,
        0,
        391,
        391,
        0,
        0,
        0,
        0,
        0,
        0,
        0,
        0,
        0,
        0,
        0,
        0,
        0,
        0,
        0,
        0,
        0,
        0,
        0,
        0,
        0,
        0,
        0,
        646,
        645,
        646,
        0,
        0,
        0,
        0,
        0,
        0,
        0,
        0,
        0,
        0,
        0,
        0,
        0,
        0,
        0,
        0,
        379,
        381,
        0,
        0,
        0,
        0,
        0,
        0,
        0,
        0,
        0,
        0,
        0,
        0,
        0,
        0,
        0,
        0,
        0,
        0,
        0,
        0,
        0,
        0,
        0,
        654,
        653,
        654,
        0,
        0,
        0,
        0,
        0,
        0,
        0,
        0,
        0,
        0,
        0,
        0,
        0,
        0,
        0,
        0,
        0,
        0,
        0,
        0,
        0,
        0,
        0,
        0,
        0,
        0,
        0,
        0,
        0,
        0,
        0,
        0,
        0,
        0,
        0,
        0,
        0,
        0,
        0
      ]
    },
    {
      "id": 3,
      "name": "Overhead",
      "type": "tilelayer",
      "width": 44,
      "height": 39,
      "visible": true,
      "data": [
        0,
        0,
        0,
        0,
        0,
        653,
        654,
        653,
        654,
        653,
        654,
        653,
        654,
        653,
        654,
        653,
        654,
        653,
        654,
        653,
        654,
        653,
        654,
        655,
        1440,
        1509,
        1509,
        1509,
        0,
        1442,
        1442,
        1442,
        1442,
        1442,
        0,
        0,
        0,
        0,
        0,
        0,
        0,
        0,
        0,
        0,
        0,
        0,
        0,
        0,
        0,
        645,
        646,
        645,
        646,
        645,
        646,
        645,
        646,
        645,
        646,
        645,
        646,
        645,
        646,
        645,
        646,
        645,
        646,
        647,
        1440,
        1509,
        1509,
        1509,
        0,
        1442,
        1442,
        1442,
        1442,
        1442,
        0,
        0,
        0,
        0,
        0,
        0,
        0,
        0,
        0,
        0,
        0,
        0,
        0,
        0,
        0,
        653,
        654,
        653,
        654,
        653,
        654,
        653,
        654,
        653,
        654,
        653,
        654,
        653,
        654,
        653,
        654,
        653,
        654,
        655,
        1440,
        1509,
        1509,
        1509,
        0,
        1442,
        1442,
        1442,
        1821,
        1822,
        0,
        0,
        0,
        0,
        0,
        0,
        0,
        0,
        0,
        0,
        0,
        0,
        0,
        0,
        0,
        645,
        646,
        645,
        646,
        645,
        646,
        645,
        646,
        645,
        646,
        645,
        646,
        645,
        646,
        645,
        646,
        645,
        646,
        647,
        1440,
        1509,
        1509,
        1509,
        1821,
        1822,
        1442,
        1442,
        1829,
        1830,
        0,
        0,
        0,
        0,
        0,
        0,
        0,
        0,
        0,
        0,
        0,
        0,
        0,
        0,
        0,
        653,
        654,
        653,
        654,
        653,
        654,
        653,
        654,
        653,
        654,
        653,
        654,
        653,
        654,
        653,
        654,
        653,
        654,
        655,
        1440,
        1509,
        1509,
        1509,
        1829,
        1830,
        1442,
        1442,
        1837,
        1838,
        0,
        0,
        0,
        0,
        0,
        0,
        0,
        0,
        0,
        0,
        0,
        0,
        0,
        0,
        0,
        645,
        646,
        645,
        646,
        645,
        646,
        645,
        646,
        645,
        646,
        645,
        646,
        645,
        646,
        645,
        646,
        645,
        646,
        647,
        1440,
        1509,
        1509,
        1517,
        1837,
        1838,
        1518,
        1518,
        1518,
        1518,
        1518,
        1518,
        1518,
        1518,
        1518,
        1518,
        1518,
        0,
        0,
        0,
        0,
        0,
        0,
        0,
        0,
        653,
        654,
        653,
        654,
        653,
        654,
        653,
        654,
        653,
        654,
        653,
        654,
        653,
        654,
        653,
        654,
        653,
        654,
        655,
        1440,
        1509,
        1517,
        1525,
        1526,
        1526,
        1526,
        1526,
        1526,
        1526,
        1526,
        1526,
        1526,
        1526,
        1526,
        1526,
        1526,
        0,
        0,
        0,
        0,
        0,
        0,
        0,
        0,
        0,
        662,
        661,
        662,
        661,
        662,
        661,
        662,
        661,
        662,
        661,
        662,
        661,
        662,
        661,
        662,
        661,
        662,
        663,
        1440,
        1517,
        1525,
        1526,
        1526,
        1526,
        1526,
        1526,
        1526,
        1526,
        1526,
        1526,
        1526,
        1526,
        1526,
        1526,
        1526,
        0,
        0,
        0,
        0,
        0,
        0,
        0,
        0,
        0,
        668,
        669,
        670,
        669,
        670,
        669,
        670,
        669,
        670,
        669,
        670,
        669,
        670,
        669,
        670,
        669,
        670,
        671,
        1448,
        1525,
        1526,
        1526,
        1888,
        1889,
        1890,
        1891,
        1892,
        1526,
        1526,
        1526,
        1526,
        1526,
        1526,
        1526,
        1526,
        0,
        0,
        0,
        0,
        0,
        0,
        0,
        0,
        0,
        676,
        677,
        678,
        677,
        678,
        677,
        678,
        677,
        678,
        677,
        678,
        677,
        678,
        677,
        678,
        677,
        678,
        677,
        1456,
        1457,
        388,
        389,
        390,
        1897,
        1898,
        1899,
        1900,
        1458,
        1526,
        1526,
        1526,
        1526,
        1526,
        1526,
        1526,
        0,
        0,
        0,
        0,
        0,
        0,
        0,
        0,
        0,
        130,
        116,
        116,
        116,
        116,
        116,
        116,
        116,
        116,
        116,
        116,
        116,
        116,
        116,
        116,
        116,
        132,
        417,
        417,
        417,
        396,
        397,
        398,
        1905,
        1906,
        1907,
        1908,
        0,
        0,
        0,
        0,
        0,
        1980,
        0,
        0,
        0,
        0,
        0,
        0,
        0,
        0,
        0,
        0,
        0,
        112,
        96,
        96,
        96,
        96,
        96,
        96,
        96,
        96,
        96,
        96,
        96,
        96,
        96,
        96,
        96,
        120,
        417,
        417,
        417,
        417,
        0,
        0,
        0,
        0,
        0,
        0,
        1931,
        0,
        0,
        0,
        0,
        0,
        0,
        0,
        0,
        0,
        0,
        0,
        0,
        0,
        0,
        0,
        0,
        112,
        96,
        96,
        96,
        96,
        96,
        96,
        96,
        96,
        96,
        100,
        124,
        124,
        124,
        124,
        124,
        134,
        417,
        417,
        417,
        417,
        0,
        0,
        0,
        0,
        0,
        0,
        1931,
        0,
        0,
        0,
        0,
        0,
        0,
        0,
        0,
        0,
        0,
        0,
        0,
        0,
        0,
        0,
        0,
        136,
        124,
        124,
        124,
        124,
        124,
        124,
        124,
        124,
        124,
        134,
        417,
        417,
        417,
        417,
        417,
        417,
        417,
        417,
        417,
        417,
        0,
        0,
        0,
        0,
        0,
        0,
        1931,
        0,
        0,
        0,
        0,
        0,
        0,
        0,
        0,
        0,
        0,
        0,
        0,
        0,
        0,
        0,
        0,
        0,
        0,
        0,
        0,
        417,
        417,
        417,
        417,
        417,
        417,
        417,
        417,
        417,
        417,
        417,
        417,
        417,
        417,
        417,
        417,
        0,
        0,
        0,
        0,
        0,
        0,
        0,
        1931,
        0,
        0,
        0,
        0,
        0,
        1966,
        1967,
        0,
        0,
        0,
        0,
        0,
        0,
        0,
        0,
        0,
        0,
        0,
        0,
        0,
        0,
        0,
        0,
        0,
        0,
        0,
        0,
        0,
        0,
        0,
        0,
        0,
        0,
        0,
        0,
        0,
        0,
        0,
        0,
        0,
        0,
        0,
        0,
        1931,
        0,
        0,
        0,
        0,
        0,
        1974,
        1975,
        0,
        0,
        0,
        0,
        0,
        0,
        0,
        0,
        0,
        0,
        0,
        0,
        0,
        0,
        0,
        0,
        0,
        0,
        0,
        0,
        0,
        0,
        0,
        0,
        0,
        0,
        0,
        0,
        0,
        0,
        0,
        0,
        0,
        0,
        0,
        0,
        1931,
        0,
        0,
        0,
        0,
        0,
        0,
        0,
        0,
        0,
        0,
        0,
        0,
        630,
        629,
        630,
        631,
        0,
        0,
        0,
        0,
        0,
        0,
        0,
        0,
        0,
        0,
        0,
        0,
        0,
        0,
        0,
        0,
        0,
        0,
        0,
        0,
        0,
        0,
        0,
        0,
        0,
        0,
        0,
        1931,
        0,
        0,
        0,
        0,
        0,
        0,
        0,
        0,
        0,
        0,
        0,
        0,
        638,
        637,
        638,
        639,
        0,
        0,
        0,
        0,
        0,
        0,
        0,
        0,
        0,
        0,
        0,
        0,
        0,
        0,
        0,
        0,
        0,
        0,
        0,
        0,
        0,
        0,
        0,
        0,
        0,
        0,
        0,
        1931,
        0,
        0,
        0,
        0,
        0,
        0,
        0,
        0,
        0,
        0,
        0,
        0,
        646,
        645,
        646,
        647,
        630,
        631,
        630,
        631,
        630,
        631,
        630,
        631,
        630,
        631,
        630,
        631,
        630,
        631,
        630,
        631,
        630,
        631,
        630,
        631,
        630,
        631,
        630,
        631,
        630,
        631,
        630,
        631,
        630,
        631,
        630,
        631,
        630,
        631,
        630,
        629,
        630,
        629,
        630,
        629,
        654,
        653,
        654,
        0,
        638,
        639,
        638,
        639,
        638,
        639,
        638,
        639,
        638,
        639,
        638,
        639,
        638,
        639,
        638,
        639,
        638,
        639,
        638,
        639,
        638,
        639,
        638,
        639,
        638,
        639,
        638,
        639,
        638,
        639,
        638,
        639,
        638,
        639,
        638,
        637,
        638,
        637,
        638,
        637,
        646,
        645,
        646,
        645,
        646,
        645,
        646,
        645,
        646,
        645,
        646,
        645,
        646,
        645,
        646,
        645,
        646,
        645,
        646,
        645,
        646,
        645,
        646,
        645,
        646,
        645,
        646,
        645,
        646,
        645,
        646,
        645,
        646,
        645,
        646,
        645,
        646,
        645,
        646,
        645,
        646,
        645,
        646,
        645,
        0,
        0,
        0,
        653,
        654,
        653,
        654,
        653,
        654,
        653,
        654,
        653,
        654,
        653,
        654,
        653,
        654,
        653,
        654,
        653,
        654,
        653,
        654,
        653,
        654,
        653,
        654,
        653,
        654,
        653,
        654,
        653,
        654,
        653,
        654,
        653,
        654,
        653,
        654,
        653,
        654,
        653,
        654,
        653,
        0,
        0,
        0,
        645,
        646,
        645,
        646,
        645,
        646,
        645,
        646,
        645,
        646,
        645,
        646,
        645,
        646,
        645,
        646,
        645,
        646,
        645,
        646,
        645,
        646,
        645,
        646,
        645,
        646,
        645,
        646,
        645,
        646,
        645,
        646,
        645,
        646,
        645,
        646,
        645,
        646,
        645,
        646,
        645,
        0,
        0,
        0,
        653,
        654,
        653,
        654,
        653,
        654,
        653,
        654,
        653,
        654,
        653,
        654,
        653,
        654,
        653,
        654,
        653,
        654,
        653,
        654,
        653,
        654,
        653,
        654,
        653,
        654,
        653,
        654,
        653,
        654,
        653,
        654,
        653,
        654,
        653,
        654,
        653,
        654,
        653,
        654,
        653,
        0,
        0,
        0,
        645,
        646,
        645,
        646,
        645,
        646,
        645,
        646,
        645,
        646,
        645,
        646,
        645,
        646,
        645,
        646,
        645,
        646,
        645,
        646,
        645,
        646,
        645,
        646,
        645,
        646,
        645,
        646,
        645,
        646,
        645,
        646,
        645,
        646,
        645,
        646,
        645,
        646,
        645,
        646,
        645,
        0,
        0,
        0,
        653,
        654,
        653,
        654,
        653,
        654,
        653,
        654,
        653,
        654,
        653,
        654,
        653,
        654,
        653,
        654,
        653,
        654,
        653,
        654,
        653,
        654,
        653,
        654,
        653,
        654,
        653,
        654,
        653,
        654,
        653,
        654,
        653,
        654,
        653,
        654,
        653,
        654,
        653,
        654,
        653,
        0,
        0,
        0,
        645,
        646,
        645,
        646,
        645,
        646,
        645,
        646,
        645,
        646,
        645,
        646,
        645,
        646,
        645,
        646,
        645,
        646,
        645,
        646,
        645,
        646,
        645,
        646,
        645,
        646,
        645,
        646,
        645,
        646,
        645,
        646,
        645,
        646,
        645,
        646,
        645,
        646,
        645,
        646,
        645,
        0,
        0,
        0,
        653,
        654,
        653,
        654,
        653,
        654,
        653,
        654,
        653,
        654,
        653,
        654,
        653,
        654,
        653,
        654,
        653,
        654,
        653,
        654,
        653,
        654,
        653,
        654,
        653,
        654,
        653,
        654,
        653,
        654,
        653,
        654,
        653,
        654,
        653,
        654,
        653,
        654,
        653,
        654,
        653,
        0,
        0,
        0,
        645,
        646,
        645,
        646,
        645,
        646,
        645,
        646,
        645,
        646,
        645,
        646,
        645,
        646,
        645,
        646,
        645,
        646,
        645,
        646,
        645,
        646,
        645,
        646,
        645,
        646,
        645,
        646,
        645,
        646,
        645,
        646,
        645,
        646,
        645,
        646,
        645,
        646,
        645,
        646,
        645,
        0,
        0,
        0,
        653,
        654,
        653,
        654,
        653,
        654,
        653,
        654,
        653,
        654,
        653,
        654,
        653,
        654,
        653,
        654,
        653,
        654,
        653,
        654,
        653,
        654,
        653,
        654,
        653,
        654,
        653,
        654,
        653,
        654,
        653,
        654,
        653,
        654,
        653,
        654,
        653,
        654,
        653,
        654,
        653,
        0,
        0,
        0,
        645,
        646,
        645,
        646,
        645,
        646,
        645,
        646,
        645,
        646,
        645,
        646,
        645,
        646,
        645,
        646,
        645,
        646,
        645,
        646,
        645,
        646,
        645,
        646,
        645,
        646,
        645,
        646,
        645,
        646,
        645,
        646,
        645,
        646,
        645,
        646,
        645,
        646,
        645,
        646,
        645,
        0,
        0,
        0,
        653,
        654,
        653,
        654,
        653,
        654,
        653,
        654,
        653,
        654,
        653,
        654,
        653,
        654,
        653,
        654,
        653,
        654,
        653,
        654,
        653,
        654,
        653,
        654,
        653,
        654,
        653,
        654,
        653,
        654,
        653,
        654,
        653,
        654,
        653,
        654,
        653,
        654,
        653,
        654,
        653,
        0,
        0,
        0,
        645,
        646,
        645,
        646,
        645,
        646,
        645,
        646,
        645,
        646,
        645,
        646,
        645,
        646,
        645,
        646,
        645,
        646,
        645,
        646,
        645,
        646,
        645,
        646,
        645,
        646,
        645,
        646,
        645,
        646,
        645,
        646,
        645,
        646,
        645,
        646,
        645,
        646,
        645,
        646,
        645,
        0,
        0,
        0,
        653,
        654,
        653,
        654,
        653,
        654,
        653,
        654,
        653,
        654,
        653,
        654,
        653,
        654,
        653,
        654,
        653,
        654,
        653,
        654,
        653,
        654,
        653,
        654,
        653,
        654,
        653,
        654,
        653,
        654,
        653,
        654,
        653,
        654,
        653,
        654,
        653,
        654,
        653,
        654,
        653,
        0,
        0,
        0,
        645,
        646,
        645,
        646,
        645,
        646,
        645,
        646,
        645,
        646,
        645,
        646,
        645,
        646,
        645,
        646,
        645,
        646,
        645,
        646,
        645,
        646,
        645,
        646,
        645,
        646,
        645,
        646,
        645,
        646,
        645,
        646,
        645,
        646,
        645,
        646,
        645,
        646,
        645,
        646,
        645,
        0,
        0,
        0,
        653,
        654,
        653,
        654,
        653,
        654,
        653,
        654,
        653,
        654,
        653,
        654,
        653,
        654,
        653,
        654,
        653,
        654,
        653,
        654,
        653,
        654,
        653,
        654,
        653,
        654,
        653,
        654,
        653,
        654,
        653,
        654,
        653,
        654,
        653,
        654,
        653,
        654,
        653,
        654,
        653,
        0,
        0,
        0,
        645,
        646,
        645,
        646,
        645,
        646,
        645,
        646,
        645,
        646,
        645,
        646,
        645,
        646,
        645,
        646,
        645,
        646,
        645,
        646,
        645,
        646,
        645,
        646,
        645,
        646,
        645,
        646,
        645,
        646,
        645,
        646,
        645,
        646,
        645,
        646,
        645,
        646,
        645,
        646,
        645,
        0,
        0,
        0,
        653,
        654,
        653,
        654,
        653,
        654,
        653,
        654,
        653,
        654,
        653,
        654,
        653,
        654,
        653,
        654,
        653,
        654,
        653,
        654,
        653,
        654,
        653,
        654,
        653,
        654,
        653,
        654,
        653,
        654,
        653,
        654,
        653,
        654,
        653,
        654,
        653,
        654,
        653
      ]
    },
    {
      "id": 4,
      "name": "Objects",
      "type": "objectgroup",
      "objects": []
    }
  ],
  "tilesets": [
    {
      "firstgid": 384,
      "name": "outdoor",
      "image": "assets/tilesets/Outdoor.png",
      "imagewidth": 256,
      "imageheight": 22080,
      "tilewidth": 16,
      "tileheight": 16,
      "columns": 16,
      "tilecount": 22080
    }
  ],
  "properties": [
    {
      "name": "mapId",
      "type": "string",
      "value": "map-8"
    },
    {
      "name": "name",
      "type": "string",
      "value": "Route 1"
    },
    {
      "name": "mapType",
      "type": "string",
      "value": "route"
    }
  ]
}