{
  "version": "1.10",
  "tiledversion": "1.10.2",
  "type": "map",
  "orientation": "orthogonal",
  "renderorder": "right-down",
  "infinite": false,
  "width": 20,
  "height": 30,
  "tilewidth": 16,
  "tileheight": 16,
  "layers": [
    {
      "id": 1,
      "name": "Ground",
      "type": "tilelayer",
      "width": 20,
      "height": 30,
      "visible": true,
      "data": [
        1800,
        0,
        423,
        423,
        423,
        423,
        423,
        423,
        423,
        423,
        423,
        423,
        423,
        423,
        423,
        423,
        423,
        423,
        423,
        423,
        423,
        423,
        423,
        423,
        423,
        423,
        423,
        423,
        423,
        423,
        423,
        423,
        423,
        423,
        423,
        423,
        423,
        423,
        423,
        423,
        423,
        423,
        423,
        423,
        423,
        423,
        423,
        423,
        423,
        423,
        423,
        423,
        423,
        423,
        423,
        423,
        423,
        423,
        423,
        423,
        423,
        423,
        423,
        423,
        423,
        423,
        423,
        423,
        423,
        423,
        423,
        423,
        423,
        423,
        423,
        423,
        423,
        423,
        423,
        423,
        423,
        423,
        423,
        423,
        423,
        423,
        423,
        423,
        423,
        423,
        423,
        423,
        423,
        423,
        423,
        423,
        423,
        423,
        423,
        423,
        423,
        423,
        423,
        423,
        423,
        423,
        423,
        423,
        423,
        423,
        423,
        423,
        423,
        423,
        423,
        423,
        423,
        423,
        423,
        423,
        423,
        423,
        423,
        423,
        423,
        423,
        423,
        423,
        423,
        423,
        423,
        423,
        423,
        423,
        423,
        423,
        423,
        423,
        423,
        423,
        423,
        423,
        423,
        423,
        423,
        423,
        423,
        423,
        423,
        423,
        423,
        423,
        423,
        423,
        423,
        423,
        423,
        423,
        423,
        423,
        423,
        423,
        423,
        423,
        423,
        423,
        423,
        423,
        423,
        423,
        423,
        423,
        423,
        423,
        423,
        423,
        423,
        423,
        423,
        423,
        423,
        423,
        423,
        423,
        423,
        423,
        423,
        423,
        423,
        423,
        423,
        423,
        423,
        423,
        423,
        423,
        423,
        423,
        423,
        423,
        423,
        423,
        423,
        423,
        423,
        480,
        480,
        480,
        480,
        480,
        480,
        480,
        480,
        480,
        480,
        480,
        480,
        480,
        423,
        423,
        423,
        423,
        423,
        423,
        423,
        488,
        480,
        480,
        480,
        480,
        480,
        480,
        480,
        480,
        480,
        480,
        480,
        480,
        423,
        423,
        423,
        423,
        423,
        423,
        423,
        488,
        480,
        480,
        480,
        480,
        480,
        480,
        480,
        480,
        480,
        480,
        480,
        480,
        423,
        423,
        423,
        423,
        423,
        423,
        423,
        488,
        480,
        480,
        480,
        423,
        423,
        423,
        423,
        423,
        423,
        480,
        480,
        480,
        423,
        423,
        423,
        423,
        423,
        423,
        423,
        488,
        423,
        423,
        423,
        423,
        475,
        476,
        477,
        423,
        423,
        480,
        480,
        480,
        423,
        423,
        423,
        423,
        423,
        423,
        423,
        488,
        423,
        423,
        423,
        423,
        475,
        476,
        477,
        423,
        423,
        480,
        480,
        480,
        423,
        423,
        423,
        423,
        423,
        423,
        423,
        488,
        480,
        480,
        480,
        480,
        475,
        476,
        477,
        480,
        480,
        480,
        480,
        480,
        423,
        423,
        423,
        423,
        423,
        423,
        423,
        481,
        480,
        480,
        480,
        480,
        475,
        476,
        477,
        480,
        480,
        480,
        480,
        480,
        423,
        423,
        423,
        423,
        423,
        423,
        423,
        481,
        480,
        480,
        480,
        480,
        475,
        476,
        477,
        480,
        480,
        480,
        480,
        480,
        423,
        423,
        423,
        423,
        423,
        423,
        423,
        481,
        480,
        480,
        480,
        480,
        456,
        457,
        458,
        480,
        480,
        480,
        480,
        480,
        423,
        423,
        423,
        423,
        423,
        423,
        423,
        480,
        480,
        480,
        480,
        480,
        464,
        465,
        466,
        480,
        480,
        480,
        480,
        480,
        423,
        423,
        423,
        423,
        423,
        423,
        423,
        480,
        480,
        480,
        480,
        480,
        472,
        473,
        474,
        480,
        480,
        480,
        480,
        480,
        423,
        423,
        423,
        423,
        423,
        423,
        423,
        480,
        480,
        480,
        480,
        480,
        475,
        476,
        477,
        480,
        480,
        480,
        480,
        480,
        423,
        423,
        423,
        423,
        423,
        423,
        423,
        480,
        480,
        480,
        480,
        480,
        475,
        476,
        477,
        480,
        480,
        480,
        480,
        480,
        423,
        423,
        423,
        423,
        423,
        423,
        423,
        480,
        480,
        480,
        480,
        480,
        475,
        476,
        477,
        480,
        480,
        480,
        480,
        480,
        423,
        423,
        423,
        423,
        423,
        423,
        423,
        423,
        423,
        423,
        423,
        423,
        475,
        476,
        477,
        423,
        423,
        423,
        423,
        423,
        423,
        423,
        423,
        423,
        423,
        423,
        423,
        423,
        423,
        423,
        423,
        423,
        423,
        423,
        423,
        423,
        423,
        423,
        423,
        423,
        423,
        423,
        423,
        423,
        423,
        423,
        423,
        423,
        423,
        423,
        423,
        423,
        423,
        423,
        423,
        423,
        423,
        423,
        423,
        423,
        423,
        423,
        423,
        423,
        423,
        423,
        423,
        423,
        423,
        423,
        423,
        423,
        423,
        423,
        423,
        423,
        423,
        423,
        423,
        423,
        423,
        423,
        423,
        423,
        423,
        423,
        423,
        423,
        423,
        423,
        423,
        423,
        423,
        423,
        423,
        423,
        423,
        423,
        423,
        423,
        423,
        423
      ]
    },
    {
      "id": 2,
      "name": "Decoration",
      "type": "tilelayer",
      "width": 20,
      "height": 30,
      "visible": true,
      "data": [
        423,
        423,
        0,
        0,
        0,
        0,
        0,
        0,
        0,
        0,
        0,
        0,
        0,
        0,
        0,
        0,
        0,
        0,
        0,
        0,
        0,
        0,
        0,
        0,
        0,
        0,
        0,
        0,
        0,
        0,
        0,
        0,
        0,
        0,
        0,
        0,
        0,
        0,
        0,
        0,
        0,
        0,
        0,
        0,
        0,
        0,
        0,
        0,
        0,
        0,
        0,
        0,
        0,
        0,
        0,
        0,
        0,
        0,
        0,
        0,
        0,
        0,
        0,
        0,
        0,
        0,
        0,
        0,
        0,
        0,
        0,
        0,
        0,
        0,
        0,
        0,
        0,
        0,
        0,
        0,
        0,
        0,
        0,
        0,
        0,
        0,
        0,
        0,
        0,
        0,
        0,
        0,
        0,
        0,
        0,
        0,
        0,
        0,
        0,
        0,
        0,
        0,
        0,
        0,
        0,
        0,
        0,
        0,
        0,
        0,
        0,
        0,
        0,
        0,
        0,
        0,
        0,
        0,
        0,
        0,
        0,
        0,
        0,
        0,
        0,
        0,
        0,
        0,
        0,
        0,
        0,
        0,
        0,
        0,
        0,
        0,
        0,
        0,
        0,
        0,
        0,
        0,
        0,
        0,
        0,
        0,
        0,
        0,
        0,
        0,
        0,
        0,
        0,
        0,
        0,
        0,
        0,
        0,
        0,
        0,
        0,
        0,
        0,
        0,
        0,
        655,
        655,
        655,
        655,
        655,
        655,
        655,
        655,
        655,
        655,
        655,
        655,
        655,
        0,
        0,
        0,
        0,
        0,
        0,
        0,
        663,
        663,
        663,
        663,
        663,
        663,
        663,
        663,
        663,
        663,
        663,
        663,
        663,
        0,
        0,
        0,
        0,
        0,
        0,
        0,
        497,
        482,
        482,
        482,
        482,
        482,
        482,
        482,
        482,
        482,
        482,
        482,
        482,
        0,
        0,
        0,
        0,
        0,
        0,
        0,
        0,
        0,
        0,
        0,
        0,
        0,
        0,
        0,
        0,
        0,
        0,
        0,
        0,
        0,
        0,
        0,
        0,
        0,
        0,
        0,
        0,
        0,
        0,
        656,
        657,
        658,
        659,
        660,
        661,
        662,
        0,
        0,
        0,
        0,
        0,
        0,
        0,
        0,
        0,
        0,
        933,
        934,
        935,
        664,
        665,
        666,
        667,
        668,
        669,
        670,
        933,
        934,
        935,
        0,
        0,
        0,
        0,
        0,
        0,
        0,
        941,
        942,
        943,
        672,
        673,
        674,
        675,
        676,
        677,
        678,
        941,
        942,
        943,
        0,
        0,
        0,
        0,
        0,
        0,
        0,
        941,
        942,
        943,
        680,
        681,
        682,
        683,
        684,
        685,
        686,
        941,
        942,
        943,
        0,
        0,
        0,
        0,
        0,
        0,
        0,
        941,
        942,
        943,
        1009,
        1010,
        1011,
        0,
        0,
        0,
        0,
        941,
        942,
        943,
        0,
        0,
        0,
        0,
        0,
        0,
        0,
        949,
        950,
        951,
        1017,
        1018,
        1019,
        0,
        0,
        0,
        0,
        949,
        950,
        951,
        0,
        0,
        0,
        0,
        0,
        0,
        0,
        0,
        0,
        0,
        1025,
        1026,
        1027,
        0,
        0,
        0,
        0,
        0,
        0,
        0,
        0,
        0,
        0,
        0,
        0,
        0,
        0,
        0,
        0,
        0,
        0,
        0,
        0,
        0,
        0,
        0,
        0,
        0,
        0,
        0,
        0,
        0,
        0,
        0,
        0,
        0,
        0,
        478,
        460,
        460,
        460,
        462,
        0,
        0,
        0,
        459,
        460,
        460,
        460,
        460,
        0,
        0,
        0,
        0,
        0,
        0,
        0,
        447,
        446,
        446,
        446,
        470,
        0,
        0,
        0,
        467,
        968,
        969,
        970,
        971,
        0,
        0,
        0,
        0,
        0,
        0,
        0,
        455,
        454,
        454,
        454,
        470,
        0,
        0,
        0,
        463,
        976,
        446,
        446,
        446,
        0,
        0,
        0,
        0,
        0,
        0,
        0,
        447,
        446,
        446,
        446,
        470,
        0,
        0,
        0,
        471,
        984,
        446,
        446,
        446,
        0,
        0,
        0,
        0,
        0,
        0,
        0,
        455,
        454,
        454,
        454,
        470,
        0,
        0,
        0,
        479,
        992,
        446,
        446,
        446,
        0,
        0,
        0,
        0,
        0,
        0,
        0,
        0,
        0,
        0,
        0,
        0,
        0,
        0,
        0,
        0,
        0,
        0,
        0,
        0,
        0,
        0,
        0,
        0,
        0,
        0,
        0,
        0,
        0,
        0,
        0,
        0,
        0,
        0,
        0,
        0,
        0,
        0,
        0,
        0,
        0,
        0,
        0,
        0,
        0,
        0,
        0,
        0,
        0,
        0,
        0,
        0,
        0,
        0,
        0,
        0,
        0,
        0,
        0,
        0,
        0,
        0,
        0,
        0,
        0,
        0,
        0,
        0,
        0,
        0,
        0,
        0,
        0,
        0,
        0,
        0,
        0,
        0,
        0,
        0,
        0,
        0,
        0,
        0,
        0,
        0,
        0,
        0,
        0,
        0,
        0,
        0,
        0,
        0,
        0,
        0,
        0,
        0,
        0,
        0,
        0,
        0
      ]
    },
    {
      "id": 3,
      "name": "Overhead",
      "type": "tilelayer",
      "width": 20,
      "height": 30,
      "visible": true,
      "data": [
        0,
        0,
        0,
        0,
        0,
        0,
        0,
        0,
        0,
        0,
        0,
        0,
        0,
        0,
        0,
        0,
        0,
        0,
        0,
        0,
        0,
        0,
        0,
        0,
        0,
        0,
        0,
        0,
        0,
        0,
        0,
        0,
        0,
        0,
        0,
        0,
        0,
        0,
        0,
        0,
        0,
        0,
        0,
        0,
        0,
        0,
        0,
        0,
        0,
        0,
        0,
        0,
        0,
        0,
        0,
        0,
        0,
        0,
        0,
        0,
        0,
        0,
        0,
        0,
        0,
        0,
        0,
        0,
        0,
        0,
        0,
        0,
        0,
        0,
        0,
        0,
        0,
        0,
        0,
        0,
        0,
        0,
        0,
        0,
        0,
        0,
        0,
        0,
        0,
        0,
        0,
        0,
        0,
        0,
        0,
        0,
        0,
        0,
        0,
        0,
        0,
        0,
        0,
        0,
        0,
        0,
        0,
        0,
        0,
        0,
        0,
        0,
        0,
        0,
        0,
        0,
        0,
        0,
        0,
        0,
        0,
        0,
        0,
        0,
        0,
        0,
        0,
        0,
        0,
        0,
        0,
        0,
        0,
        0,
        0,
        0,
        0,
        0,
        0,
        0,
        0,
        0,
        0,
        0,
        0,
        0,
        0,
        0,
        0,
        0,
        0,
        0,
        0,
        0,
        0,
        0,
        0,
        0,
        0,
        0,
        0,
        0,
        0,
        0,
        0,
        0,
        0,
        0,
        0,
        0,
        0,
        0,
        0,
        0,
        0,
        0,
        0,
        0,
        0,
        0,
        0,
        0,
        0,
        0,
        0,
        0,
        0,
        0,
        0,
        0,
        0,
        0,
        0,
        0,
        0,
        0,
        0,
        0,
        0,
        0,
        0,
        0,
        0,
        0,
        0,
        0,
        0,
        0,
        0,
        0,
        0,
        0,
        0,
        0,
        0,
        0,
        0,
        0,
        0,
        0,
        0,
        0,
        0,
        0,
        0,
        0,
        0,
        0,
        0,
        0,
        0,
        0,
        0,
        0,
        0,
        0,
        0,
        0,
        0,
        0,
        0,
        0,
        0,
        0,
        0,
        0,
        0,
        0,
        0,
        0,
        0,
        0,
        0,
        0,
        0,
        0,
        0,
        0,
        0,
        0,
        0,
        0,
        0,
        0,
        0,
        0,
        0,
        0,
        985,
        986,
        987,
        988,
        989,
        990,
        991,
        0,
        0,
        0,
        0,
        0,
        0,
        0,
        0,
        0,
        0,
        0,
        0,
        0,
        993,
        994,
        995,
        996,
        997,
        998,
        999,
        0,
        0,
        0,
        0,
        0,
        0,
        0,
        0,
        0,
        0,
        0,
        0,
        0,
        1001,
        1002,
        1003,
        1004,
        1005,
        1006,
        1007,
        0,
        0,
        0,
        0,
        0,
        0,
        0,
        0,
        0,
        0,
        0,
        0,
        0,
        957,
        958,
        959,
        1012,
        1013,
        1014,
        1015,
        0,
        0,
        0,
        0,
        0,
        0,
        0,
        0,
        0,
        0,
        0,
        0,
        0,
        965,
        966,
        967,
        1020,
        1021,
        1022,
        1023,
        0,
        0,
        0,
        0,
        0,
        0,
        0,
        0,
        0,
        0,
        0,
        0,
        0,
        973,
        974,
        975,
        1028,
        1029,
        1030,
        1031,
        0,
        0,
        0,
        0,
        0,
        0,
        0,
        0,
        0,
        0,
        0,
        0,
        0,
        0,
        0,
        0,
        0,
        0,
        0,
        0,
        1053,
        1054,
        1055,
        0,
        0,
        0,
        0,
        0,
        0,
        0,
        0,
        0,
        0,
        0,
        0,
        0,
        0,
        0,
        0,
        0,
        1061,
        1062,
        1063,
        0,
        0,
        0,
        0,
        0,
        0,
        0,
        0,
        0,
        0,
        0,
        0,
        0,
        0,
        0,
        0,
        0,
        1069,
        1070,
        1071,
        0,
        0,
        0,
        0,
        0,
        0,
        0,
        0,
        0,
        0,
        0,
        0,
        0,
        0,
        0,
        0,
        0,
        1077,
        1078,
        1079,
        0,
        0,
        0,
        0,
        0,
        0,
        0,
        0,
        0,
        0,
        0,
        0,
        0,
        0,
        0,
        0,
        0,
        1085,
        1086,
        1087,
        0,
        0,
        0,
        0,
        0,
        0,
        0,
        0,
        0,
        0,
        0,
        0,
        0,
        0,
        0,
        0,
        0,
        0,
        0,
        0,
        0,
        0,
        0,
        0,
        0,
        0,
        0,
        0,
        0,
        0,
        0,
        0,
        438,
        0,
        439,
        0,
        0,
        0,
        0,
        0,
        0,
        0,
        0,
        0,
        0,
        0,
        0,
        0,
        0,
        0,
        0,
        0,
        0,
        0,
        0,
        0,
        0,
        0,
        0,
        0,
        0,
        0,
        0,
        0,
        0,
        0,
        0,
        0,
        0,
        0,
        0,
        0,
        0,
        0,
        0,
        0,
        0,
        0,
        0,
        0,
        0,
        0,
        0,
        0,
        0,
        0,
        0,
        0,
        0,
        0,
        0,
        0,
        0,
        0,
        0,
        0,
        0,
        0,
        0,
        0,
        0,
        0,
        0,
        0,
        0,
        0,
        0,
        0,
        0,
        0,
        0,
        0,
        0,
        0,
        0,
        0,
        0,
        0,
        0,
        0,
        0,
        0
      ]
    },
    {
      "id": 4,
      "name": "Objects",
      "type": "objectgroup",
      "objects": []
    }
  ],
  "tilesets": [
    {
      "firstgid": 384,
      "name": "outdoor",
      "image": "assets/tilesets/Outdoor.png",
      "imagewidth": 256,
      "imageheight": 22080,
      "tilewidth": 16,
      "tileheight": 16,
      "columns": 16,
      "tilecount": 22080
    }
  ],
  "properties": [
    {
      "name": "mapId",
      "type": "string",
      "value": "map-6"
    },
    {
      "name": "name",
      "type": "string",
      "value": "Map 6"
    },
    {
      "name": "mapType",
      "type": "string",
      "value": "route"
    }
  ]
}