{
  "version": "1.10",
  "tiledversion": "1.10.2",
  "type": "map",
  "orientation": "orthogonal",
  "renderorder": "right-down",
  "infinite": false,
  "width": 24,
  "height": 15,
  "tilewidth": 16,
  "tileheight": 16,
  "layers": [
    {
      "id": 1,
      "name": "Ground",
      "type": "tilelayer",
      "width": 24,
      "height": 15,
      "visible": true,
      "data": [
        1080,
        0,
        423,
        423,
        423,
        423,
        423,
        423,
        423,
        423,
        423,
        423,
        423,
        423,
        423,
        423,
        423,
        423,
        423,
        423,
        423,
        423,
        423,
        423,
        423,
        423,
        423,
        423,
        423,
        423,
        423,
        423,
        423,
        423,
        423,
        423,
        423,
        423,
        423,
        423,
        643,
        644,
        644,
        645,
        423,
        423,
        423,
        423,
        423,
        423,
        423,
        423,
        423,
        423,
        423,
        423,
        423,
        423,
        423,
        423,
        423,
        423,
        423,
        423,
        651,
        652,
        652,
        653,
        423,
        423,
        423,
        423,
        423,
        423,
        423,
        423,
        423,
        423,
        491,
        491,
        491,
        491,
        491,
        491,
        491,
        423,
        423,
        423,
        485,
        485,
        485,
        492,
        423,
        423,
        423,
        423,
        423,
        423,
        423,
        423,
        423,
        423,
        491,
        483,
        483,
        483,
        483,
        483,
        483,
        423,
        423,
        423,
        485,
        484,
        484,
        484,
        423,
        423,
        423,
        423,
        423,
        423,
        423,
        423,
        423,
        423,
        491,
        483,
        483,
        483,
        483,
        483,
        483,
        423,
        423,
        423,
        493,
        492,
        492,
        492,
        423,
        485,
        423,
        423,
        423,
        423,
        423,
        423,
        423,
        423,
        491,
        483,
        483,
        483,
        483,
        483,
        483,
        423,
        423,
        423,
        485,
        484,
        484,
        484,
        423,
        493,
        423,
        423,
        423,
        423,
        423,
        423,
        423,
        423,
        491,
        483,
        483,
        483,
        483,
        483,
        483,
        423,
        423,
        423,
        493,
        492,
        492,
        492,
        423,
        485,
        423,
        423,
        423,
        423,
        423,
        423,
        423,
        423,
        491,
        483,
        483,
        483,
        483,
        483,
        483,
        484,
        484,
        484,
        484,
        484,
        484,
        484,
        423,
        493,
        423,
        423,
        423,
        423,
        423,
        423,
        423,
        423,
        491,
        483,
        483,
        483,
        483,
        483,
        483,
        492,
        492,
        492,
        492,
        492,
        492,
        492,
        423,
        485,
        423,
        423,
        423,
        423,
        423,
        423,
        423,
        423,
        491,
        483,
        483,
        483,
        483,
        483,
        483,
        484,
        484,
        484,
        484,
        484,
        484,
        484,
        423,
        423,
        423,
        423,
        423,
        423,
        423,
        423,
        423,
        423,
        491,
        483,
        483,
        483,
        483,
        483,
        483,
        492,
        492,
        492,
        492,
        492,
        492,
        492,
        423,
        423,
        423,
        423,
        423,
        423,
        423,
        423,
        423,
        423,
        423,
        423,
        491,
        483,
        483,
        423,
        423,
        423,
        423,
        423,
        423,
        423,
        423,
        423,
        423,
        423,
        423,
        423,
        423,
        423,
        423,
        423,
        423,
        423,
        423,
        423,
        423,
        423,
        423,
        423,
        423,
        423,
        423,
        423,
        423,
        423,
        423,
        423,
        423,
        423,
        423,
        423,
        423,
        423,
        423,
        423,
        423,
        423,
        423,
        423,
        423,
        423,
        423,
        423,
        423,
        423,
        423,
        423,
        423,
        423,
        423,
        423,
        423,
        423,
        423,
        423
      ]
    },
    {
      "id": 2,
      "name": "Decoration",
      "type": "tilelayer",
      "width": 24,
      "height": 15,
      "visible": true,
      "data": [
        423,
        423,
        0,
        0,
        0,
        0,
        0,
        0,
        0,
        0,
        0,
        0,
        0,
        0,
        0,
        0,
        0,
        0,
        0,
        0,
        0,
        0,
        0,
        0,
        0,
        0,
        0,
        0,
        0,
        0,
        643,
        644,
        644,
        644,
        644,
        644,
        645,
        0,
        0,
        0,
        0,
        0,
        0,
        0,
        0,
        0,
        0,
        0,
        0,
        0,
        0,
        0,
        0,
        0,
        651,
        652,
        652,
        652,
        652,
        652,
        653,
        0,
        0,
        0,
        726,
        0,
        706,
        707,
        0,
        0,
        0,
        0,
        0,
        0,
        0,
        0,
        0,
        0,
        0,
        0,
        0,
        0,
        0,
        0,
        761,
        423,
        423,
        423,
        734,
        745,
        714,
        715,
        0,
        0,
        0,
        0,
        0,
        0,
        0,
        0,
        0,
        0,
        1056,
        0,
        0,
        0,
        0,
        0,
        494,
        495,
        423,
        423,
        0,
        0,
        0,
        723,
        484,
        0,
        0,
        0,
        0,
        0,
        0,
        0,
        0,
        0,
        0,
        0,
        0,
        0,
        0,
        0,
        494,
        495,
        423,
        423,
        0,
        0,
        0,
        485,
        485,
        485,
        0,
        0,
        0,
        0,
        0,
        0,
        0,
        0,
        0,
        0,
        0,
        0,
        0,
        0,
        494,
        495,
        644,
        645,
        0,
        0,
        0,
        0,
        484,
        493,
        0,
        0,
        0,
        0,
        0,
        0,
        0,
        0,
        0,
        0,
        0,
        0,
        0,
        0,
        494,
        495,
        652,
        653,
        0,
        555,
        556,
        557,
        492,
        485,
        0,
        0,
        0,
        0,
        0,
        0,
        0,
        0,
        0,
        0,
        0,
        0,
        0,
        0,
        0,
        485,
        485,
        485,
        485,
        563,
        564,
        565,
        484,
        776,
        0,
        0,
        0,
        0,
        0,
        0,
        0,
        0,
        0,
        0,
        0,
        0,
        0,
        0,
        0,
        484,
        0,
        0,
        0,
        571,
        572,
        573,
        492,
        784,
        0,
        0,
        0,
        0,
        0,
        0,
        0,
        0,
        0,
        0,
        0,
        0,
        0,
        0,
        0,
        492,
        0,
        0,
        0,
        0,
        0,
        0,
        484,
        0,
        0,
        0,
        0,
        0,
        0,
        0,
        0,
        0,
        0,
        0,
        0,
        0,
        0,
        0,
        0,
        484,
        0,
        0,
        0,
        0,
        0,
        0,
        492,
        0,
        0,
        0,
        0,
        0,
        0,
        0,
        0,
        0,
        0,
        0,
        0,
        0,
        0,
        0,
        0,
        0,
        0,
        0,
        0,
        0,
        0,
        0,
        0,
        0,
        0,
        0,
        0,
        0,
        0,
        0,
        0,
        0,
        0,
        0,
        0,
        0,
        0,
        0,
        0,
        0,
        0,
        0,
        0,
        0,
        0,
        0,
        0,
        0,
        0,
        0,
        0,
        0,
        0,
        0,
        0,
        0,
        0,
        0,
        0,
        0,
        0,
        0,
        0,
        0,
        0,
        0,
        0,
        0,
        0,
        0,
        0,
        0,
        0,
        0
      ]
    },
    {
      "id": 3,
      "name": "Overhead",
      "type": "tilelayer",
      "width": 24,
      "height": 15,
      "visible": true,
      "data": [
        0,
        0,
        0,
        0,
        0,
        0,
        0,
        0,
        0,
        0,
        0,
        0,
        0,
        0,
        0,
        0,
        0,
        0,
        0,
        0,
        0,
        0,
        0,
        0,
        0,
        0,
        0,
        0,
        0,
        0,
        1032,
        1033,
        1034,
        779,
        780,
        0,
        0,
        0,
        0,
        0,
        0,
        0,
        0,
        0,
        0,
        0,
        0,
        0,
        0,
        0,
        0,
        0,
        0,
        0,
        1040,
        1041,
        1042,
        787,
        788,
        753,
        753,
        0,
        0,
        0,
        0,
        0,
        0,
        0,
        0,
        0,
        0,
        0,
        0,
        0,
        0,
        0,
        0,
        0,
        1048,
        1049,
        1050,
        795,
        796,
        761,
        798,
        423,
        0,
        0,
        0,
        0,
        0,
        0,
        644,
        671,
        0,
        0,
        0,
        0,
        0,
        0,
        0,
        0,
        823,
        1057,
        1058,
        0,
        0,
        0,
        806,
        423,
        0,
        0,
        0,
        0,
        0,
        0,
        652,
        679,
        0,
        0,
        0,
        0,
        0,
        0,
        0,
        0,
        831,
        857,
        0,
        0,
        0,
        0,
        814,
        423,
        0,
        0,
        0,
        0,
        0,
        0,
        0,
        687,
        0,
        0,
        0,
        0,
        0,
        0,
        0,
        0,
        839,
        865,
        0,
        0,
        0,
        856,
        708,
        643,
        0,
        0,
        0,
        0,
        0,
        0,
        0,
        0,
        0,
        0,
        0,
        0,
        0,
        0,
        0,
        0,
        847,
        0,
        0,
        0,
        0,
        864,
        724,
        651,
        0,
        0,
        0,
        0,
        708,
        0,
        0,
        0,
        0,
        0,
        0,
        0,
        0,
        0,
        0,
        0,
        0,
        0,
        0,
        0,
        0,
        0,
        494,
        495,
        0,
        0,
        0,
        729,
        716,
        729,
        0,
        0,
        0,
        0,
        0,
        0,
        0,
        0,
        0,
        0,
        0,
        0,
        0,
        0,
        0,
        0,
        502,
        503,
        0,
        0,
        0,
        0,
        724,
        0,
        0,
        431,
        0,
        0,
        0,
        0,
        0,
        0,
        0,
        0,
        0,
        0,
        0,
        0,
        0,
        0,
        502,
        503,
        0,
        0,
        0,
        0,
        0,
        0,
        0,
        0,
        0,
        0,
        0,
        0,
        0,
        0,
        0,
        0,
        0,
        0,
        0,
        0,
        0,
        0,
        502,
        503,
        0,
        0,
        0,
        0,
        0,
        0,
        0,
        0,
        0,
        0,
        0,
        0,
        0,
        0,
        0,
        0,
        0,
        0,
        438,
        0,
        439,
        0,
        0,
        0,
        0,
        0,
        0,
        0,
        0,
        0,
        0,
        0,
        0,
        0,
        0,
        0,
        0,
        0,
        0,
        0,
        0,
        0,
        0,
        0,
        0,
        0,
        0,
        0,
        0,
        0,
        0,
        0,
        0,
        0,
        0,
        0,
        0,
        0,
        0,
        0,
        0,
        0,
        0,
        0,
        0,
        0,
        0,
        0,
        0,
        0,
        0,
        0,
        0,
        0,
        0,
        0,
        0,
        0,
        0,
        0,
        0,
        0
      ]
    },
    {
      "id": 4,
      "name": "Objects",
      "type": "objectgroup",
      "objects": []
    }
  ],
  "tilesets": [
    {
      "firstgid": 384,
      "name": "outdoor",
      "image": "assets/tilesets/Outdoor.png",
      "imagewidth": 256,
      "imageheight": 22080,
      "tilewidth": 16,
      "tileheight": 16,
      "columns": 16,
      "tilecount": 22080
    }
  ],
  "properties": [
    {
      "name": "mapId",
      "type": "string",
      "value": "map-3"
    },
    {
      "name": "name",
      "type": "string",
      "value": "Lab"
    },
    {
      "name": "mapType",
      "type": "string",
      "value": "route"
    }
  ]
}