{
  "version": "1.10",
  "tiledversion": "1.10.2",
  "type": "map",
  "orientation": "orthogonal",
  "renderorder": "right-down",
  "infinite": false,
  "width": 20,
  "height": 15,
  "tilewidth": 16,
  "tileheight": 16,
  "layers": [
    {
      "id": 1,
      "name": "Ground",
      "type": "tilelayer",
      "width": 20,
      "height": 15,
      "visible": true,
      "data": [
        900,
        0,
        423,
        423,
        423,
        423,
        423,
        423,
        423,
        423,
        423,
        423,
        423,
        423,
        423,
        423,
        423,
        423,
        423,
        423,
        423,
        423,
        423,
        423,
        423,
        423,
        423,
        628,
        628,
        628,
        628,
        628,
        628,
        628,
        628,
        628,
        628,
        423,
        423,
        423,
        423,
        423,
        423,
        423,
        423,
        423,
        423,
        636,
        636,
        636,
        636,
        636,
        636,
        636,
        636,
        636,
        636,
        423,
        423,
        423,
        423,
        423,
        423,
        423,
        423,
        423,
        407,
        414,
        414,
        414,
        414,
        414,
        414,
        414,
        414,
        414,
        414,
        414,
        423,
        423,
        423,
        423,
        423,
        423,
        423,
        423,
        398,
        390,
        390,
        390,
        390,
        390,
        390,
        390,
        390,
        390,
        390,
        390,
        423,
        423,
        423,
        423,
        423,
        423,
        423,
        423,
        398,
        390,
        390,
        390,
        390,
        390,
        516,
        517,
        390,
        390,
        390,
        390,
        423,
        423,
        423,
        423,
        423,
        423,
        423,
        423,
        398,
        390,
        390,
        390,
        390,
        390,
        516,
        517,
        390,
        390,
        390,
        390,
        423,
        423,
        423,
        423,
        423,
        423,
        423,
        423,
        398,
        390,
        390,
        390,
        390,
        390,
        516,
        517,
        390,
        390,
        390,
        390,
        423,
        423,
        423,
        423,
        423,
        423,
        423,
        423,
        398,
        390,
        390,
        390,
        390,
        390,
        516,
        517,
        390,
        390,
        390,
        390,
        423,
        423,
        423,
        423,
        423,
        423,
        423,
        423,
        398,
        390,
        390,
        390,
        390,
        390,
        516,
        517,
        390,
        390,
        390,
        390,
        423,
        423,
        423,
        423,
        423,
        423,
        423,
        423,
        398,
        390,
        390,
        390,
        390,
        390,
        516,
        517,
        390,
        390,
        390,
        390,
        423,
        423,
        423,
        423,
        423,
        423,
        423,
        423,
        398,
        390,
        390,
        390,
        390,
        390,
        516,
        517,
        390,
        390,
        390,
        390,
        423,
        423,
        423,
        423,
        423,
        423,
        423,
        423,
        423,
        423,
        423,
        423,
        515,
        516,
        516,
        517,
        423,
        423,
        423,
        423,
        423,
        423,
        423,
        423,
        423,
        423,
        423,
        423,
        423,
        423,
        423,
        423,
        423,
        423,
        423,
        423,
        423,
        423,
        423,
        423,
        423,
        423,
        423,
        423,
        423,
        423,
        423,
        423,
        423,
        423,
        423,
        423,
        423,
        423,
        423,
        423,
        423,
        423,
        423,
        423,
        423,
        423
      ]
    },
    {
      "id": 2,
      "name": "Decoration",
      "type": "tilelayer",
      "width": 20,
      "height": 15,
      "visible": true,
      "data": [
        423,
        423,
        0,
        0,
        0,
        0,
        0,
        0,
        0,
        0,
        0,
        0,
        0,
        0,
        0,
        0,
        0,
        0,
        0,
        0,
        0,
        0,
        0,
        0,
        0,
        0,
        631,
        0,
        0,
        0,
        0,
        0,
        0,
        0,
        0,
        0,
        0,
        630,
        0,
        0,
        0,
        0,
        0,
        0,
        0,
        0,
        639,
        0,
        0,
        0,
        0,
        840,
        841,
        0,
        0,
        0,
        0,
        638,
        0,
        0,
        0,
        0,
        0,
        0,
        0,
        0,
        647,
        0,
        0,
        0,
        0,
        848,
        849,
        0,
        0,
        0,
        0,
        776,
        0,
        0,
        0,
        0,
        0,
        0,
        0,
        0,
        0,
        0,
        797,
        0,
        507,
        508,
        508,
        509,
        0,
        0,
        0,
        784,
        0,
        0,
        0,
        0,
        0,
        0,
        0,
        0,
        839,
        0,
        0,
        0,
        515,
        516,
        0,
        0,
        0,
        0,
        0,
        0,
        0,
        0,
        0,
        0,
        0,
        0,
        0,
        0,
        847,
        0,
        0,
        0,
        515,
        516,
        0,
        0,
        0,
        0,
        0,
        0,
        0,
        0,
        0,
        0,
        0,
        0,
        0,
        0,
        0,
        0,
        0,
        0,
        515,
        516,
        0,
        0,
        0,
        0,
        0,
        0,
        0,
        0,
        0,
        0,
        0,
        0,
        0,
        0,
        808,
        0,
        0,
        0,
        515,
        516,
        0,
        0,
        0,
        0,
        0,
        0,
        0,
        0,
        0,
        0,
        0,
        0,
        0,
        0,
        0,
        0,
        0,
        0,
        515,
        516,
        0,
        0,
        0,
        0,
        797,
        0,
        0,
        0,
        0,
        0,
        0,
        0,
        0,
        0,
        808,
        0,
        0,
        722,
        515,
        516,
        0,
        0,
        722,
        0,
        0,
        776,
        0,
        0,
        0,
        0,
        0,
        0,
        0,
        0,
        0,
        0,
        797,
        730,
        515,
        516,
        0,
        0,
        730,
        0,
        0,
        784,
        0,
        0,
        0,
        0,
        0,
        0,
        0,
        0,
        0,
        0,
        0,
        0,
        430,
        0,
        0,
        431,
        0,
        0,
        0,
        0,
        0,
        0,
        0,
        0,
        0,
        0,
        0,
        0,
        0,
        0,
        0,
        0,
        0,
        0,
        0,
        0,
        0,
        0,
        0,
        0,
        0,
        0,
        0,
        0,
        0,
        0,
        0,
        0,
        0,
        0,
        0,
        0,
        0,
        0,
        0,
        0,
        0,
        0,
        0,
        0,
        0,
        0
      ]
    },
    {
      "id": 3,
      "name": "Overhead",
      "type": "tilelayer",
      "width": 20,
      "height": 15,
      "visible": true,
      "data": [
        0,
        0,
        0,
        0,
        0,
        0,
        0,
        0,
        0,
        0,
        0,
        0,
        0,
        0,
        0,
        0,
        0,
        0,
        0,
        0,
        0,
        0,
        0,
        0,
        0,
        0,
        0,
        842,
        843,
        842,
        843,
        0,
        0,
        842,
        843,
        842,
        843,
        0,
        0,
        0,
        0,
        0,
        0,
        0,
        0,
        0,
        0,
        850,
        851,
        850,
        851,
        0,
        0,
        850,
        851,
        850,
        851,
        0,
        0,
        0,
        0,
        0,
        0,
        0,
        0,
        0,
        823,
        858,
        859,
        858,
        859,
        0,
        857,
        858,
        859,
        858,
        859,
        0,
        0,
        0,
        0,
        0,
        0,
        0,
        0,
        0,
        831,
        0,
        0,
        0,
        0,
        0,
        865,
        0,
        0,
        0,
        0,
        0,
        0,
        0,
        0,
        0,
        0,
        0,
        0,
        0,
        0,
        0,
        0,
        0,
        0,
        0,
        0,
        0,
        0,
        0,
        0,
        0,
        0,
        0,
        0,
        0,
        0,
        0,
        0,
        0,
        792,
        0,
        0,
        0,
        0,
        0,
        0,
        0,
        0,
        0,
        790,
        0,
        0,
        0,
        0,
        0,
        0,
        0,
        0,
        0,
        800,
        0,
        0,
        0,
        0,
        0,
        0,
        0,
        0,
        0,
        0,
        0,
        0,
        0,
        0,
        0,
        0,
        0,
        0,
        0,
        792,
        0,
        790,
        0,
        0,
        0,
        0,
        0,
        0,
        0,
        0,
        0,
        0,
        0,
        0,
        0,
        0,
        0,
        0,
        0,
        800,
        0,
        0,
        0,
        0,
        0,
        0,
        0,
        0,
        0,
        0,
        0,
        0,
        0,
        0,
        0,
        0,
        0,
        0,
        0,
        792,
        0,
        0,
        0,
        0,
        0,
        0,
        0,
        0,
        790,
        0,
        0,
        0,
        0,
        0,
        0,
        0,
        0,
        0,
        0,
        800,
        0,
        0,
        0,
        0,
        0,
        0,
        0,
        0,
        0,
        0,
        0,
        0,
        0,
        0,
        0,
        0,
        0,
        0,
        0,
        0,
        0,
        0,
        0,
        0,
        0,
        0,
        0,
        0,
        0,
        0,
        0,
        0,
        0,
        0,
        0,
        0,
        0,
        0,
        0,
        0,
        0,
        0,
        0,
        0,
        0,
        0,
        0,
        0,
        0,
        0,
        0,
        0,
        0,
        0,
        0,
        0,
        0,
        0,
        0,
        0,
        0,
        0,
        0,
        0,
        0,
        0,
        0,
        0,
        0,
        0,
        0,
        0,
        0
      ]
    },
    {
      "id": 4,
      "name": "Objects",
      "type": "objectgroup",
      "objects": []
    }
  ],
  "tilesets": [
    {
      "firstgid": 384,
      "name": "outdoor",
      "image": "assets/tilesets/Outdoor.png",
      "imagewidth": 256,
      "imageheight": 22080,
      "tilewidth": 16,
      "tileheight": 16,
      "columns": 16,
      "tilecount": 22080
    }
  ],
  "properties": [
    {
      "name": "mapId",
      "type": "string",
      "value": "map-7"
    },
    {
      "name": "name",
      "type": "string",
      "value": "Map 7"
    },
    {
      "name": "mapType",
      "type": "string",
      "value": "route"
    }
  ]
}