{
  "version": "1.10",
  "tiledversion": "1.10.2",
  "type": "map",
  "orientation": "orthogonal",
  "renderorder": "right-down",
  "infinite": false,
  "width": 36,
  "height": 39,
  "tilewidth": 16,
  "tileheight": 16,
  "layers": [
    {
      "id": 1,
      "name": "Ground",
      "type": "tilelayer",
      "width": 36,
      "height": 39,
      "visible": true,
      "data": [
        4212,
        0,
        384,
        385,
        386,
        387,
        384,
        385,
        386,
        387,
        384,
        385,
        386,
        387,
        384,
        385,
        386,
        387,
        384,
        385,
        386,
        387,
        384,
        385,
        386,
        387,
        384,
        385,
        386,
        387,
        384,
        385,
        386,
        387,
        384,
        385,
        386,
        387,
        392,
        393,
        394,
        395,
        392,
        393,
        394,
        395,
        392,
        393,
        394,
        395,
        392,
        393,
        394,
        395,
        392,
        393,
        394,
        395,
        392,
        393,
        394,
        395,
        392,
        393,
        394,
        395,
        392,
        393,
        394,
        395,
        392,
        393,
        394,
        395,
        400,
        401,
        402,
        403,
        400,
        401,
        402,
        403,
        400,
        401,
        402,
        403,
        400,
        401,
        402,
        403,
        400,
        401,
        402,
        403,
        400,
        401,
        402,
        403,
        400,
        401,
        402,
        403,
        400,
        401,
        402,
        403,
        400,
        401,
        402,
        403,
        408,
        409,
        410,
        411,
        408,
        409,
        410,
        411,
        408,
        409,
        410,
        411,
        408,
        409,
        410,
        411,
        408,
        409,
        410,
        411,
        408,
        409,
        410,
        411,
        408,
        409,
        410,
        411,
        408,
        409,
        410,
        411,
        408,
        409,
        410,
        411,
        384,
        385,
        386,
        387,
        384,
        385,
        386,
        387,
        384,
        385,
        386,
        387,
        384,
        385,
        386,
        387,
        384,
        385,
        386,
        387,
        384,
        385,
        386,
        387,
        384,
        385,
        386,
        387,
        384,
        385,
        386,
        387,
        384,
        385,
        386,
        387,
        392,
        393,
        394,
        395,
        392,
        393,
        394,
        395,
        392,
        393,
        394,
        395,
        392,
        393,
        394,
        395,
        392,
        393,
        394,
        395,
        392,
        393,
        394,
        395,
        392,
        393,
        394,
        395,
        392,
        393,
        394,
        395,
        392,
        393,
        394,
        395,
        400,
        401,
        402,
        403,
        400,
        401,
        402,
        403,
        400,
        401,
        402,
        403,
        400,
        401,
        402,
        403,
        400,
        401,
        402,
        403,
        400,
        401,
        402,
        403,
        400,
        401,
        402,
        403,
        400,
        401,
        402,
        403,
        400,
        401,
        402,
        403,
        408,
        409,
        410,
        411,
        408,
        409,
        410,
        411,
        408,
        409,
        410,
        411,
        408,
        409,
        410,
        411,
        408,
        409,
        410,
        411,
        408,
        409,
        410,
        411,
        408,
        409,
        410,
        411,
        408,
        409,
        410,
        411,
        408,
        409,
        410,
        411,
        384,
        385,
        386,
        387,
        384,
        385,
        386,
        387,
        384,
        385,
        386,
        387,
        384,
        385,
        386,
        387,
        384,
        385,
        386,
        387,
        384,
        385,
        386,
        387,
        384,
        385,
        386,
        387,
        384,
        385,
        386,
        387,
        384,
        385,
        386,
        387,
        392,
        393,
        394,
        395,
        392,
        393,
        394,
        395,
        392,
        393,
        394,
        395,
        392,
        393,
        394,
        395,
        392,
        393,
        394,
        395,
        392,
        393,
        394,
        395,
        392,
        393,
        394,
        395,
        392,
        393,
        384,
        385,
        392,
        393,
        394,
        395,
        384,
        385,
        384,
        385,
        384,
        385,
        384,
        385,
        384,
        385,
        896,
        898,
        897,
        898,
        897,
        898,
        897,
        898,
        897,
        898,
        897,
        898,
        897,
        898,
        897,
        898,
        897,
        898,
        897,
        899,
        384,
        385,
        400,
        401,
        402,
        403,
        392,
        393,
        392,
        393,
        392,
        393,
        392,
        393,
        392,
        393,
        904,
        914,
        913,
        914,
        913,
        914,
        913,
        914,
        913,
        914,
        913,
        914,
        913,
        914,
        913,
        914,
        913,
        914,
        913,
        907,
        392,
        393,
        408,
        409,
        410,
        411,
        384,
        385,
        384,
        385,
        384,
        385,
        384,
        385,
        384,
        385,
        912,
        906,
        905,
        906,
        905,
        906,
        905,
        906,
        905,
        906,
        905,
        906,
        905,
        906,
        905,
        906,
        905,
        906,
        905,
        906,
        898,
        899,
        384,
        385,
        386,
        387,
        392,
        393,
        392,
        393,
        392,
        393,
        392,
        393,
        392,
        393,
        904,
        914,
        913,
        914,
        913,
        914,
        913,
        914,
        913,
        914,
        913,
        914,
        913,
        914,
        913,
        914,
        913,
        914,
        913,
        914,
        913,
        907,
        392,
        393,
        394,
        395,
        384,
        385,
        384,
        385,
        384,
        385,
        384,
        385,
        384,
        385,
        904,
        928,
        384,
        385,
        384,
        385,
        384,
        930,
        930,
        385,
        384,
        385,
        384,
        385,
        929,
        930,
        931,
        906,
        905,
        906,
        905,
        915,
        384,
        385,
        386,
        387,
        392,
        393,
        392,
        393,
        392,
        393,
        392,
        393,
        392,
        393,
        912,
        936,
        392,
        393,
        392,
        393,
        392,
        393,
        392,
        393,
        392,
        393,
        392,
        393,
        392,
        393,
        939,
        914,
        913,
        914,
        913,
        907,
        392,
        393,
        394,
        395,
        384,
        385,
        384,
        385,
        384,
        385,
        384,
        385,
        384,
        385,
        904,
        944,
        384,
        385,
        384,
        385,
        384,
        385,
        384,
        385,
        384,
        385,
        384,
        385,
        384,
        385,
        939,
        906,
        905,
        906,
        905,
        915,
        400,
        401,
        402,
        403,
        392,
        393,
        392,
        393,
        392,
        393,
        392,
        393,
        392,
        393,
        912,
        952,
        392,
        393,
        392,
        393,
        392,
        393,
        392,
        393,
        392,
        393,
        392,
        874,
        392,
        393,
        939,
        914,
        913,
        914,
        913,
        907,
        408,
        409,
        410,
        411,
        384,
        385,
        384,
        385,
        384,
        385,
        384,
        385,
        384,
        385,
        904,
        906,
        905,
        906,
        905,
        906,
        905,
        906,
        905,
        906,
        905,
        906,
        905,
        944,
        384,
        385,
        939,
        906,
        905,
        906,
        905,
        915,
        384,
        385,
        386,
        387,
        392,
        393,
        392,
        393,
        392,
        393,
        392,
        393,
        392,
        393,
        912,
        914,
        913,
        914,
        913,
        914,
        913,
        914,
        913,
        914,
        913,
        914,
        913,
        944,
        392,
        393,
        947,
        914,
        913,
        914,
        913,
        907,
        392,
        393,
        394,
        395,
        384,
        385,
        384,
        385,
        384,
        385,
        384,
        385,
        384,
        385,
        904,
        906,
        905,
        906,
        905,
        906,
        905,
        906,
        905,
        906,
        905,
        906,
        905,
        944,
        384,
        385,
        939,
        906,
        905,
        906,
        905,
        915,
        400,
        401,
        402,
        403,
        392,
        393,
        392,
        393,
        392,
        393,
        392,
        393,
        392,
        393,
        912,
        914,
        913,
        914,
        913,
        914,
        913,
        914,
        913,
        914,
        913,
        914,
        913,
        944,
        392,
        393,
        947,
        914,
        913,
        914,
        913,
        907,
        408,
        409,
        410,
        411,
        384,
        385,
        384,
        385,
        384,
        385,
        384,
        385,
        384,
        385,
        904,
        906,
        905,
        906,
        905,
        906,
        905,
        906,
        905,
        906,
        905,
        906,
        905,
        944,
        384,
        385,
        939,
        906,
        905,
        906,
        905,
        915,
        384,
        385,
        386,
        387,
        392,
        393,
        392,
        393,
        392,
        393,
        392,
        393,
        392,
        393,
        912,
        914,
        913,
        914,
        913,
        914,
        913,
        914,
        913,
        914,
        913,
        914,
        913,
        944,
        392,
        393,
        947,
        914,
        913,
        914,
        913,
        907,
        392,
        393,
        394,
        395,
        384,
        385,
        384,
        385,
        384,
        385,
        384,
        385,
        384,
        385,
        904,
        906,
        905,
        906,
        905,
        906,
        905,
        906,
        905,
        906,
        905,
        906,
        905,
        944,
        384,
        385,
        939,
        906,
        905,
        906,
        905,
        915,
        400,
        401,
        402,
        403,
        392,
        393,
        392,
        393,
        392,
        393,
        392,
        393,
        392,
        393,
        912,
        914,
        913,
        914,
        913,
        914,
        913,
        914,
        913,
        914,
        913,
        914,
        913,
        944,
        392,
        393,
        947,
        914,
        913,
        914,
        913,
        907,
        408,
        409,
        410,
        411,
        384,
        385,
        384,
        385,
        384,
        385,
        384,
        385,
        384,
        385,
        904,
        906,
        905,
        906,
        905,
        906,
        905,
        906,
        905,
        906,
        905,
        906,
        905,
        944,
        384,
        385,
        939,
        906,
        905,
        906,
        905,
        915,
        384,
        385,
        386,
        387,
        392,
        393,
        392,
        393,
        392,
        393,
        392,
        393,
        392,
        393,
        912,
        914,
        913,
        914,
        913,
        914,
        913,
        914,
        913,
        914,
        913,
        914,
        913,
        944,
        392,
        393,
        947,
        914,
        913,
        914,
        913,
        907,
        392,
        393,
        394,
        395,
        384,
        385,
        384,
        385,
        384,
        385,
        384,
        385,
        384,
        385,
        904,
        906,
        384,
        385,
        384,
        385,
        384,
        385,
        384,
        385,
        384,
        385,
        384,
        850,
        384,
        385,
        939,
        906,
        905,
        906,
        905,
        915,
        400,
        401,
        402,
        403,
        392,
        393,
        392,
        393,
        392,
        393,
        392,
        393,
        392,
        393,
        912,
        914,
        392,
        393,
        392,
        393,
        392,
        393,
        392,
        393,
        392,
        393,
        392,
        859,
        392,
        393,
        947,
        914,
        913,
        914,
        913,
        907,
        408,
        409,
        410,
        411,
        384,
        385,
        384,
        385,
        384,
        385,
        384,
        385,
        384,
        385,
        904,
        906,
        384,
        385,
        384,
        385,
        384,
        385,
        384,
        385,
        384,
        385,
        384,
        867,
        384,
        385,
        939,
        906,
        905,
        906,
        905,
        915,
        384,
        385,
        386,
        387,
        392,
        393,
        392,
        393,
        392,
        393,
        392,
        393,
        392,
        393,
        912,
        914,
        392,
        393,
        392,
        393,
        392,
        393,
        392,
        393,
        392,
        393,
        392,
        393,
        392,
        393,
        392,
        914,
        913,
        914,
        913,
        907,
        392,
        393,
        394,
        395,
        384,
        385,
        384,
        385,
        384,
        385,
        384,
        385,
        384,
        385,
        904,
        906,
        905,
        906,
        905,
        906,
        905,
        906,
        905,
        906,
        905,
        906,
        905,
        385,
        384,
        385,
        384,
        906,
        905,
        906,
        905,
        915,
        400,
        401,
        402,
        403,
        392,
        393,
        392,
        393,
        392,
        393,
        392,
        393,
        392,
        393,
        912,
        914,
        913,
        914,
        913,
        914,
        913,
        914,
        913,
        914,
        913,
        914,
        913,
        393,
        392,
        393,
        392,
        914,
        913,
        914,
        913,
        907,
        408,
        409,
        410,
        411,
        384,
        385,
        384,
        385,
        384,
        385,
        384,
        385,
        384,
        385,
        920,
        906,
        905,
        906,
        905,
        906,
        905,
        906,
        905,
        906,
        905,
        906,
        905,
        385,
        384,
        385,
        384,
        906,
        905,
        906,
        905,
        915,
        384,
        385,
        386,
        387,
        392,
        393,
        392,
        393,
        392,
        393,
        392,
        393,
        392,
        393,
        913,
        914,
        913,
        914,
        913,
        914,
        913,
        914,
        913,
        914,
        913,
        914,
        913,
        393,
        392,
        393,
        392,
        914,
        913,
        914,
        913,
        907,
        392,
        393,
        394,
        395,
        384,
        385,
        384,
        385,
        384,
        385,
        384,
        385,
        384,
        385,
        384,
        385,
        920,
        922,
        921,
        922,
        921,
        922,
        921,
        922,
        921,
        922,
        921,
        385,
        384,
        385,
        384,
        921,
        922,
        921,
        922,
        922,
        400,
        401,
        402,
        403,
        392,
        393,
        392,
        393,
        392,
        393,
        392,
        393,
        392,
        393,
        392,
        393,
        392,
        393,
        392,
        393,
        392,
        393,
        392,
        393,
        392,
        393,
        392,
        393,
        392,
        393,
        392,
        393,
        392,
        393,
        392,
        393,
        408,
        409,
        410,
        411,
        384,
        385,
        384,
        385,
        384,
        385,
        384,
        385,
        384,
        385,
        384,
        385,
        384,
        385,
        384,
        385,
        384,
        385,
        384,
        385,
        384,
        385,
        384,
        385,
        384,
        385,
        384,
        385,
        384,
        385,
        384,
        385,
        384,
        385
      ]
    },
    {
      "id": 2,
      "name": "Decoration",
      "type": "tilelayer",
      "width": 36,
      "height": 39,
      "visible": true,
      "data": [
        386,
        387,
        654,
        653,
        654,
        653,
        654,
        653,
        654,
        653,
        654,
        653,
        654,
        653,
        654,
        653,
        654,
        653,
        654,
        653,
        654,
        653,
        654,
        653,
        654,
        653,
        654,
        653,
        654,
        653,
        654,
        653,
        654,
        653,
        654,
        653,
        654,
        653,
        646,
        645,
        646,
        645,
        646,
        645,
        646,
        645,
        646,
        645,
        646,
        645,
        646,
        645,
        646,
        645,
        646,
        645,
        646,
        645,
        646,
        645,
        646,
        645,
        646,
        645,
        646,
        645,
        646,
        645,
        646,
        645,
        646,
        645,
        646,
        645,
        654,
        653,
        654,
        653,
        654,
        653,
        654,
        653,
        654,
        653,
        654,
        653,
        654,
        653,
        654,
        653,
        654,
        653,
        654,
        653,
        654,
        653,
        654,
        653,
        654,
        653,
        654,
        653,
        654,
        653,
        654,
        653,
        654,
        653,
        654,
        653,
        646,
        645,
        646,
        645,
        646,
        645,
        646,
        645,
        646,
        645,
        646,
        645,
        646,
        645,
        646,
        645,
        646,
        645,
        646,
        645,
        646,
        645,
        646,
        645,
        646,
        645,
        646,
        645,
        646,
        645,
        646,
        645,
        646,
        645,
        646,
        645,
        654,
        653,
        654,
        653,
        654,
        653,
        654,
        653,
        654,
        653,
        654,
        653,
        654,
        653,
        654,
        653,
        654,
        653,
        654,
        653,
        654,
        653,
        654,
        653,
        654,
        653,
        654,
        653,
        654,
        653,
        654,
        653,
        654,
        653,
        654,
        653,
        646,
        645,
        646,
        645,
        646,
        645,
        646,
        645,
        646,
        645,
        646,
        645,
        646,
        645,
        646,
        645,
        646,
        645,
        646,
        645,
        646,
        645,
        646,
        645,
        646,
        645,
        646,
        645,
        646,
        645,
        646,
        645,
        646,
        645,
        646,
        645,
        654,
        653,
        654,
        653,
        654,
        653,
        654,
        653,
        654,
        653,
        654,
        653,
        654,
        653,
        654,
        653,
        654,
        653,
        654,
        653,
        654,
        653,
        654,
        653,
        654,
        653,
        654,
        653,
        654,
        653,
        654,
        653,
        654,
        653,
        654,
        653,
        646,
        645,
        646,
        645,
        646,
        645,
        646,
        645,
        646,
        645,
        662,
        661,
        662,
        661,
        662,
        661,
        662,
        661,
        662,
        661,
        662,
        661,
        662,
        661,
        662,
        661,
        662,
        661,
        662,
        661,
        646,
        645,
        646,
        645,
        646,
        645,
        654,
        653,
        654,
        653,
        654,
        653,
        654,
        653,
        654,
        653,
        670,
        669,
        670,
        669,
        670,
        669,
        670,
        669,
        670,
        669,
        670,
        669,
        670,
        669,
        670,
        669,
        670,
        669,
        670,
        669,
        654,
        653,
        654,
        653,
        654,
        653,
        646,
        645,
        646,
        645,
        646,
        645,
        646,
        645,
        646,
        647,
        678,
        677,
        678,
        677,
        678,
        677,
        678,
        677,
        678,
        677,
        678,
        677,
        678,
        677,
        678,
        677,
        678,
        677,
        678,
        677,
        660,
        661,
        646,
        645,
        646,
        645,
        654,
        653,
        654,
        653,
        654,
        653,
        654,
        653,
        654,
        655,
        0,
        0,
        0,
        0,
        0,
        0,
        0,
        727,
        0,
        0,
        0,
        0,
        0,
        0,
        0,
        0,
        0,
        0,
        0,
        0,
        668,
        669,
        654,
        653,
        654,
        653,
        646,
        645,
        646,
        645,
        646,
        645,
        646,
        645,
        646,
        647,
        0,
        0,
        0,
        0,
        0,
        0,
        0,
        735,
        0,
        0,
        0,
        0,
        0,
        0,
        0,
        0,
        0,
        0,
        0,
        0,
        676,
        677,
        644,
        645,
        646,
        645,
        654,
        653,
        654,
        653,
        654,
        653,
        654,
        653,
        654,
        655,
        0,
        745,
        0,
        0,
        0,
        0,
        0,
        743,
        0,
        0,
        0,
        0,
        0,
        0,
        0,
        0,
        0,
        0,
        0,
        0,
        0,
        0,
        652,
        653,
        654,
        653,
        646,
        645,
        646,
        645,
        646,
        645,
        646,
        645,
        646,
        647,
        0,
        753,
        0,
        0,
        0,
        0,
        0,
        751,
        0,
        0,
        0,
        0,
        0,
        0,
        0,
        0,
        0,
        0,
        0,
        0,
        0,
        0,
        660,
        661,
        662,
        661,
        654,
        653,
        654,
        653,
        654,
        653,
        654,
        653,
        654,
        655,
        0,
        761,
        929,
        930,
        929,
        930,
        929,
        767,
        929,
        930,
        929,
        930,
        929,
        930,
        0,
        0,
        0,
        0,
        0,
        0,
        0,
        0,
        668,
        669,
        670,
        669,
        646,
        645,
        646,
        645,
        646,
        645,
        646,
        645,
        646,
        647,
        0,
        0,
        937,
        938,
        937,
        938,
        937,
        938,
        937,
        938,
        937,
        938,
        937,
        938,
        937,
        938,
        0,
        0,
        0,
        0,
        0,
        0,
        676,
        677,
        678,
        679,
        654,
        653,
        654,
        653,
        654,
        653,
        654,
        653,
        654,
        655,
        0,
        0,
        945,
        946,
        945,
        946,
        945,
        946,
        945,
        946,
        945,
        946,
        945,
        946,
        945,
        946,
        0,
        0,
        0,
        0,
        0,
        0,
        0,
        82,
        68,
        68,
        646,
        645,
        646,
        645,
        646,
        645,
        646,
        645,
        646,
        647,
        0,
        0,
        953,
        954,
        953,
        954,
        953,
        954,
        953,
        954,
        953,
        954,
        953,
        874,
        937,
        938,
        0,
        0,
        0,
        0,
        0,
        0,
        0,
        64,
        48,
        48,
        654,
        653,
        654,
        653,
        654,
        653,
        654,
        653,
        654,
        655,
        0,
        0,
        0,
        0,
        0,
        0,
        0,
        0,
        0,
        0,
        0,
        0,
        0,
        0,
        945,
        946,
        0,
        0,
        0,
        0,
        0,
        0,
        0,
        88,
        76,
        76,
        646,
        645,
        646,
        645,
        646,
        645,
        646,
        645,
        646,
        647,
        0,
        0,
        0,
        0,
        0,
        0,
        0,
        0,
        0,
        0,
        0,
        0,
        0,
        0,
        937,
        938,
        0,
        0,
        0,
        0,
        0,
        0,
        0,
        0,
        0,
        0,
        654,
        653,
        654,
        653,
        654,
        653,
        654,
        653,
        654,
        655,
        0,
        0,
        0,
        0,
        0,
        0,
        0,
        0,
        0,
        0,
        0,
        0,
        0,
        0,
        945,
        946,
        0,
        0,
        0,
        0,
        0,
        0,
        652,
        0,
        0,
        0,
        646,
        645,
        646,
        645,
        646,
        645,
        646,
        645,
        646,
        647,
        0,
        0,
        0,
        0,
        0,
        0,
        0,
        0,
        0,
        0,
        0,
        0,
        0,
        0,
        937,
        938,
        0,
        0,
        0,
        0,
        0,
        0,
        644,
        0,
        0,
        0,
        654,
        653,
        654,
        653,
        654,
        653,
        654,
        653,
        654,
        655,
        0,
        0,
        0,
        0,
        0,
        0,
        0,
        0,
        0,
        0,
        0,
        0,
        0,
        0,
        945,
        946,
        0,
        0,
        0,
        0,
        0,
        0,
        652,
        653,
        654,
        653,
        646,
        645,
        646,
        645,
        646,
        645,
        646,
        645,
        646,
        647,
        0,
        0,
        0,
        0,
        0,
        0,
        0,
        0,
        0,
        0,
        0,
        0,
        0,
        0,
        937,
        938,
        0,
        0,
        0,
        0,
        0,
        0,
        644,
        645,
        646,
        645,
        654,
        653,
        654,
        653,
        654,
        653,
        654,
        653,
        654,
        655,
        0,
        0,
        0,
        0,
        0,
        0,
        0,
        0,
        0,
        0,
        0,
        0,
        1021,
        0,
        945,
        946,
        0,
        0,
        0,
        0,
        0,
        0,
        652,
        653,
        654,
        653,
        646,
        645,
        646,
        645,
        646,
        645,
        646,
        645,
        646,
        647,
        0,
        0,
        0,
        0,
        0,
        0,
        0,
        0,
        0,
        0,
        0,
        0,
        1029,
        0,
        937,
        938,
        0,
        0,
        0,
        0,
        0,
        0,
        644,
        645,
        646,
        645,
        654,
        653,
        654,
        653,
        654,
        653,
        654,
        653,
        654,
        655,
        0,
        0,
        0,
        0,
        0,
        0,
        0,
        0,
        0,
        0,
        0,
        0,
        1037,
        0,
        945,
        946,
        0,
        0,
        0,
        0,
        0,
        0,
        652,
        653,
        654,
        653,
        646,
        645,
        646,
        645,
        646,
        645,
        646,
        645,
        646,
        647,
        0,
        0,
        0,
        0,
        0,
        0,
        0,
        0,
        0,
        0,
        0,
        0,
        1045,
        0,
        937,
        938,
        0,
        0,
        0,
        0,
        0,
        0,
        644,
        645,
        646,
        645,
        654,
        653,
        654,
        653,
        654,
        653,
        654,
        653,
        654,
        655,
        0,
        0,
        960,
        848,
        849,
        848,
        849,
        848,
        849,
        848,
        849,
        848,
        849,
        0,
        945,
        946,
        0,
        0,
        0,
        0,
        0,
        0,
        652,
        653,
        654,
        653,
        646,
        645,
        646,
        645,
        646,
        645,
        646,
        645,
        646,
        647,
        0,
        0,
        968,
        856,
        857,
        856,
        857,
        856,
        857,
        856,
        857,
        856,
        857,
        0,
        937,
        938,
        0,
        0,
        0,
        0,
        0,
        0,
        644,
        645,
        646,
        645,
        654,
        653,
        654,
        653,
        654,
        653,
        654,
        653,
        654,
        655,
        0,
        0,
        976,
        864,
        865,
        864,
        865,
        864,
        865,
        864,
        865,
        864,
        865,
        0,
        945,
        946,
        0,
        1012,
        0,
        0,
        0,
        0,
        652,
        653,
        654,
        653,
        646,
        645,
        646,
        645,
        646,
        645,
        646,
        645,
        646,
        647,
        0,
        0,
        984,
        872,
        873,
        872,
        873,
        872,
        873,
        872,
        873,
        872,
        873,
        874,
        937,
        938,
        939,
        1008,
        0,
        0,
        0,
        0,
        644,
        645,
        646,
        645,
        654,
        653,
        654,
        653,
        654,
        653,
        654,
        653,
        654,
        655,
        0,
        0,
        1024,
        1001,
        1001,
        1001,
        1001,
        1001,
        1001,
        1001,
        1001,
        1001,
        1002,
        944,
        945,
        946,
        947,
        1008,
        0,
        0,
        0,
        0,
        652,
        653,
        654,
        653,
        646,
        645,
        646,
        645,
        646,
        645,
        646,
        645,
        646,
        647,
        630,
        631,
        0,
        0,
        0,
        0,
        0,
        0,
        0,
        0,
        0,
        0,
        1010,
        936,
        937,
        938,
        939,
        1008,
        0,
        0,
        0,
        0,
        644,
        645,
        646,
        645,
        654,
        653,
        654,
        653,
        654,
        653,
        654,
        653,
        654,
        655,
        638,
        639,
        0,
        0,
        0,
        0,
        0,
        0,
        0,
        0,
        0,
        0,
        1010,
        944,
        945,
        946,
        947,
        1020,
        0,
        0,
        0,
        0,
        652,
        653,
        654,
        653,
        646,
        645,
        646,
        645,
        646,
        645,
        646,
        645,
        646,
        645,
        646,
        647,
        630,
        631,
        630,
        631,
        630,
        631,
        630,
        631,
        630,
        631,
        1027,
        936,
        937,
        938,
        939,
        1028,
        630,
        631,
        630,
        631,
        644,
        645,
        646,
        645,
        654,
        653,
        654,
        653,
        654,
        653,
        654,
        653,
        654,
        653,
        654,
        653,
        638,
        639,
        638,
        639,
        638,
        639,
        638,
        639,
        638,
        639,
        0,
        944,
        945,
        946,
        947,
        0,
        638,
        639,
        638,
        637,
        654,
        653,
        654,
        653,
        646,
        645,
        646,
        645,
        646,
        645,
        646,
        645,
        646,
        645,
        646,
        645,
        646,
        645,
        646,
        645,
        646,
        645,
        646,
        645,
        646,
        647,
        0,
        952,
        953,
        954,
        955,
        0,
        644,
        645,
        646,
        645,
        646,
        645,
        646,
        645,
        654,
        653,
        654,
        653,
        654,
        653,
        654,
        653,
        654,
        653,
        654,
        653,
        654,
        653,
        654,
        653,
        654,
        653,
        654,
        653,
        654,
        655,
        0,
        0,
        0,
        0,
        0,
        0,
        652,
        653,
        654,
        653,
        654,
        653
      ]
    },
    {
      "id": 3,
      "name": "Overhead",
      "type": "tilelayer",
      "width": 36,
      "height": 39,
      "visible": true,
      "data": [
        654,
        653,
        0,
        0,
        0,
        0,
        0,
        0,
        0,
        0,
        0,
        0,
        0,
        0,
        0,
        0,
        0,
        0,
        0,
        0,
        0,
        0,
        0,
        0,
        0,
        0,
        0,
        0,
        0,
        0,
        0,
        0,
        0,
        0,
        0,
        0,
        0,
        0,
        0,
        0,
        0,
        0,
        0,
        0,
        0,
        0,
        0,
        0,
        0,
        0,
        0,
        0,
        0,
        0,
        0,
        0,
        0,
        0,
        0,
        0,
        0,
        0,
        0,
        0,
        0,
        0,
        0,
        0,
        0,
        0,
        0,
        0,
        0,
        0,
        0,
        0,
        0,
        0,
        0,
        0,
        0,
        0,
        0,
        0,
        0,
        0,
        0,
        0,
        0,
        0,
        0,
        0,
        0,
        0,
        0,
        0,
        0,
        0,
        0,
        0,
        0,
        0,
        0,
        0,
        0,
        0,
        0,
        0,
        0,
        0,
        0,
        0,
        0,
        0,
        0,
        0,
        0,
        0,
        0,
        0,
        0,
        0,
        0,
        0,
        0,
        0,
        0,
        0,
        0,
        0,
        0,
        0,
        0,
        0,
        0,
        0,
        0,
        0,
        0,
        0,
        0,
        0,
        0,
        0,
        0,
        0,
        0,
        0,
        0,
        0,
        0,
        0,
        0,
        0,
        0,
        0,
        0,
        0,
        682,
        683,
        684,
        0,
        0,
        0,
        0,
        0,
        0,
        0,
        0,
        0,
        0,
        0,
        0,
        0,
        0,
        0,
        0,
        0,
        0,
        0,
        0,
        0,
        0,
        0,
        0,
        0,
        0,
        0,
        0,
        0,
        0,
        0,
        688,
        689,
        690,
        691,
        692,
        693,
        694,
        695,
        0,
        0,
        0,
        0,
        0,
        0,
        0,
        0,
        0,
        0,
        0,
        0,
        0,
        0,
        0,
        0,
        0,
        0,
        0,
        0,
        0,
        0,
        0,
        0,
        0,
        0,
        0,
        0,
        696,
        697,
        698,
        699,
        700,
        701,
        702,
        703,
        0,
        0,
        0,
        0,
        0,
        0,
        0,
        0,
        0,
        0,
        0,
        0,
        0,
        0,
        0,
        0,
        0,
        0,
        0,
        0,
        0,
        0,
        0,
        0,
        0,
        0,
        0,
        0,
        704,
        705,
        706,
        707,
        708,
        709,
        710,
        1048,
        1049,
        1050,
        1051,
        1052,
        1048,
        1049,
        1050,
        1051,
        1052,
        0,
        0,
        0,
        0,
        0,
        0,
        0,
        0,
        0,
        0,
        0,
        0,
        0,
        0,
        0,
        0,
        0,
        0,
        0,
        712,
        713,
        714,
        715,
        716,
        717,
        718,
        1056,
        1057,
        1058,
        1059,
        1060,
        1056,
        1057,
        1058,
        1059,
        1060,
        0,
        0,
        0,
        0,
        0,
        0,
        0,
        0,
        0,
        0,
        0,
        0,
        0,
        0,
        0,
        0,
        0,
        0,
        0,
        720,
        721,
        722,
        723,
        724,
        725,
        726,
        1064,
        1065,
        1066,
        1067,
        1068,
        1064,
        1065,
        1066,
        1067,
        1068,
        0,
        0,
        0,
        0,
        0,
        0,
        0,
        0,
        0,
        0,
        0,
        0,
        0,
        0,
        0,
        0,
        0,
        0,
        0,
        728,
        729,
        730,
        731,
        732,
        733,
        734,
        1072,
        1073,
        1074,
        1075,
        1076,
        1072,
        1073,
        1074,
        1075,
        1076,
        0,
        0,
        0,
        0,
        0,
        0,
        0,
        0,
        0,
        0,
        0,
        0,
        0,
        0,
        0,
        0,
        0,
        0,
        0,
        736,
        737,
        738,
        739,
        740,
        741,
        742,
        1080,
        1081,
        1082,
        1083,
        1084,
        1080,
        1081,
        1082,
        1083,
        1084,
        0,
        0,
        0,
        0,
        0,
        0,
        0,
        0,
        0,
        0,
        0,
        0,
        0,
        0,
        0,
        0,
        0,
        0,
        0,
        744,
        999,
        746,
        747,
        748,
        749,
        750,
        1088,
        1089,
        1090,
        1091,
        1092,
        1088,
        1089,
        1090,
        1091,
        1092,
        0,
        0,
        0,
        0,
        0,
        0,
        0,
        0,
        0,
        0,
        0,
        0,
        0,
        0,
        0,
        0,
        0,
        0,
        0,
        752,
        1007,
        754,
        755,
        756,
        757,
        758,
        1096,
        1097,
        1098,
        1099,
        1100,
        1096,
        1097,
        1098,
        1099,
        1100,
        0,
        0,
        0,
        1363,
        1364,
        0,
        0,
        0,
        0,
        0,
        0,
        0,
        0,
        0,
        0,
        0,
        0,
        0,
        0,
        760,
        1015,
        762,
        763,
        764,
        765,
        766,
        1104,
        1105,
        1106,
        1107,
        1108,
        1104,
        1105,
        1106,
        1107,
        1108,
        0,
        0,
        0,
        1371,
        0,
        0,
        0,
        0,
        0,
        0,
        0,
        0,
        0,
        0,
        0,
        0,
        0,
        0,
        0,
        0,
        0,
        0,
        0,
        0,
        0,
        0,
        0,
        0,
        0,
        0,
        0,
        1021,
        0,
        0,
        0,
        0,
        1021,
        0,
        0,
        0,
        0,
        0,
        0,
        0,
        0,
        0,
        0,
        0,
        0,
        0,
        0,
        0,
        0,
        0,
        0,
        0,
        0,
        0,
        0,
        0,
        0,
        0,
        0,
        0,
        0,
        0,
        0,
        1029,
        0,
        0,
        0,
        0,
        1029,
        0,
        0,
        0,
        0,
        0,
        0,
        0,
        0,
        0,
        0,
        0,
        0,
        0,
        0,
        0,
        0,
        0,
        0,
        0,
        992,
        993,
        993,
        993,
        993,
        993,
        993,
        993,
        993,
        993,
        994,
        1037,
        0,
        0,
        0,
        0,
        1037,
        0,
        0,
        0,
        0,
        628,
        629,
        630,
        629,
        0,
        0,
        0,
        0,
        0,
        0,
        0,
        0,
        0,
        0,
        0,
        1024,
        1001,
        1001,
        1001,
        1001,
        1001,
        1001,
        1001,
        1001,
        1001,
        1026,
        1045,
        0,
        0,
        0,
        0,
        1045,
        0,
        0,
        0,
        0,
        636,
        637,
        638,
        637,
        0,
        0,
        0,
        0,
        0,
        0,
        0,
        0,
        0,
        0,
        0,
        0,
        0,
        0,
        0,
        0,
        1114,
        1115,
        1116,
        0,
        0,
        0,
        0,
        0,
        0,
        0,
        0,
        0,
        0,
        0,
        0,
        0,
        644,
        645,
        646,
        645,
        0,
        0,
        0,
        0,
        0,
        0,
        0,
        0,
        0,
        0,
        0,
        973,
        974,
        975,
        1120,
        1121,
        1122,
        1123,
        1124,
        1125,
        1126,
        0,
        0,
        0,
        0,
        0,
        0,
        0,
        0,
        0,
        0,
        0,
        0,
        653,
        654,
        653,
        0,
        0,
        0,
        0,
        0,
        0,
        0,
        0,
        0,
        0,
        0,
        981,
        982,
        983,
        1128,
        1129,
        1130,
        1131,
        1132,
        1133,
        1134,
        0,
        0,
        0,
        0,
        0,
        0,
        0,
        0,
        0,
        0,
        0,
        0,
        645,
        646,
        645,
        0,
        0,
        0,
        0,
        0,
        0,
        0,
        0,
        0,
        0,
        0,
        989,
        990,
        991,
        1136,
        1137,
        1138,
        1139,
        1140,
        1141,
        1142,
        0,
        0,
        0,
        0,
        0,
        0,
        0,
        0,
        0,
        0,
        0,
        0,
        0,
        0,
        0,
        0,
        0,
        0,
        0,
        0,
        0,
        0,
        0,
        0,
        0,
        0,
        0,
        0,
        0,
        1144,
        1145,
        1146,
        1147,
        1148,
        1149,
        1150,
        0,
        0,
        0,
        0,
        0,
        0,
        0,
        0,
        0,
        0,
        0,
        0,
        0,
        0,
        0,
        0,
        0,
        0,
        0,
        0,
        0,
        0,
        0,
        0,
        0,
        0,
        0,
        1021,
        0,
        1152,
        1153,
        1154,
        1155,
        1156,
        1157,
        1158,
        0,
        0,
        0,
        0,
        0,
        0,
        1021,
        0,
        0,
        0,
        0,
        0,
        0,
        0,
        0,
        0,
        0,
        0,
        0,
        0,
        0,
        0,
        0,
        0,
        0,
        0,
        0,
        1029,
        0,
        1160,
        1161,
        1162,
        1163,
        1164,
        1165,
        1166,
        0,
        0,
        0,
        0,
        0,
        0,
        1029,
        0,
        0,
        0,
        0,
        0,
        0,
        0,
        0,
        0,
        0,
        0,
        0,
        0,
        0,
        0,
        0,
        0,
        0,
        0,
        0,
        1037,
        0,
        1168,
        1169,
        1170,
        1171,
        1172,
        1173,
        1174,
        0,
        0,
        0,
        0,
        0,
        0,
        1037,
        0,
        0,
        0,
        0,
        0,
        0,
        0,
        0,
        0,
        0,
        0,
        0,
        0,
        0,
        0,
        0,
        0,
        0,
        0,
        0,
        1045,
        0,
        1176,
        1177,
        1178,
        1179,
        1180,
        1181,
        1182,
        0,
        0,
        0,
        0,
        0,
        0,
        1045,
        0,
        0,
        0,
        0,
        0,
        0,
        0,
        0,
        0,
        0,
        0,
        0,
        0,
        0,
        0,
        0,
        0,
        0,
        0,
        0,
        0,
        0,
        0,
        1185,
        1186,
        1187,
        1188,
        1189,
        0,
        0,
        0,
        0,
        0,
        0,
        0,
        0,
        0,
        0,
        0,
        0,
        0,
        0,
        0,
        0,
        0,
        0,
        0,
        0,
        0,
        0,
        0,
        0,
        0,
        0,
        0,
        0,
        0,
        0,
        0,
        0,
        0,
        0,
        0,
        0,
        0,
        0,
        0,
        0,
        0,
        0,
        0,
        0,
        0,
        0,
        0,
        0,
        0,
        0,
        0,
        0,
        0,
        0,
        0,
        0,
        0,
        0,
        0,
        0,
        0,
        0,
        0,
        0,
        0,
        0,
        0,
        0,
        0,
        0,
        0,
        0,
        0,
        0,
        0,
        0,
        0,
        0,
        0,
        0,
        0,
        0,
        0,
        0,
        0,
        0,
        0,
        0,
        0,
        0,
        0,
        0,
        0,
        0,
        0,
        0,
        0,
        0,
        0,
        0,
        992,
        993,
        993,
        993,
        993,
        993,
        993,
        993,
        993,
        993,
        994,
        0,
        0,
        0,
        0,
        0,
        0,
        0,
        0,
        0,
        0,
        0,
        0,
        0,
        0,
        0,
        0,
        0,
        0,
        0,
        0,
        0,
        0,
        0,
        0,
        0,
        0,
        0,
        0,
        0,
        0,
        0,
        0,
        0,
        0,
        0,
        0,
        0,
        0,
        0,
        0,
        0,
        0,
        0,
        0,
        0,
        0,
        0,
        0,
        0,
        0,
        0,
        0,
        0,
        0,
        0,
        0,
        0,
        0,
        0,
        0,
        0,
        0,
        0,
        0,
        0,
        0,
        0,
        0,
        0,
        0,
        0,
        1021,
        0,
        0,
        0,
        0,
        1021,
        0,
        0,
        0,
        0,
        0,
        0,
        0,
        0,
        0,
        0,
        0,
        0,
        0,
        0,
        0,
        0,
        0,
        0,
        0,
        0,
        0,
        0,
        0,
        0,
        0,
        0,
        0,
        0,
        0,
        0,
        1029,
        0,
        0,
        0,
        0,
        1029,
        0,
        0,
        0,
        0,
        0,
        0,
        0,
        0,
        0,
        0,
        0,
        0,
        0,
        0,
        0,
        0,
        0,
        0,
        0,
        0,
        0,
        0,
        0,
        0,
        0,
        0,
        0,
        0,
        0,
        0,
        1037,
        0,
        0,
        0,
        0,
        1037,
        0,
        0,
        0,
        0,
        0,
        0,
        0,
        0,
        0,
        0,
        0,
        0,
        0,
        0,
        0,
        0,
        0,
        0,
        0,
        0,
        0,
        0,
        0,
        0,
        0,
        0,
        0,
        0,
        0,
        0,
        1045,
        0,
        0,
        0,
        0,
        1045,
        0,
        0,
        0,
        0,
        0,
        0,
        0,
        0,
        0,
        0,
        0,
        0,
        0,
        0,
        0,
        0,
        0,
        0,
        0,
        0,
        0,
        0,
        0,
        0,
        0,
        0,
        0,
        0,
        0,
        0,
        0,
        0,
        0,
        0,
        0,
        0,
        0,
        0,
        0,
        0,
        0,
        0,
        0,
        0,
        0,
        0,
        0,
        0,
        0,
        0,
        0,
        0,
        0,
        0,
        0,
        0,
        0,
        0,
        0,
        0,
        0,
        0,
        0,
        0,
        0,
        0,
        0,
        0,
        0,
        0,
        0,
        0,
        0,
        0,
        0,
        0,
        0,
        0
      ]
    },
    {
      "id": 4,
      "name": "Objects",
      "type": "objectgroup",
      "objects": []
    }
  ],
  "tilesets": [
    {
      "firstgid": 384,
      "name": "outdoor",
      "image": "assets/tilesets/Outdoor.png",
      "imagewidth": 256,
      "imageheight": 22080,
      "tilewidth": 16,
      "tileheight": 16,
      "columns": 16,
      "tilecount": 22080
    }
  ],
  "properties": [
    {
      "name": "mapId",
      "type": "string",
      "value": "map-4"
    },
    {
      "name": "name",
      "type": "string",
      "value": "Map 4"
    },
    {
      "name": "mapType",
      "type": "string",
      "value": "route"
    }
  ]
}