{
  "version": "1.10",
  "tiledversion": "1.10.2",
  "type": "map",
  "orientation": "orthogonal",
  "renderorder": "right-down",
  "infinite": false,
  "width": 39,
  "height": 55,
  "tilewidth": 16,
  "tileheight": 16,
  "layers": [
    {
      "id": 1,
      "name": "Ground",
      "type": "tilelayer",
      "width": 39,
      "height": 55,
      "visible": true,
      "data": [
        6435,
        0,
        392,
        393,
        392,
        393,
        392,
        393,
        392,
        393,
        392,
        393,
        392,
        393,
        392,
        393,
        392,
        393,
        392,
        393,
        392,
        393,
        392,
        393,
        392,
        393,
        392,
        393,
        392,
        393,
        392,
        393,
        392,
        393,
        392,
        393,
        392,
        393,
        392,
        393,
        392,
        384,
        385,
        384,
        385,
        384,
        385,
        384,
        385,
        384,
        385,
        384,
        385,
        384,
        385,
        384,
        385,
        384,
        385,
        384,
        385,
        384,
        385,
        384,
        385,
        384,
        385,
        384,
        385,
        384,
        385,
        384,
        385,
        384,
        385,
        384,
        385,
        384,
        385,
        384,
        392,
        393,
        392,
        393,
        392,
        393,
        392,
        393,
        392,
        393,
        392,
        393,
        392,
        393,
        392,
        393,
        392,
        393,
        392,
        393,
        392,
        393,
        392,
        393,
        392,
        393,
        392,
        393,
        392,
        393,
        392,
        393,
        392,
        393,
        392,
        393,
        392,
        393,
        392,
        384,
        385,
        384,
        385,
        384,
        385,
        384,
        385,
        384,
        385,
        384,
        385,
        384,
        385,
        384,
        385,
        384,
        385,
        384,
        385,
        384,
        385,
        384,
        385,
        384,
        385,
        384,
        385,
        384,
        385,
        384,
        385,
        384,
        385,
        384,
        385,
        384,
        385,
        384,
        392,
        393,
        392,
        393,
        392,
        393,
        392,
        393,
        392,
        393,
        392,
        393,
        392,
        393,
        392,
        393,
        392,
        393,
        392,
        393,
        392,
        393,
        392,
        393,
        392,
        393,
        392,
        393,
        392,
        393,
        392,
        393,
        392,
        393,
        392,
        393,
        392,
        393,
        392,
        384,
        385,
        384,
        385,
        384,
        385,
        384,
        385,
        384,
        385,
        384,
        385,
        384,
        385,
        384,
        385,
        384,
        385,
        384,
        385,
        384,
        385,
        384,
        385,
        384,
        385,
        384,
        385,
        384,
        385,
        384,
        385,
        384,
        385,
        384,
        385,
        384,
        385,
        384,
        392,
        393,
        392,
        393,
        392,
        393,
        392,
        393,
        392,
        393,
        392,
        393,
        392,
        393,
        392,
        393,
        392,
        393,
        392,
        393,
        392,
        393,
        392,
        393,
        392,
        393,
        392,
        393,
        392,
        393,
        392,
        393,
        392,
        393,
        392,
        393,
        392,
        393,
        392,
        384,
        385,
        384,
        385,
        384,
        385,
        384,
        385,
        384,
        385,
        384,
        385,
        384,
        385,
        384,
        385,
        384,
        385,
        384,
        385,
        384,
        385,
        384,
        385,
        384,
        385,
        384,
        385,
        384,
        385,
        384,
        385,
        384,
        385,
        384,
        385,
        384,
        385,
        384,
        392,
        393,
        392,
        393,
        392,
        393,
        392,
        393,
        392,
        393,
        392,
        393,
        392,
        393,
        392,
        393,
        392,
        393,
        392,
        393,
        392,
        393,
        392,
        393,
        392,
        393,
        392,
        393,
        392,
        393,
        392,
        393,
        392,
        393,
        392,
        393,
        392,
        393,
        392,
        384,
        385,
        384,
        385,
        384,
        385,
        384,
        385,
        384,
        385,
        384,
        385,
        384,
        385,
        384,
        385,
        384,
        385,
        384,
        385,
        384,
        385,
        384,
        385,
        384,
        385,
        384,
        385,
        384,
        385,
        384,
        385,
        384,
        385,
        384,
        385,
        384,
        385,
        384,
        392,
        384,
        385,
        386,
        387,
        384,
        385,
        386,
        387,
        384,
        385,
        386,
        387,
        384,
        385,
        386,
        387,
        384,
        385,
        386,
        387,
        384,
        385,
        386,
        387,
        384,
        385,
        386,
        387,
        384,
        385,
        386,
        392,
        393,
        392,
        393,
        392,
        393,
        392,
        384,
        392,
        393,
        394,
        395,
        392,
        393,
        394,
        395,
        392,
        393,
        394,
        395,
        392,
        393,
        394,
        395,
        392,
        393,
        394,
        395,
        392,
        393,
        394,
        395,
        392,
        393,
        394,
        395,
        392,
        393,
        394,
        384,
        385,
        384,
        385,
        384,
        385,
        384,
        392,
        400,
        401,
        402,
        403,
        400,
        401,
        402,
        403,
        400,
        401,
        402,
        403,
        400,
        401,
        402,
        403,
        400,
        401,
        402,
        403,
        400,
        401,
        402,
        403,
        400,
        401,
        402,
        403,
        400,
        401,
        402,
        392,
        393,
        392,
        393,
        392,
        393,
        392,
        384,
        408,
        409,
        410,
        411,
        408,
        409,
        410,
        411,
        408,
        409,
        410,
        411,
        408,
        409,
        410,
        411,
        408,
        409,
        410,
        411,
        408,
        409,
        410,
        411,
        408,
        409,
        410,
        411,
        408,
        409,
        410,
        384,
        385,
        384,
        385,
        384,
        385,
        384,
        392,
        384,
        385,
        386,
        387,
        384,
        385,
        386,
        387,
        384,
        385,
        386,
        387,
        384,
        385,
        386,
        387,
        384,
        385,
        386,
        387,
        384,
        385,
        386,
        387,
        384,
        385,
        386,
        387,
        384,
        385,
        386,
        392,
        393,
        392,
        393,
        392,
        393,
        392,
        384,
        392,
        393,
        394,
        395,
        392,
        393,
        394,
        395,
        392,
        393,
        394,
        395,
        392,
        393,
        394,
        395,
        392,
        393,
        394,
        395,
        392,
        393,
        394,
        395,
        392,
        393,
        394,
        395,
        392,
        393,
        394,
        384,
        385,
        384,
        385,
        384,
        385,
        384,
        392,
        400,
        401,
        402,
        403,
        400,
        401,
        402,
        403,
        400,
        401,
        402,
        403,
        400,
        401,
        402,
        403,
        400,
        401,
        402,
        403,
        400,
        401,
        402,
        403,
        400,
        401,
        402,
        403,
        400,
        401,
        402,
        392,
        393,
        392,
        393,
        392,
        393,
        392,
        384,
        408,
        409,
        410,
        411,
        408,
        409,
        410,
        411,
        408,
        409,
        410,
        411,
        408,
        409,
        410,
        411,
        408,
        409,
        410,
        411,
        408,
        409,
        410,
        411,
        408,
        409,
        410,
        411,
        408,
        409,
        410,
        384,
        385,
        384,
        385,
        384,
        385,
        384,
        392,
        384,
        385,
        386,
        387,
        384,
        385,
        386,
        387,
        384,
        385,
        386,
        387,
        384,
        385,
        386,
        387,
        384,
        385,
        386,
        387,
        384,
        385,
        386,
        387,
        384,
        385,
        386,
        387,
        384,
        385,
        386,
        392,
        393,
        392,
        393,
        392,
        393,
        392,
        384,
        392,
        393,
        394,
        395,
        392,
        393,
        394,
        395,
        392,
        393,
        394,
        395,
        392,
        393,
        394,
        395,
        392,
        393,
        394,
        395,
        392,
        393,
        394,
        395,
        392,
        393,
        394,
        395,
        392,
        393,
        394,
        384,
        385,
        384,
        385,
        384,
        385,
        384,
        392,
        400,
        401,
        402,
        403,
        400,
        401,
        402,
        403,
        400,
        401,
        402,
        403,
        400,
        401,
        402,
        403,
        400,
        401,
        402,
        403,
        400,
        401,
        402,
        403,
        400,
        401,
        402,
        403,
        400,
        401,
        402,
        392,
        393,
        392,
        393,
        392,
        393,
        392,
        384,
        408,
        409,
        410,
        411,
        408,
        409,
        410,
        411,
        408,
        409,
        410,
        411,
        408,
        409,
        410,
        411,
        408,
        409,
        410,
        411,
        408,
        409,
        410,
        411,
        408,
        409,
        410,
        411,
        408,
        409,
        410,
        384,
        385,
        384,
        385,
        384,
        385,
        384,
        392,
        384,
        385,
        386,
        387,
        384,
        385,
        386,
        387,
        384,
        385,
        386,
        387,
        384,
        385,
        386,
        387,
        384,
        385,
        386,
        387,
        384,
        385,
        386,
        387,
        384,
        385,
        386,
        387,
        384,
        385,
        386,
        392,
        393,
        392,
        393,
        392,
        393,
        392,
        384,
        392,
        393,
        394,
        395,
        392,
        393,
        394,
        395,
        392,
        393,
        394,
        395,
        392,
        393,
        394,
        395,
        392,
        393,
        394,
        395,
        392,
        393,
        394,
        395,
        392,
        393,
        394,
        395,
        392,
        393,
        394,
        384,
        385,
        384,
        385,
        384,
        385,
        384,
        392,
        400,
        401,
        402,
        403,
        400,
        401,
        402,
        403,
        400,
        401,
        402,
        403,
        400,
        401,
        402,
        403,
        400,
        401,
        402,
        403,
        400,
        401,
        402,
        403,
        400,
        401,
        402,
        403,
        400,
        401,
        402,
        392,
        393,
        392,
        393,
        392,
        393,
        392,
        384,
        408,
        409,
        410,
        411,
        408,
        409,
        410,
        411,
        408,
        409,
        410,
        411,
        408,
        409,
        410,
        411,
        408,
        409,
        410,
        411,
        408,
        409,
        410,
        411,
        408,
        409,
        410,
        411,
        408,
        409,
        410,
        384,
        385,
        384,
        385,
        384,
        385,
        384,
        392,
        384,
        385,
        386,
        387,
        384,
        385,
        386,
        387,
        384,
        385,
        386,
        387,
        384,
        385,
        386,
        387,
        384,
        385,
        386,
        387,
        384,
        385,
        386,
        387,
        384,
        385,
        386,
        387,
        384,
        385,
        386,
        392,
        393,
        392,
        393,
        392,
        393,
        392,
        384,
        392,
        393,
        394,
        395,
        392,
        393,
        394,
        395,
        392,
        393,
        394,
        395,
        392,
        393,
        394,
        395,
        392,
        393,
        394,
        395,
        392,
        393,
        394,
        395,
        392,
        393,
        394,
        395,
        392,
        393,
        394,
        384,
        385,
        384,
        385,
        384,
        385,
        384,
        392,
        400,
        401,
        402,
        403,
        400,
        401,
        402,
        403,
        400,
        401,
        402,
        403,
        400,
        401,
        402,
        403,
        400,
        401,
        402,
        403,
        400,
        401,
        402,
        403,
        400,
        401,
        402,
        403,
        400,
        401,
        402,
        392,
        393,
        392,
        393,
        392,
        393,
        392,
        384,
        408,
        409,
        410,
        411,
        408,
        409,
        410,
        411,
        408,
        409,
        410,
        411,
        408,
        409,
        410,
        411,
        408,
        409,
        410,
        411,
        408,
        409,
        410,
        411,
        408,
        409,
        410,
        411,
        408,
        409,
        410,
        384,
        385,
        384,
        385,
        384,
        385,
        384,
        392,
        384,
        385,
        386,
        387,
        384,
        385,
        386,
        387,
        384,
        385,
        386,
        387,
        384,
        385,
        386,
        387,
        384,
        385,
        386,
        387,
        384,
        385,
        386,
        387,
        384,
        385,
        386,
        387,
        384,
        385,
        386,
        392,
        393,
        392,
        393,
        392,
        393,
        392,
        384,
        392,
        393,
        394,
        395,
        392,
        393,
        394,
        395,
        392,
        393,
        394,
        395,
        392,
        393,
        394,
        395,
        392,
        393,
        394,
        395,
        392,
        393,
        394,
        395,
        392,
        393,
        394,
        395,
        392,
        393,
        394,
        384,
        385,
        384,
        385,
        384,
        385,
        384,
        392,
        400,
        401,
        402,
        403,
        400,
        401,
        402,
        403,
        400,
        401,
        402,
        403,
        400,
        401,
        402,
        403,
        400,
        401,
        402,
        403,
        400,
        401,
        402,
        403,
        400,
        401,
        402,
        403,
        400,
        401,
        402,
        392,
        393,
        392,
        393,
        392,
        393,
        392,
        384,
        408,
        409,
        410,
        411,
        408,
        409,
        410,
        411,
        408,
        409,
        410,
        411,
        408,
        409,
        410,
        411,
        408,
        409,
        410,
        411,
        408,
        409,
        410,
        411,
        408,
        409,
        410,
        411,
        408,
        409,
        410,
        384,
        385,
        384,
        385,
        384,
        385,
        384,
        392,
        384,
        385,
        386,
        387,
        384,
        385,
        386,
        387,
        384,
        385,
        386,
        387,
        384,
        385,
        386,
        387,
        384,
        385,
        386,
        387,
        384,
        385,
        386,
        387,
        384,
        385,
        386,
        387,
        384,
        385,
        386,
        392,
        393,
        392,
        393,
        392,
        393,
        392,
        384,
        392,
        393,
        394,
        395,
        392,
        393,
        394,
        395,
        392,
        393,
        394,
        395,
        392,
        393,
        394,
        395,
        392,
        393,
        394,
        395,
        392,
        393,
        394,
        395,
        392,
        393,
        394,
        395,
        392,
        393,
        394,
        384,
        385,
        384,
        385,
        384,
        385,
        384,
        392,
        400,
        401,
        402,
        403,
        400,
        401,
        402,
        403,
        400,
        401,
        402,
        403,
        400,
        401,
        402,
        403,
        400,
        401,
        402,
        403,
        400,
        401,
        402,
        403,
        400,
        401,
        402,
        403,
        400,
        401,
        402,
        392,
        393,
        392,
        393,
        392,
        393,
        392,
        384,
        408,
        409,
        410,
        411,
        408,
        409,
        410,
        411,
        408,
        409,
        410,
        411,
        408,
        409,
        410,
        411,
        408,
        409,
        410,
        411,
        408,
        409,
        410,
        411,
        408,
        409,
        410,
        411,
        408,
        409,
        410,
        384,
        385,
        384,
        385,
        384,
        385,
        384,
        392,
        384,
        385,
        386,
        387,
        384,
        385,
        386,
        387,
        384,
        385,
        386,
        387,
        384,
        385,
        386,
        387,
        384,
        385,
        386,
        387,
        384,
        385,
        386,
        387,
        384,
        385,
        386,
        387,
        384,
        385,
        386,
        392,
        393,
        392,
        393,
        392,
        393,
        392,
        384,
        392,
        393,
        394,
        395,
        392,
        393,
        394,
        395,
        392,
        393,
        394,
        395,
        392,
        393,
        394,
        395,
        392,
        393,
        394,
        395,
        392,
        393,
        394,
        395,
        392,
        393,
        394,
        395,
        392,
        393,
        394,
        384,
        385,
        384,
        385,
        384,
        385,
        384,
        392,
        400,
        401,
        402,
        403,
        400,
        401,
        402,
        403,
        400,
        401,
        402,
        403,
        400,
        401,
        402,
        403,
        400,
        401,
        402,
        403,
        400,
        401,
        402,
        403,
        400,
        401,
        402,
        403,
        400,
        401,
        402,
        392,
        393,
        392,
        393,
        392,
        393,
        392,
        384,
        408,
        409,
        410,
        411,
        408,
        409,
        410,
        411,
        408,
        409,
        410,
        411,
        408,
        409,
        410,
        411,
        408,
        409,
        410,
        411,
        408,
        409,
        410,
        411,
        408,
        409,
        410,
        411,
        408,
        409,
        410,
        384,
        385,
        384,
        385,
        384,
        385,
        384,
        392,
        384,
        385,
        386,
        387,
        384,
        385,
        386,
        387,
        384,
        385,
        386,
        387,
        384,
        385,
        386,
        387,
        384,
        385,
        386,
        387,
        384,
        385,
        386,
        387,
        384,
        385,
        386,
        387,
        384,
        385,
        386,
        392,
        393,
        392,
        393,
        392,
        393,
        392,
        384,
        392,
        393,
        394,
        395,
        392,
        393,
        394,
        395,
        392,
        393,
        394,
        395,
        392,
        393,
        394,
        395,
        392,
        393,
        394,
        395,
        392,
        393,
        394,
        395,
        392,
        393,
        394,
        395,
        392,
        393,
        394,
        384,
        385,
        384,
        385,
        384,
        385,
        384,
        392,
        400,
        401,
        402,
        403,
        400,
        401,
        402,
        403,
        400,
        401,
        402,
        403,
        400,
        401,
        402,
        403,
        400,
        401,
        402,
        403,
        400,
        401,
        402,
        403,
        400,
        401,
        402,
        403,
        400,
        401,
        402,
        392,
        393,
        392,
        393,
        392,
        393,
        392,
        384,
        408,
        409,
        410,
        411,
        408,
        409,
        410,
        411,
        408,
        409,
        410,
        411,
        408,
        409,
        410,
        411,
        408,
        409,
        410,
        411,
        408,
        409,
        410,
        411,
        408,
        409,
        410,
        411,
        408,
        409,
        410,
        384,
        385,
        384,
        385,
        384,
        385,
        384,
        392,
        384,
        385,
        386,
        387,
        384,
        385,
        386,
        387,
        384,
        385,
        386,
        387,
        384,
        385,
        386,
        387,
        384,
        385,
        386,
        387,
        384,
        385,
        386,
        387,
        384,
        385,
        386,
        387,
        384,
        385,
        386,
        392,
        393,
        392,
        393,
        392,
        393,
        392,
        384,
        385,
        384,
        385,
        384,
        385,
        384,
        385,
        384,
        385,
        384,
        385,
        384,
        385,
        384,
        385,
        384,
        385,
        384,
        385,
        384,
        385,
        384,
        385,
        384,
        385,
        384,
        385,
        384,
        385,
        384,
        385,
        384,
        385,
        384,
        385,
        384,
        385,
        384,
        392,
        393,
        392,
        393,
        392,
        393,
        392,
        393,
        392,
        393,
        392,
        393,
        392,
        393,
        392,
        393,
        392,
        393,
        392,
        393,
        392,
        393,
        392,
        393,
        392,
        393,
        392,
        393,
        392,
        393,
        392,
        393,
        392,
        393,
        392,
        393,
        392,
        393,
        392,
        384,
        385,
        384,
        385,
        384,
        385,
        384,
        385,
        384,
        385,
        384,
        385,
        384,
        385,
        384,
        385,
        384,
        385,
        384,
        385,
        384,
        385,
        384,
        385,
        384,
        385,
        384,
        385,
        384,
        385,
        384,
        385,
        384,
        385,
        384,
        385,
        384,
        385,
        384,
        392,
        393,
        392,
        393,
        392,
        393,
        392,
        393,
        392,
        393,
        392,
        393,
        392,
        393,
        392,
        393,
        392,
        393,
        392,
        393,
        392,
        393,
        392,
        393,
        392,
        393,
        392,
        393,
        392,
        393,
        392,
        393,
        392,
        393,
        392,
        393,
        392,
        393,
        392,
        384,
        385,
        384,
        385,
        384,
        385,
        384,
        385,
        384,
        385,
        384,
        385,
        384,
        385,
        384,
        385,
        384,
        385,
        384,
        385,
        384,
        385,
        384,
        385,
        384,
        385,
        384,
        385,
        384,
        385,
        384,
        385,
        384,
        385,
        384,
        385,
        384,
        385,
        384,
        392,
        393,
        392,
        393,
        392,
        393,
        392,
        393,
        392,
        393,
        392,
        393,
        392,
        393,
        392,
        393,
        392,
        393,
        392,
        393,
        392,
        393,
        392,
        393,
        392,
        393,
        392,
        393,
        392,
        393,
        392,
        393,
        392,
        393,
        392,
        393,
        392,
        393,
        392,
        384,
        385,
        384,
        385,
        384,
        385,
        384,
        385,
        384,
        385,
        384,
        385,
        384,
        385,
        384,
        385,
        384,
        385,
        384,
        385,
        384,
        385,
        384,
        385,
        384,
        385,
        384,
        385,
        384,
        385,
        384,
        385,
        384,
        385,
        384,
        385,
        384,
        385,
        384,
        392,
        393,
        392,
        393,
        392,
        393,
        392,
        393,
        392,
        393,
        392,
        393,
        392,
        393,
        392,
        393,
        392,
        393,
        392,
        393,
        392,
        393,
        392,
        393,
        392,
        393,
        392,
        393,
        392,
        393,
        392,
        393,
        392,
        393,
        392,
        393,
        392
      ]
    },
    {
      "id": 2,
      "name": "Decoration",
      "type": "tilelayer",
      "width": 39,
      "height": 55,
      "visible": true,
      "data": [
        393,
        392,
        646,
        645,
        646,
        645,
        646,
        645,
        646,
        645,
        646,
        645,
        646,
        645,
        646,
        645,
        646,
        645,
        646,
        645,
        646,
        645,
        646,
        647,
        0,
        0,
        0,
        0,
        0,
        0,
        644,
        645,
        646,
        645,
        646,
        645,
        646,
        645,
        646,
        645,
        646,
        654,
        653,
        654,
        653,
        654,
        653,
        654,
        653,
        654,
        653,
        654,
        653,
        654,
        653,
        654,
        653,
        654,
        653,
        654,
        653,
        654,
        655,
        0,
        82,
        68,
        84,
        0,
        0,
        652,
        653,
        654,
        653,
        654,
        653,
        654,
        653,
        654,
        653,
        654,
        646,
        645,
        646,
        645,
        646,
        645,
        646,
        645,
        646,
        645,
        646,
        645,
        646,
        645,
        646,
        645,
        646,
        645,
        646,
        645,
        646,
        647,
        0,
        64,
        48,
        72,
        0,
        0,
        644,
        645,
        646,
        645,
        646,
        645,
        646,
        645,
        646,
        645,
        646,
        654,
        653,
        654,
        653,
        654,
        653,
        654,
        653,
        654,
        653,
        654,
        653,
        654,
        653,
        654,
        653,
        654,
        653,
        654,
        653,
        654,
        655,
        416,
        64,
        48,
        72,
        0,
        0,
        652,
        653,
        654,
        653,
        654,
        653,
        654,
        653,
        654,
        653,
        654,
        646,
        645,
        646,
        645,
        646,
        645,
        646,
        645,
        646,
        645,
        646,
        645,
        646,
        645,
        646,
        645,
        646,
        645,
        646,
        645,
        646,
        647,
        0,
        64,
        48,
        72,
        0,
        0,
        644,
        645,
        646,
        645,
        646,
        645,
        646,
        645,
        646,
        645,
        646,
        654,
        653,
        654,
        653,
        654,
        653,
        654,
        653,
        654,
        653,
        654,
        653,
        654,
        653,
        654,
        653,
        654,
        653,
        654,
        653,
        654,
        655,
        0,
        64,
        48,
        72,
        0,
        416,
        652,
        653,
        654,
        653,
        654,
        653,
        654,
        653,
        654,
        653,
        654,
        646,
        645,
        646,
        645,
        646,
        645,
        646,
        645,
        646,
        645,
        646,
        645,
        646,
        645,
        646,
        645,
        646,
        645,
        646,
        645,
        662,
        663,
        0,
        64,
        48,
        72,
        0,
        0,
        644,
        645,
        646,
        645,
        646,
        645,
        646,
        645,
        646,
        645,
        646,
        654,
        653,
        654,
        653,
        654,
        653,
        654,
        653,
        654,
        653,
        654,
        653,
        654,
        653,
        654,
        653,
        654,
        653,
        654,
        653,
        670,
        671,
        0,
        64,
        48,
        72,
        0,
        0,
        652,
        653,
        654,
        653,
        654,
        653,
        654,
        653,
        654,
        653,
        654,
        646,
        645,
        646,
        645,
        646,
        645,
        646,
        645,
        646,
        645,
        646,
        645,
        646,
        645,
        646,
        645,
        646,
        645,
        662,
        663,
        678,
        679,
        0,
        64,
        48,
        72,
        628,
        629,
        644,
        645,
        646,
        645,
        646,
        645,
        646,
        645,
        646,
        645,
        646,
        654,
        653,
        654,
        653,
        654,
        653,
        654,
        653,
        654,
        653,
        654,
        653,
        654,
        653,
        654,
        653,
        654,
        653,
        670,
        671,
        82,
        68,
        68,
        49,
        48,
        72,
        636,
        637,
        652,
        653,
        654,
        653,
        654,
        653,
        654,
        653,
        654,
        653,
        654,
        646,
        645,
        646,
        645,
        646,
        645,
        646,
        645,
        646,
        645,
        646,
        645,
        646,
        645,
        646,
        645,
        646,
        647,
        678,
        679,
        64,
        48,
        48,
        48,
        48,
        72,
        644,
        645,
        646,
        645,
        646,
        645,
        646,
        645,
        646,
        645,
        646,
        645,
        646,
        654,
        653,
        654,
        653,
        654,
        653,
        654,
        653,
        654,
        653,
        654,
        653,
        654,
        653,
        654,
        653,
        654,
        655,
        417,
        82,
        49,
        48,
        48,
        52,
        76,
        86,
        654,
        653,
        654,
        653,
        654,
        653,
        654,
        653,
        654,
        653,
        654,
        653,
        654,
        646,
        645,
        646,
        645,
        646,
        645,
        646,
        645,
        646,
        645,
        646,
        645,
        646,
        645,
        646,
        645,
        646,
        647,
        417,
        64,
        48,
        48,
        52,
        86,
        644,
        645,
        646,
        645,
        646,
        645,
        646,
        645,
        646,
        645,
        646,
        645,
        646,
        645,
        646,
        654,
        653,
        654,
        653,
        654,
        653,
        654,
        653,
        654,
        653,
        654,
        653,
        654,
        653,
        654,
        653,
        654,
        655,
        417,
        64,
        48,
        48,
        72,
        0,
        652,
        653,
        654,
        653,
        654,
        653,
        654,
        653,
        654,
        653,
        654,
        653,
        654,
        653,
        654,
        646,
        645,
        646,
        645,
        646,
        645,
        646,
        645,
        646,
        645,
        646,
        645,
        646,
        645,
        646,
        645,
        662,
        663,
        417,
        64,
        48,
        48,
        72,
        0,
        644,
        645,
        646,
        645,
        646,
        645,
        646,
        645,
        646,
        645,
        646,
        645,
        646,
        645,
        646,
        654,
        653,
        654,
        653,
        654,
        653,
        654,
        653,
        654,
        653,
        654,
        653,
        654,
        653,
        654,
        653,
        670,
        671,
        417,
        64,
        48,
        48,
        72,
        0,
        652,
        653,
        654,
        653,
        654,
        653,
        654,
        653,
        654,
        653,
        654,
        653,
        654,
        653,
        654,
        646,
        645,
        646,
        645,
        646,
        645,
        646,
        645,
        646,
        645,
        646,
        645,
        646,
        645,
        646,
        647,
        678,
        679,
        417,
        64,
        48,
        48,
        72,
        0,
        644,
        645,
        646,
        645,
        646,
        645,
        646,
        645,
        646,
        645,
        646,
        645,
        646,
        645,
        646,
        654,
        653,
        654,
        653,
        654,
        653,
        654,
        653,
        654,
        653,
        654,
        653,
        654,
        653,
        654,
        655,
        417,
        417,
        417,
        64,
        48,
        48,
        72,
        0,
        652,
        653,
        654,
        653,
        654,
        653,
        654,
        653,
        654,
        653,
        654,
        653,
        654,
        653,
        654,
        646,
        645,
        646,
        645,
        646,
        645,
        646,
        645,
        646,
        645,
        646,
        645,
        646,
        645,
        646,
        647,
        417,
        417,
        417,
        64,
        48,
        48,
        72,
        0,
        644,
        645,
        646,
        645,
        646,
        645,
        646,
        645,
        646,
        645,
        646,
        645,
        646,
        645,
        646,
        654,
        653,
        654,
        653,
        654,
        653,
        654,
        653,
        654,
        653,
        654,
        653,
        654,
        653,
        654,
        655,
        417,
        417,
        417,
        64,
        48,
        48,
        72,
        0,
        652,
        653,
        654,
        653,
        654,
        653,
        654,
        653,
        654,
        653,
        654,
        653,
        654,
        653,
        654,
        646,
        645,
        646,
        645,
        646,
        645,
        646,
        645,
        646,
        645,
        646,
        645,
        646,
        645,
        646,
        647,
        417,
        417,
        0,
        64,
        48,
        48,
        72,
        0,
        644,
        645,
        646,
        645,
        646,
        645,
        646,
        645,
        646,
        645,
        646,
        645,
        646,
        645,
        646,
        654,
        653,
        654,
        653,
        654,
        653,
        654,
        653,
        654,
        653,
        654,
        653,
        654,
        653,
        654,
        655,
        417,
        417,
        0,
        64,
        48,
        48,
        72,
        0,
        652,
        653,
        654,
        653,
        654,
        653,
        654,
        653,
        654,
        653,
        654,
        653,
        654,
        653,
        654,
        646,
        645,
        646,
        645,
        646,
        645,
        646,
        645,
        646,
        645,
        646,
        645,
        646,
        645,
        646,
        647,
        417,
        417,
        0,
        64,
        48,
        48,
        72,
        0,
        644,
        645,
        646,
        645,
        646,
        645,
        646,
        645,
        646,
        645,
        646,
        645,
        646,
        645,
        646,
        654,
        653,
        654,
        653,
        654,
        653,
        654,
        653,
        654,
        653,
        654,
        653,
        654,
        653,
        654,
        655,
        417,
        0,
        0,
        64,
        48,
        48,
        72,
        0,
        652,
        653,
        654,
        653,
        654,
        653,
        654,
        653,
        654,
        653,
        654,
        653,
        654,
        653,
        654,
        646,
        645,
        646,
        645,
        646,
        645,
        646,
        645,
        646,
        645,
        646,
        645,
        646,
        645,
        662,
        663,
        417,
        0,
        0,
        64,
        48,
        48,
        72,
        0,
        644,
        645,
        646,
        645,
        646,
        645,
        646,
        645,
        646,
        645,
        646,
        645,
        646,
        645,
        646,
        654,
        653,
        654,
        653,
        654,
        653,
        654,
        653,
        654,
        653,
        654,
        653,
        654,
        653,
        670,
        671,
        461,
        462,
        461,
        64,
        48,
        48,
        72,
        416,
        652,
        653,
        654,
        653,
        654,
        653,
        654,
        653,
        654,
        653,
        654,
        653,
        654,
        653,
        654,
        646,
        645,
        646,
        645,
        646,
        645,
        646,
        645,
        646,
        645,
        646,
        645,
        662,
        663,
        678,
        679,
        0,
        0,
        0,
        64,
        48,
        48,
        72,
        0,
        644,
        645,
        646,
        645,
        646,
        645,
        646,
        645,
        646,
        645,
        646,
        645,
        646,
        645,
        646,
        654,
        653,
        654,
        653,
        654,
        653,
        654,
        653,
        654,
        653,
        654,
        653,
        670,
        671,
        0,
        0,
        0,
        0,
        511,
        64,
        48,
        48,
        72,
        0,
        652,
        653,
        654,
        653,
        654,
        653,
        654,
        653,
        654,
        653,
        654,
        653,
        654,
        653,
        654,
        662,
        661,
        662,
        661,
        662,
        661,
        662,
        661,
        662,
        661,
        662,
        663,
        678,
        679,
        0,
        0,
        0,
        0,
        519,
        64,
        48,
        48,
        72,
        0,
        644,
        645,
        646,
        645,
        646,
        645,
        646,
        645,
        646,
        645,
        646,
        645,
        646,
        645,
        646,
        670,
        669,
        670,
        669,
        670,
        669,
        670,
        669,
        670,
        669,
        670,
        671,
        0,
        416,
        0,
        0,
        0,
        0,
        519,
        64,
        48,
        48,
        72,
        0,
        652,
        653,
        654,
        653,
        654,
        653,
        654,
        653,
        654,
        653,
        654,
        653,
        654,
        653,
        654,
        676,
        677,
        678,
        677,
        678,
        677,
        678,
        677,
        678,
        677,
        678,
        677,
        549,
        550,
        550,
        550,
        555,
        0,
        519,
        64,
        48,
        48,
        72,
        0,
        644,
        645,
        646,
        645,
        646,
        645,
        646,
        645,
        646,
        645,
        646,
        645,
        646,
        645,
        646,
        68,
        68,
        68,
        68,
        68,
        68,
        68,
        68,
        68,
        68,
        68,
        68,
        68,
        68,
        68,
        84,
        518,
        0,
        519,
        64,
        48,
        48,
        72,
        0,
        652,
        653,
        654,
        653,
        654,
        653,
        654,
        653,
        654,
        653,
        654,
        653,
        654,
        653,
        654,
        48,
        48,
        48,
        48,
        48,
        48,
        48,
        48,
        48,
        48,
        48,
        48,
        48,
        48,
        48,
        72,
        518,
        0,
        519,
        64,
        48,
        48,
        72,
        0,
        660,
        661,
        646,
        645,
        646,
        645,
        646,
        645,
        646,
        645,
        646,
        645,
        646,
        645,
        646,
        76,
        76,
        76,
        76,
        76,
        76,
        76,
        76,
        76,
        76,
        76,
        76,
        56,
        48,
        48,
        72,
        518,
        0,
        519,
        64,
        48,
        48,
        72,
        0,
        668,
        669,
        654,
        653,
        654,
        653,
        654,
        653,
        654,
        653,
        654,
        653,
        654,
        653,
        654,
        646,
        645,
        646,
        647,
        472,
        473,
        473,
        473,
        473,
        473,
        473,
        473,
        64,
        48,
        48,
        72,
        518,
        0,
        519,
        64,
        48,
        48,
        72,
        0,
        676,
        677,
        660,
        661,
        646,
        645,
        646,
        645,
        646,
        645,
        646,
        645,
        646,
        645,
        646,
        654,
        653,
        654,
        653,
        0,
        0,
        476,
        477,
        477,
        477,
        478,
        465,
        64,
        48,
        48,
        72,
        518,
        0,
        519,
        64,
        48,
        48,
        72,
        0,
        417,
        417,
        668,
        669,
        654,
        653,
        654,
        653,
        654,
        653,
        654,
        653,
        654,
        653,
        654,
        646,
        645,
        646,
        645,
        646,
        647,
        477,
        477,
        477,
        477,
        478,
        465,
        64,
        48,
        48,
        72,
        542,
        550,
        543,
        64,
        48,
        48,
        72,
        417,
        417,
        417,
        676,
        677,
        660,
        661,
        646,
        645,
        646,
        645,
        646,
        645,
        646,
        645,
        646,
        654,
        653,
        654,
        653,
        654,
        655,
        0,
        0,
        0,
        0,
        0,
        465,
        64,
        48,
        48,
        50,
        68,
        68,
        68,
        49,
        48,
        48,
        72,
        417,
        417,
        417,
        417,
        417,
        668,
        669,
        654,
        653,
        654,
        653,
        654,
        653,
        654,
        653,
        654,
        646,
        645,
        646,
        645,
        646,
        645,
        646,
        645,
        646,
        645,
        646,
        647,
        64,
        48,
        48,
        48,
        48,
        48,
        48,
        48,
        48,
        48,
        72,
        417,
        417,
        417,
        417,
        417,
        676,
        677,
        644,
        645,
        646,
        645,
        646,
        645,
        646,
        645,
        646,
        654,
        653,
        654,
        653,
        654,
        653,
        654,
        653,
        654,
        653,
        654,
        653,
        88,
        76,
        56,
        48,
        48,
        48,
        48,
        48,
        48,
        52,
        86,
        417,
        417,
        417,
        417,
        417,
        417,
        417,
        652,
        653,
        654,
        653,
        654,
        653,
        654,
        653,
        654,
        646,
        645,
        646,
        645,
        646,
        645,
        646,
        645,
        646,
        645,
        646,
        645,
        646,
        647,
        88,
        76,
        56,
        48,
        48,
        52,
        76,
        86,
        417,
        417,
        417,
        417,
        417,
        417,
        417,
        417,
        644,
        645,
        646,
        645,
        646,
        645,
        646,
        645,
        646,
        654,
        653,
        654,
        653,
        654,
        653,
        654,
        653,
        654,
        653,
        654,
        653,
        654,
        655,
        0,
        416,
        88,
        76,
        76,
        86,
        0,
        417,
        417,
        417,
        417,
        417,
        417,
        417,
        417,
        417,
        652,
        653,
        654,
        653,
        654,
        653,
        654,
        653,
        654,
        646,
        645,
        646,
        645,
        646,
        645,
        646,
        645,
        646,
        645,
        646,
        645,
        646,
        647,
        628,
        629,
        0,
        416,
        0,
        0,
        0,
        417,
        417,
        417,
        417,
        417,
        417,
        417,
        644,
        645,
        646,
        645,
        646,
        645,
        646,
        645,
        646,
        645,
        646,
        654,
        653,
        654,
        653,
        654,
        653,
        654,
        653,
        654,
        653,
        654,
        653,
        654,
        655,
        636,
        637,
        0,
        0,
        0,
        417,
        417,
        417,
        417,
        417,
        417,
        417,
        417,
        417,
        654,
        653,
        654,
        653,
        654,
        653,
        654,
        653,
        654,
        653,
        654,
        646,
        645,
        646,
        645,
        646,
        645,
        646,
        645,
        646,
        645,
        646,
        645,
        646,
        645,
        646,
        647,
        0,
        417,
        417,
        417,
        417,
        417,
        417,
        417,
        417,
        417,
        644,
        645,
        646,
        645,
        646,
        645,
        646,
        645,
        646,
        645,
        646,
        645,
        646,
        654,
        653,
        654,
        653,
        654,
        653,
        654,
        653,
        654,
        653,
        654,
        653,
        654,
        655,
        654,
        655,
        447,
        417,
        417,
        417,
        417,
        417,
        417,
        417,
        417,
        417,
        652,
        653,
        654,
        653,
        654,
        653,
        654,
        653,
        654,
        653,
        654,
        653,
        654,
        646,
        645,
        646,
        645,
        646,
        645,
        646,
        645,
        646,
        645,
        646,
        645,
        646,
        645,
        646,
        645,
        646,
        645,
        646,
        645,
        646,
        645,
        646,
        645,
        646,
        645,
        646,
        645,
        646,
        645,
        646,
        645,
        646,
        645,
        646,
        645,
        646,
        645,
        646,
        654,
        653,
        654,
        653,
        654,
        653,
        654,
        653,
        654,
        653,
        654,
        653,
        654,
        653,
        654,
        653,
        654,
        653,
        654,
        653,
        654,
        653,
        654,
        653,
        654,
        653,
        654,
        653,
        654,
        653,
        654,
        653,
        654,
        653,
        654,
        653,
        654,
        653,
        654,
        646,
        645,
        646,
        645,
        646,
        645,
        646,
        645,
        646,
        645,
        646,
        645,
        646,
        645,
        646,
        645,
        646,
        645,
        646,
        645,
        646,
        645,
        646,
        645,
        646,
        645,
        646,
        645,
        646,
        645,
        646,
        645,
        646,
        645,
        646,
        645,
        646,
        645,
        646,
        654,
        653,
        654,
        653,
        654,
        653,
        654,
        653,
        654,
        653,
        654,
        653,
        654,
        653,
        654,
        653,
        654,
        653,
        654,
        653,
        654,
        653,
        654,
        653,
        654,
        653,
        654,
        653,
        654,
        653,
        654,
        653,
        654,
        653,
        654,
        653,
        654,
        653,
        654,
        646,
        645,
        646,
        645,
        646,
        645,
        646,
        645,
        646,
        645,
        646,
        645,
        646,
        645,
        646,
        645,
        646,
        645,
        646,
        645,
        646,
        645,
        646,
        645,
        646,
        645,
        646,
        645,
        646,
        645,
        646,
        645,
        646,
        645,
        646,
        645,
        646,
        645,
        646,
        654,
        653,
        654,
        653,
        654,
        653,
        654,
        653,
        654,
        653,
        654,
        653,
        654,
        653,
        654,
        653,
        654,
        653,
        654,
        653,
        654,
        653,
        654,
        653,
        654,
        653,
        654,
        653,
        654,
        653,
        654,
        653,
        654,
        653,
        654,
        653,
        654,
        653,
        654,
        646,
        645,
        646,
        645,
        646,
        645,
        646,
        645,
        646,
        645,
        646,
        645,
        646,
        645,
        646,
        645,
        646,
        645,
        646,
        645,
        646,
        645,
        646,
        645,
        646,
        645,
        646,
        645,
        646,
        645,
        646,
        645,
        646,
        645,
        646,
        645,
        646,
        645,
        646,
        654,
        653,
        654,
        653,
        654,
        653,
        654,
        653,
        654,
        653,
        654,
        653,
        654,
        653,
        654,
        653,
        654,
        653,
        654,
        653,
        654,
        653,
        654,
        653,
        654,
        653,
        654,
        653,
        654,
        653,
        654,
        653,
        654,
        653,
        654,
        653,
        654,
        653,
        654,
        646,
        645,
        646,
        645,
        646,
        645,
        646,
        645,
        646,
        645,
        646,
        645,
        646,
        645,
        646,
        645,
        646,
        645,
        646,
        645,
        646,
        645,
        646,
        645,
        646,
        645,
        646,
        645,
        646,
        645,
        646,
        645,
        646,
        645,
        646,
        645,
        646
      ]
    },
    {
      "id": 3,
      "name": "Overhead",
      "type": "tilelayer",
      "width": 39,
      "height": 55,
      "visible": true,
      "data": [
        645,
        646,
        0,
        0,
        0,
        0,
        0,
        0,
        0,
        0,
        0,
        0,
        0,
        0,
        0,
        0,
        0,
        0,
        0,
        0,
        0,
        0,
        0,
        0,
        0,
        0,
        0,
        0,
        0,
        0,
        0,
        0,
        0,
        0,
        0,
        0,
        0,
        0,
        0,
        0,
        0,
        0,
        0,
        0,
        0,
        0,
        0,
        0,
        0,
        0,
        0,
        0,
        0,
        0,
        0,
        0,
        0,
        0,
        0,
        0,
        0,
        0,
        0,
        0,
        0,
        0,
        0,
        0,
        0,
        0,
        0,
        0,
        0,
        0,
        0,
        0,
        0,
        0,
        0,
        0,
        0,
        0,
        0,
        0,
        0,
        0,
        0,
        0,
        0,
        0,
        0,
        0,
        0,
        0,
        0,
        0,
        0,
        0,
        0,
        0,
        0,
        0,
        0,
        0,
        0,
        0,
        0,
        0,
        0,
        0,
        0,
        0,
        0,
        0,
        0,
        0,
        0,
        0,
        0,
        0,
        0,
        0,
        0,
        0,
        0,
        0,
        0,
        0,
        0,
        0,
        0,
        0,
        0,
        0,
        0,
        0,
        0,
        0,
        0,
        0,
        0,
        0,
        0,
        0,
        0,
        0,
        0,
        0,
        0,
        0,
        0,
        0,
        0,
        0,
        0,
        0,
        0,
        0,
        0,
        0,
        0,
        0,
        0,
        0,
        0,
        0,
        0,
        0,
        0,
        0,
        0,
        0,
        0,
        0,
        0,
        0,
        0,
        0,
        0,
        0,
        0,
        0,
        0,
        0,
        0,
        0,
        0,
        0,
        0,
        0,
        0,
        0,
        0,
        0,
        0,
        0,
        0,
        0,
        0,
        0,
        0,
        0,
        0,
        0,
        0,
        0,
        0,
        0,
        0,
        0,
        0,
        0,
        0,
        0,
        0,
        0,
        0,
        0,
        0,
        0,
        0,
        0,
        0,
        0,
        0,
        0,
        0,
        0,
        0,
        0,
        0,
        0,
        0,
        0,
        0,
        0,
        0,
        0,
        0,
        0,
        0,
        0,
        0,
        0,
        0,
        0,
        0,
        0,
        0,
        0,
        0,
        0,
        0,
        0,
        0,
        0,
        0,
        0,
        0,
        0,
        0,
        0,
        0,
        0,
        0,
        0,
        0,
        0,
        0,
        0,
        0,
        0,
        0,
        0,
        0,
        0,
        0,
        0,
        0,
        0,
        0,
        0,
        0,
        0,
        0,
        0,
        0,
        0,
        0,
        0,
        0,
        0,
        0,
        0,
        0,
        0,
        0,
        0,
        0,
        0,
        0,
        0,
        0,
        0,
        0,
        0,
        0,
        0,
        0,
        0,
        0,
        0,
        0,
        0,
        0,
        0,
        0,
        0,
        0,
        0,
        0,
        0,
        0,
        0,
        0,
        0,
        0,
        0,
        0,
        0,
        0,
        0,
        0,
        0,
        0,
        0,
        0,
        0,
        0,
        0,
        0,
        0,
        0,
        0,
        0,
        0,
        0,
        0,
        0,
        0,
        0,
        0,
        0,
        0,
        0,
        0,
        0,
        0,
        0,
        0,
        0,
        0,
        0,
        0,
        0,
        0,
        0,
        0,
        0,
        0,
        0,
        0,
        0,
        0,
        0,
        0,
        0,
        0,
        0,
        0,
        0,
        0,
        0,
        0,
        0,
        0,
        0,
        0,
        0,
        0,
        0,
        0,
        0,
        0,
        0,
        0,
        0,
        0,
        0,
        0,
        0,
        0,
        0,
        0,
        0,
        0,
        0,
        0,
        0,
        0,
        0,
        0,
        0,
        0,
        0,
        0,
        628,
        629,
        0,
        0,
        0,
        0,
        0,
        0,
        0,
        0,
        0,
        0,
        0,
        0,
        0,
        0,
        0,
        0,
        0,
        0,
        0,
        0,
        0,
        0,
        0,
        0,
        0,
        0,
        0,
        0,
        0,
        0,
        0,
        0,
        0,
        0,
        0,
        0,
        0,
        636,
        637,
        0,
        0,
        0,
        0,
        0,
        0,
        0,
        0,
        0,
        0,
        0,
        0,
        0,
        0,
        0,
        0,
        0,
        0,
        0,
        0,
        0,
        0,
        0,
        0,
        0,
        0,
        0,
        0,
        0,
        0,
        0,
        0,
        0,
        0,
        0,
        0,
        0,
        0,
        0,
        0,
        0,
        0,
        0,
        0,
        0,
        0,
        0,
        0,
        0,
        0,
        0,
        0,
        0,
        0,
        0,
        0,
        0,
        0,
        0,
        0,
        0,
        0,
        0,
        0,
        0,
        0,
        0,
        0,
        0,
        0,
        0,
        0,
        0,
        0,
        0,
        0,
        0,
        0,
        0,
        0,
        0,
        0,
        0,
        0,
        0,
        0,
        0,
        0,
        0,
        0,
        0,
        0,
        0,
        0,
        0,
        0,
        0,
        0,
        0,
        0,
        0,
        0,
        0,
        0,
        0,
        0,
        0,
        0,
        0,
        0,
        0,
        0,
        0,
        0,
        0,
        0,
        0,
        0,
        0,
        0,
        0,
        0,
        0,
        0,
        0,
        0,
        0,
        0,
        0,
        0,
        0,
        0,
        0,
        0,
        0,
        0,
        0,
        0,
        0,
        0,
        0,
        0,
        0,
        0,
        0,
        0,
        0,
        0,
        0,
        0,
        0,
        0,
        0,
        0,
        0,
        0,
        0,
        0,
        0,
        0,
        0,
        0,
        0,
        0,
        0,
        0,
        0,
        0,
        0,
        0,
        0,
        0,
        0,
        0,
        0,
        0,
        0,
        0,
        0,
        0,
        0,
        0,
        0,
        0,
        0,
        0,
        0,
        0,
        0,
        0,
        0,
        0,
        0,
        0,
        0,
        0,
        0,
        0,
        0,
        0,
        0,
        0,
        0,
        0,
        0,
        0,
        0,
        0,
        431,
        0,
        431,
        0,
        0,
        0,
        0,
        0,
        0,
        0,
        0,
        0,
        0,
        0,
        0,
        0,
        0,
        0,
        0,
        0,
        431,
        0,
        431,
        0,
        431,
        0,
        431,
        0,
        431,
        0,
        431,
        0,
        431,
        0,
        431,
        0,
        0,
        0,
        431,
        0,
        0,
        0,
        0,
        0,
        0,
        0,
        0,
        0,
        0,
        0,
        0,
        0,
        0,
        0,
        0,
        439,
        0,
        439,
        0,
        439,
        0,
        439,
        0,
        439,
        0,
        0,
        0,
        0,
        0,
        0,
        0,
        0,
        0,
        0,
        0,
        0,
        0,
        0,
        0,
        0,
        0,
        0,
        0,
        0,
        0,
        0,
        0,
        0,
        0,
        0,
        0,
        0,
        0,
        0,
        447,
        0,
        447,
        0,
        447,
        0,
        447,
        0,
        447,
        0,
        0,
        0,
        0,
        0,
        0,
        0,
        0,
        0,
        0,
        0,
        0,
        0,
        0,
        0,
        0,
        0,
        0,
        0,
        0,
        0,
        0,
        0,
        0,
        0,
        0,
        0,
        0,
        0,
        0,
        455,
        0,
        455,
        0,
        455,
        0,
        455,
        0,
        455,
        0,
        0,
        0,
        0,
        0,
        0,
        0,
        0,
        0,
        0,
        0,
        0,
        0,
        0,
        0,
        0,
        0,
        0,
        0,
        0,
        0,
        0,
        0,
        0,
        0,
        0,
        0,
        0,
        0,
        0,
        431,
        0,
        431,
        0,
        431,
        0,
        431,
        0,
        431,
        0,
        0,
        0,
        0,
        0,
        0,
        0,
        0,
        0,
        0,
        0,
        0,
        0,
        0,
        0,
        0,
        0,
        0,
        0,
        0,
        0,
        0,
        0,
        0,
        0,
        0,
        0,
        0,
        0,
        0,
        0,
        0,
        0,
        0,
        0,
        0,
        439,
        0,
        439,
        0,
        0,
        0,
        0,
        0,
        0,
        0,
        0,
        0,
        0,
        0,
        0,
        0,
        0,
        0,
        0,
        0,
        0,
        0,
        0,
        0,
        0,
        0,
        0,
        0,
        0,
        0,
        0,
        0,
        0,
        0,
        0,
        0,
        0,
        0,
        0,
        0,
        0,
        0,
        0,
        0,
        0,
        0,
        0,
        0,
        0,
        0,
        0,
        0,
        0,
        0,
        0,
        0,
        0,
        0,
        0,
        0,
        0,
        0,
        0,
        0,
        0,
        0,
        0,
        0,
        0,
        0,
        0,
        0,
        0,
        0,
        0,
        0,
        0,
        0,
        0,
        0,
        0,
        0,
        0,
        0,
        0,
        0,
        0,
        0,
        0,
        0,
        0,
        0,
        0,
        0,
        0,
        0,
        0,
        0,
        0,
        0,
        0,
        0,
        0,
        0,
        0,
        0,
        0,
        0,
        0,
        0,
        0,
        0,
        0,
        0,
        0,
        0,
        0,
        0,
        0,
        0,
        0,
        0,
        0,
        0,
        0,
        0,
        0,
        0,
        0,
        0,
        0,
        0,
        0,
        0,
        0,
        0,
        0,
        0,
        0,
        0,
        0,
        0,
        0,
        0,
        0,
        0,
        0,
        0,
        0,
        0,
        0,
        0,
        0,
        0,
        0,
        0,
        0,
        0,
        0,
        0,
        0,
        0,
        0,
        0,
        0,
        0,
        0,
        0,
        0,
        0,
        0,
        0,
        0,
        0,
        0,
        0,
        0,
        0,
        0,
        0,
        0,
        0,
        0,
        0,
        0,
        0,
        0,
        0,
        0,
        0,
        0,
        0,
        0,
        0,
        0,
        0,
        0,
        0,
        0,
        0,
        0,
        0,
        0,
        0,
        0,
        0,
        0,
        0,
        0,
        0,
        0,
        0,
        0,
        0,
        0,
        452,
        0,
        0,
        0,
        0,
        0,
        0,
        0,
        0,
        0,
        0,
        0,
        0,
        0,
        0,
        0,
        0,
        0,
        0,
        0,
        0,
        0,
        0,
        0,
        0,
        0,
        0,
        0,
        0,
        0,
        0,
        0,
        0,
        0,
        0,
        0,
        0,
        0,
        0,
        460,
        0,
        0,
        0,
        0,
        0,
        0,
        0,
        0,
        0,
        0,
        0,
        0,
        0,
        0,
        0,
        0,
        0,
        0,
        0,
        0,
        0,
        0,
        0,
        0,
        0,
        0,
        0,
        0,
        0,
        0,
        0,
        0,
        0,
        0,
        0,
        0,
        0,
        0,
        0,
        0,
        0,
        0,
        0,
        0,
        0,
        0,
        0,
        0,
        0,
        0,
        0,
        0,
        0,
        0,
        0,
        0,
        0,
        0,
        0,
        0,
        0,
        0,
        0,
        0,
        0,
        0,
        0,
        0,
        0,
        0,
        0,
        0,
        0,
        0,
        0,
        0,
        0,
        0,
        0,
        0,
        0,
        0,
        0,
        0,
        0,
        0,
        0,
        0,
        0,
        0,
        0,
        0,
        0,
        0,
        0,
        0,
        0,
        0,
        0,
        0,
        0,
        0,
        0,
        0,
        0,
        0,
        0,
        0,
        0,
        0,
        0,
        0,
        0,
        628,
        629,
        628,
        629,
        0,
        0,
        0,
        0,
        0,
        0,
        0,
        0,
        0,
        0,
        0,
        0,
        0,
        0,
        0,
        0,
        0,
        0,
        0,
        0,
        0,
        0,
        0,
        0,
        0,
        0,
        0,
        0,
        0,
        0,
        0,
        0,
        0,
        0,
        0,
        636,
        637,
        636,
        637,
        0,
        0,
        0,
        0,
        0,
        0,
        0,
        0,
        0,
        0,
        0,
        0,
        0,
        0,
        0,
        0,
        0,
        0,
        0,
        0,
        0,
        0,
        0,
        0,
        0,
        0,
        0,
        0,
        0,
        0,
        0,
        0,
        0,
        0,
        0,
        439,
        0,
        439,
        0,
        630,
        629,
        468,
        469,
        469,
        469,
        470,
        457,
        0,
        0,
        0,
        0,
        0,
        0,
        0,
        0,
        0,
        0,
        0,
        0,
        0,
        0,
        0,
        0,
        0,
        0,
        0,
        0,
        0,
        0,
        0,
        0,
        0,
        0,
        0,
        447,
        0,
        447,
        0,
        638,
        637,
        468,
        469,
        469,
        469,
        470,
        0,
        0,
        0,
        0,
        0,
        0,
        0,
        0,
        0,
        0,
        0,
        0,
        0,
        0,
        0,
        0,
        0,
        0,
        0,
        0,
        0,
        0,
        0,
        0,
        0,
        0,
        0,
        0,
        455,
        0,
        455,
        0,
        0,
        0,
        630,
        629,
        630,
        629,
        630,
        629,
        0,
        0,
        0,
        0,
        0,
        0,
        0,
        0,
        0,
        0,
        0,
        0,
        0,
        0,
        0,
        0,
        0,
        0,
        0,
        0,
        431,
        0,
        0,
        0,
        0,
        0,
        0,
        431,
        0,
        431,
        0,
        0,
        0,
        638,
        637,
        638,
        637,
        638,
        637,
        0,
        0,
        0,
        0,
        0,
        0,
        0,
        0,
        0,
        0,
        0,
        0,
        0,
        0,
        0,
        0,
        0,
        0,
        0,
        0,
        439,
        0,
        0,
        0,
        0,
        0,
        0,
        439,
        0,
        439,
        0,
        0,
        0,
        439,
        0,
        0,
        0,
        0,
        0,
        630,
        629,
        0,
        0,
        0,
        0,
        0,
        0,
        0,
        0,
        0,
        0,
        0,
        0,
        0,
        0,
        0,
        0,
        0,
        0,
        447,
        0,
        0,
        0,
        0,
        0,
        0,
        447,
        0,
        447,
        0,
        0,
        0,
        447,
        0,
        0,
        0,
        0,
        0,
        638,
        637,
        0,
        0,
        0,
        0,
        0,
        0,
        0,
        0,
        0,
        0,
        0,
        0,
        0,
        0,
        0,
        0,
        0,
        0,
        455,
        0,
        0,
        0,
        0,
        0,
        0,
        455,
        0,
        455,
        0,
        0,
        0,
        455,
        0,
        0,
        0,
        0,
        0,
        0,
        0,
        0,
        0,
        0,
        0,
        0,
        0,
        0,
        0,
        0,
        0,
        0,
        0,
        0,
        0,
        628,
        629,
        0,
        0,
        447,
        0,
        0,
        0,
        628,
        629,
        628,
        431,
        0,
        431,
        0,
        0,
        0,
        431,
        0,
        0,
        0,
        0,
        0,
        0,
        0,
        0,
        0,
        0,
        0,
        0,
        0,
        0,
        0,
        0,
        0,
        0,
        0,
        0,
        0,
        636,
        637,
        0,
        0,
        455,
        0,
        0,
        0,
        636,
        0,
        636,
        439,
        0,
        439,
        0,
        0,
        0,
        439,
        0,
        0,
        0,
        0,
        0,
        0,
        0,
        0,
        0,
        0,
        0,
        0,
        0,
        0,
        0,
        0,
        0,
        0,
        0,
        628,
        629,
        0,
        0,
        533,
        0,
        0,
        0,
        0,
        0,
        0,
        0,
        0,
        447,
        0,
        447,
        0,
        0,
        0,
        447,
        0,
        0,
        0,
        0,
        0,
        0,
        0,
        0,
        0,
        0,
        0,
        0,
        0,
        0,
        0,
        0,
        0,
        0,
        0,
        636,
        637,
        0,
        0,
        541,
        0,
        0,
        0,
        0,
        0,
        0,
        0,
        0,
        455,
        0,
        455,
        0,
        0,
        0,
        455,
        0,
        0,
        0,
        0,
        0,
        0,
        0,
        0,
        0,
        628,
        629,
        628,
        629,
        628,
        629,
        628,
        629,
        628,
        629,
        0,
        0,
        0,
        0,
        0,
        0,
        0,
        0,
        0,
        0,
        0,
        0,
        0,
        431,
        0,
        431,
        0,
        0,
        0,
        431,
        0,
        431,
        0,
        431,
        0,
        431,
        653,
        0,
        0,
        636,
        637,
        636,
        637,
        636,
        637,
        636,
        637,
        636,
        637,
        0,
        0,
        0,
        0,
        0,
        0,
        0,
        0,
        0,
        0,
        0,
        0,
        0,
        439,
        0,
        439,
        0,
        0,
        0,
        439,
        0,
        439,
        0,
        439,
        0,
        439,
        0,
        439,
        0,
        0,
        0,
        0,
        0,
        0,
        0,
        0,
        0,
        0,
        0,
        0,
        0,
        0,
        0,
        0,
        0,
        0,
        0,
        0,
        0,
        0,
        0,
        0,
        447,
        0,
        447,
        0,
        0,
        0,
        447,
        0,
        447,
        0,
        447,
        0,
        447,
        0,
        447,
        0,
        431,
        0,
        431,
        0,
        431,
        0,
        431,
        0,
        431,
        0,
        431,
        0,
        431,
        0,
        431,
        0,
        431,
        0,
        431,
        0,
        431,
        0,
        431,
        455,
        0,
        455,
        0,
        0,
        0,
        455,
        0,
        455,
        0,
        455,
        0,
        455,
        0,
        455,
        0,
        439,
        0,
        439,
        0,
        439,
        0,
        439,
        0,
        439,
        0,
        439,
        0,
        439,
        0,
        439,
        0,
        439,
        0,
        439,
        0,
        439,
        0,
        439,
        431,
        0,
        431,
        0,
        0,
        0,
        431,
        0,
        431,
        0,
        431,
        0,
        431,
        0,
        431,
        0,
        447,
        0,
        447,
        0,
        447,
        0,
        447,
        0,
        447,
        0,
        447,
        0,
        447,
        0,
        447,
        0,
        447,
        0,
        447,
        0,
        447,
        0,
        447,
        439,
        0,
        439,
        0,
        0,
        0,
        439,
        0,
        439,
        0,
        439,
        0,
        439,
        0,
        439,
        0,
        455,
        0,
        455,
        0,
        455,
        0,
        455,
        0,
        455,
        0,
        455,
        0,
        455,
        0,
        455,
        0,
        455,
        0,
        455,
        0,
        455,
        0,
        455,
        447,
        0,
        447,
        0,
        0,
        0,
        447,
        0,
        447,
        0,
        447,
        0,
        447,
        0,
        447,
        0,
        431,
        0,
        431,
        0,
        431,
        0,
        431,
        0,
        431,
        0,
        431,
        0,
        431,
        0,
        431,
        0,
        431,
        0,
        431,
        0,
        431,
        0,
        431,
        455,
        0,
        455,
        0,
        0,
        0,
        455,
        0,
        455,
        0,
        455,
        0,
        455,
        0,
        455,
        0,
        439,
        0,
        439,
        0,
        439,
        0,
        439,
        0,
        439,
        0,
        439,
        0,
        439,
        0,
        439,
        0,
        439,
        0,
        439,
        0,
        439,
        0,
        439,
        431,
        0,
        431,
        0,
        0,
        0,
        431,
        0,
        431,
        0,
        431,
        0,
        431,
        0,
        431,
        0,
        447,
        0,
        447,
        0,
        447,
        0,
        447,
        0,
        447,
        0,
        447,
        0,
        447,
        0,
        447,
        0,
        447,
        0,
        447,
        0,
        447,
        0,
        447,
        439,
        0,
        439,
        0,
        0,
        0,
        439,
        0,
        439,
        0,
        439,
        0,
        439,
        0,
        0,
        0,
        455,
        0,
        455,
        0,
        455,
        0,
        455,
        0,
        455,
        0,
        455,
        0,
        455,
        0,
        455,
        0,
        455,
        0,
        455,
        0,
        455
      ]
    },
    {
      "id": 4,
      "name": "Objects",
      "type": "objectgroup",
      "objects": []
    }
  ],
  "tilesets": [
    {
      "firstgid": 384,
      "name": "outdoor",
      "image": "assets/tilesets/Outdoor.png",
      "imagewidth": 256,
      "imageheight": 22080,
      "tilewidth": 16,
      "tileheight": 16,
      "columns": 16,
      "tilecount": 22080
    }
  ],
  "properties": [
    {
      "name": "mapId",
      "type": "string",
      "value": "map-43"
    },
    {
      "name": "name",
      "type": "string",
      "value": "Route 1"
    },
    {
      "name": "mapType",
      "type": "string",
      "value": "route"
    }
  ]
}